(R-PERNA-FURAO-BANCADA)
(T2 D=3.175 CR=0. - ZMIN=-21.5 - FLAT END MILL)
G90 G94 G91.1 G40 G49 G17
G21
G28 G91 Z0.
G90

(2D POCKET2)
T2 M6
S10000 M3
G17 G90 G94
G54
M8
G0 X260.545 Y24.527
G43 Z15. H2
G0 Z5.
G1 Z-0.027 F534.
X260.552 Y24.526 Z-0.09 F1068.
X260.573 Y24.523 Z-0.151
X260.607 Y24.518 Z-0.205
X260.652 Y24.511 Z-0.25
X260.705 Y24.502 Z-0.284
X260.765 Y24.493 Z-0.305
X260.828 Y24.483 Z-0.313
X261.719 Y24.341
X261.769 Y24.337
X285.613
G3 Y24.663 I0. J0.163
G1 X261.768
X285.613 Z-0.467
G2 Y24.337 Z-0.47 I0. J-0.163
G1 X261.769 Z-0.625
X285.613
G3 Y24.663 I0. J0.163
G1 X261.768
X285.613 Z-0.78
G2 Y24.337 Z-0.783 I0. J-0.163
G1 X261.769 Z-0.938
X285.613
G3 Y24.663 I0. J0.163
G1 X261.768
X285.613 Z-1.092
G2 Y24.337 Z-1.095 I0. J-0.163
G1 X261.769 Z-1.25
X285.613
G3 Y24.663 I0. J0.163
G1 X261.768
X285.613 Z-1.405
G2 Y24.337 Z-1.408 I0. J-0.163
G1 X261.769 Z-1.563
X285.613
G3 Y24.663 I0. J0.163
G1 X261.768
X285.613 Z-1.717
G2 Y24.337 Z-1.72 I0. J-0.163
G1 X261.769 Z-1.875
X285.613
G3 Y24.663 I0. J0.163
G1 X261.768
X285.613 Z-2.03
G2 Y24.337 Z-2.033 I0. J-0.163
G1 X261.769 Z-2.188
X285.613
G3 Y24.663 I0. J0.163
G1 X261.768
X285.613 Z-2.342
G2 Y24.337 Z-2.345 I0. J-0.163
G1 X261.769 Z-2.5
X285.613
G3 Y24.663 I0. J0.163
G1 X261.768
X285.613 Z-2.655
G2 Y24.337 Z-2.658 I0. J-0.163
G1 X261.769 Z-2.813
X285.613
G3 Y24.663 I0. J0.163
G1 X261.768
X285.613 Z-2.967
G2 Y24.337 Z-2.97 I0. J-0.163
G1 X261.769 Z-3.125
X285.613
G3 Y24.663 I0. J0.163
G1 X261.768
X285.613 Z-3.28
G2 Y24.337 Z-3.283 I0. J-0.163
G1 X261.769 Z-3.438
X285.613
G3 Y24.663 I0. J0.163
G1 X261.768
X285.613 Z-3.592
G2 Y24.337 Z-3.595 I0. J-0.163
G1 X261.769 Z-3.75
X285.613
G3 Y24.663 I0. J0.163
G1 X261.768
X285.613 Z-3.905
G2 Y24.337 Z-3.908 I0. J-0.163
G1 X261.769 Z-4.063
X285.613
G3 Y24.663 I0. J0.163
G1 X261.768
X285.613 Z-4.217
G2 Y24.337 Z-4.22 I0. J-0.163
G1 X261.769 Z-4.375
X285.613
G3 Y24.663 I0. J0.163
G1 X261.768
X285.613 Z-4.53
G2 Y24.337 Z-4.533 I0. J-0.163
G1 X261.769 Z-4.688
X285.613
G3 Y24.663 I0. J0.163
G1 X261.768
X285.613 Z-4.842
G2 Y24.337 Z-4.845 I0. J-0.163
G1 X261.769 Z-5.
X285.613
G3 Y24.663 I0. J0.163
G1 X261.768
X285.613 Z-5.155
G2 Y24.337 Z-5.158 I0. J-0.163
G1 X261.769 Z-5.313
X285.613
G3 Y24.663 I0. J0.163
G1 X261.768
X285.613 Z-5.467
G2 Y24.337 Z-5.47 I0. J-0.163
G1 X261.769 Z-5.625
X285.613
G3 Y24.663 I0. J0.163
G1 X261.768
X285.613 Z-5.78
G2 Y24.337 Z-5.783 I0. J-0.163
G1 X261.769 Z-5.938
X285.613
G3 Y24.663 I0. J0.163
G1 X261.768
X285.613 Z-6.092
G2 Y24.337 Z-6.095 I0. J-0.163
G1 X261.769 Z-6.25
X285.613
G3 Y24.663 I0. J0.163
G1 X261.768
X285.613 Z-6.405
G2 Y24.337 Z-6.408 I0. J-0.163
G1 X261.769 Z-6.563
X285.613
G3 Y24.663 I0. J0.163
G1 X261.768
X285.613 Z-6.717
G2 Y24.337 Z-6.72 I0. J-0.163
G1 X261.769 Z-6.875
X285.613
G3 Y24.663 I0. J0.163
G1 X261.768
X285.613 Z-7.03
G2 Y24.337 Z-7.033 I0. J-0.163
G1 X261.769 Z-7.188
X285.613
G3 Y24.663 I0. J0.163
G1 X261.768
X285.613 Z-7.342
G2 Y24.337 Z-7.345 I0. J-0.163
G1 X261.769 Z-7.5
X285.613
G3 Y24.663 I0. J0.163
G1 X261.768
X285.613 Z-7.655
G2 Y24.337 Z-7.658 I0. J-0.163
G1 X261.769 Z-7.813
X285.613
G3 Y24.663 I0. J0.163
G1 X261.768
X285.613 Z-7.967
G2 Y24.337 Z-7.97 I0. J-0.163
G1 X261.769 Z-8.125
X285.613
G3 Y24.663 I0. J0.163
G1 X261.768
X285.613 Z-8.28
G2 Y24.337 Z-8.283 I0. J-0.163
G1 X261.769 Z-8.438
X285.613
G3 Y24.663 I0. J0.163
G1 X261.768
X285.613 Z-8.592
G2 Y24.337 Z-8.595 I0. J-0.163
G1 X261.769 Z-8.75
X285.613
G3 Y24.663 I0. J0.163
G1 X261.768
X285.613 Z-8.905
G2 Y24.337 Z-8.908 I0. J-0.163
G1 X261.769 Z-9.063
X285.613
G3 Y24.663 I0. J0.163
G1 X261.768
X285.613 Z-9.217
G2 Y24.337 Z-9.22 I0. J-0.163
G1 X261.769 Z-9.375
X285.613
G3 Y24.663 I0. J0.163
G1 X261.768
X285.613 Z-9.53
G2 Y24.337 Z-9.533 I0. J-0.163
G1 X261.769 Z-9.688
X285.613
G3 Y24.663 I0. J0.163
G1 X261.768
X285.613 Z-9.842
G2 Y24.337 Z-9.845 I0. J-0.163
G1 X261.769 Z-10.
X285.613
G3 Y24.663 I0. J0.163
G1 X261.768
X285.613 Z-10.155
G2 Y24.337 Z-10.158 I0. J-0.163
G1 X261.769 Z-10.313
X285.613
G3 Y24.663 I0. J0.163
G1 X261.768
X285.613 Z-10.467
G2 Y24.337 Z-10.47 I0. J-0.163
G1 X261.769 Z-10.625
X285.613
G3 Y24.663 I0. J0.163
G1 X261.768
X285.613 Z-10.78
G2 Y24.337 Z-10.783 I0. J-0.163
G1 X261.769 Z-10.938
X285.613
G3 Y24.663 I0. J0.163
G1 X261.768
X285.613 Z-11.092
G2 Y24.337 Z-11.095 I0. J-0.163
G1 X261.769 Z-11.25
X285.613
G3 Y24.663 I0. J0.163
G1 X261.768
X285.613 Z-11.405
G2 Y24.337 Z-11.408 I0. J-0.163
G1 X261.769 Z-11.563
X285.613
G3 Y24.663 I0. J0.163
G1 X261.768
X285.613 Z-11.717
G2 Y24.337 Z-11.72 I0. J-0.163
G1 X261.769 Z-11.875
X285.613
G3 Y24.663 I0. J0.163
G1 X261.768
X285.613 Z-12.03
G2 Y24.337 Z-12.033 I0. J-0.163
G1 X261.769 Z-12.188
X285.613
G3 Y24.663 I0. J0.163
G1 X261.768
X285.613 Z-12.342
G2 Y24.337 Z-12.345 I0. J-0.163
G1 X261.769 Z-12.5
X285.613
G3 Y24.663 I0. J0.163
G1 X261.768
X285.613 Z-12.655
G2 Y24.337 Z-12.658 I0. J-0.163
G1 X261.769 Z-12.813
X285.613
G3 Y24.663 I0. J0.163
G1 X261.768
X285.613 Z-12.967
G2 Y24.337 Z-12.97 I0. J-0.163
G1 X261.769 Z-13.125
X285.613
G3 Y24.663 I0. J0.163
G1 X261.768
X285.613 Z-13.28
G2 Y24.337 Z-13.283 I0. J-0.163
G1 X261.769 Z-13.438
X285.613
G3 Y24.663 I0. J0.163
G1 X261.768
X285.613 Z-13.592
G2 Y24.337 Z-13.595 I0. J-0.163
G1 X261.769 Z-13.75
X285.613
G3 Y24.663 I0. J0.163
G1 X261.768
X285.613 Z-13.905
G2 Y24.337 Z-13.908 I0. J-0.163
G1 X261.769 Z-14.063
X285.613
G3 Y24.663 I0. J0.163
G1 X261.768
X285.613 Z-14.217
G2 Y24.337 Z-14.22 I0. J-0.163
G1 X261.769 Z-14.375
X285.613
G3 Y24.663 I0. J0.163
G1 X261.768
X285.613 Z-14.53
G2 Y24.337 Z-14.533 I0. J-0.163
G1 X261.769 Z-14.688
X285.613
G3 Y24.663 I0. J0.163
G1 X261.768
X285.613 Z-14.842
G2 Y24.337 Z-14.845 I0. J-0.163
G1 X261.769 Z-15.
X285.613
G3 Y24.663 I0. J0.163
G1 X261.768
X285.613 Z-15.155
G2 Y24.337 Z-15.158 I0. J-0.163
G1 X261.769 Z-15.313
X285.613
G3 Y24.663 I0. J0.163
G1 X261.768
X285.613 Z-15.467
G2 Y24.337 Z-15.47 I0. J-0.163
G1 X261.769 Z-15.625
X285.613
G3 Y24.663 I0. J0.163
G1 X261.768
X285.613 Z-15.78
G2 Y24.337 Z-15.783 I0. J-0.163
G1 X261.769 Z-15.938
X285.613
G3 Y24.663 I0. J0.163
G1 X261.768
X285.613 Z-16.092
G2 Y24.337 Z-16.095 I0. J-0.163
G1 X261.769 Z-16.25
X285.613
G3 Y24.663 I0. J0.163
G1 X261.768
X285.613 Z-16.405
G2 Y24.337 Z-16.408 I0. J-0.163
G1 X261.769 Z-16.563
X285.613
G3 Y24.663 I0. J0.163
G1 X261.768
X285.613 Z-16.717
G2 Y24.337 Z-16.72 I0. J-0.163
G1 X261.769 Z-16.875
X285.613
G3 Y24.663 I0. J0.163
G1 X261.768
X285.613 Z-17.03
G2 Y24.337 Z-17.033 I0. J-0.163
G1 X261.769 Z-17.188
X285.613
G3 Y24.663 I0. J0.163
G1 X261.768
X285.613 Z-17.342
G2 Y24.337 Z-17.345 I0. J-0.163
G1 X261.769 Z-17.5
X285.613
G3 Y24.663 I0. J0.163
G1 X261.768
X261.719 Y24.659
X261.449 Y24.616
X261.379 Y24.605 Z-17.492
X261.313 Y24.594 Z-17.469
X261.254 Y24.585 Z-17.431
X261.204 Y24.577 Z-17.38
X261.167 Y24.571 Z-17.32
X261.143 Y24.567 Z-17.253
X261.136 Y24.566 Z-17.183
G0 Z15.
X260.545 Y163.027
Z5.
G1 Z-0.027 F534.
X260.552 Y163.026 Z-0.09 F1068.
X260.573 Y163.023 Z-0.151
X260.607 Y163.018 Z-0.205
X260.652 Y163.011 Z-0.25
X260.705 Y163.002 Z-0.284
X260.765 Y162.993 Z-0.305
X260.828 Y162.983 Z-0.313
X261.719 Y162.841
X261.769 Y162.837
X285.613
G3 Y163.163 I0. J0.163
G1 X261.768
X285.613 Z-0.467
G2 Y162.837 Z-0.47 I0. J-0.163
G1 X261.769 Z-0.625
X285.613
G3 Y163.163 I0. J0.163
G1 X261.768
X285.613 Z-0.78
G2 Y162.837 Z-0.783 I0. J-0.163
G1 X261.769 Z-0.938
X285.613
G3 Y163.163 I0. J0.163
G1 X261.768
X285.613 Z-1.092
G2 Y162.837 Z-1.095 I0. J-0.163
G1 X261.769 Z-1.25
X285.613
G3 Y163.163 I0. J0.163
G1 X261.768
X285.613 Z-1.405
G2 Y162.837 Z-1.408 I0. J-0.163
G1 X261.769 Z-1.563
X285.613
G3 Y163.163 I0. J0.163
G1 X261.768
X285.613 Z-1.717
G2 Y162.837 Z-1.72 I0. J-0.163
G1 X261.769 Z-1.875
X285.613
G3 Y163.163 I0. J0.163
G1 X261.768
X285.613 Z-2.03
G2 Y162.837 Z-2.033 I0. J-0.163
G1 X261.769 Z-2.188
X285.613
G3 Y163.163 I0. J0.163
G1 X261.768
X285.613 Z-2.342
G2 Y162.837 Z-2.345 I0. J-0.163
G1 X261.769 Z-2.5
X285.613
G3 Y163.163 I0. J0.163
G1 X261.768
X285.613 Z-2.655
G2 Y162.837 Z-2.658 I0. J-0.163
G1 X261.769 Z-2.813
X285.613
G3 Y163.163 I0. J0.163
G1 X261.768
X285.613 Z-2.967
G2 Y162.837 Z-2.97 I0. J-0.163
G1 X261.769 Z-3.125
X285.613
G3 Y163.163 I0. J0.163
G1 X261.768
X285.613 Z-3.28
G2 Y162.837 Z-3.283 I0. J-0.163
G1 X261.769 Z-3.438
X285.613
G3 Y163.163 I0. J0.163
G1 X261.768
X285.613 Z-3.592
G2 Y162.837 Z-3.595 I0. J-0.163
G1 X261.769 Z-3.75
X285.613
G3 Y163.163 I0. J0.163
G1 X261.768
X285.613 Z-3.905
G2 Y162.837 Z-3.908 I0. J-0.163
G1 X261.769 Z-4.063
X285.613
G3 Y163.163 I0. J0.163
G1 X261.768
X285.613 Z-4.217
G2 Y162.837 Z-4.22 I0. J-0.163
G1 X261.769 Z-4.375
X285.613
G3 Y163.163 I0. J0.163
G1 X261.768
X285.613 Z-4.53
G2 Y162.837 Z-4.533 I0. J-0.163
G1 X261.769 Z-4.688
X285.613
G3 Y163.163 I0. J0.163
G1 X261.768
X285.613 Z-4.842
G2 Y162.837 Z-4.845 I0. J-0.163
G1 X261.769 Z-5.
X285.613
G3 Y163.163 I0. J0.163
G1 X261.768
X285.613 Z-5.155
G2 Y162.837 Z-5.158 I0. J-0.163
G1 X261.769 Z-5.313
X285.613
G3 Y163.163 I0. J0.163
G1 X261.768
X285.613 Z-5.467
G2 Y162.837 Z-5.47 I0. J-0.163
G1 X261.769 Z-5.625
X285.613
G3 Y163.163 I0. J0.163
G1 X261.768
X285.613 Z-5.78
G2 Y162.837 Z-5.783 I0. J-0.163
G1 X261.769 Z-5.938
X285.613
G3 Y163.163 I0. J0.163
G1 X261.768
X285.613 Z-6.092
G2 Y162.837 Z-6.095 I0. J-0.163
G1 X261.769 Z-6.25
X285.613
G3 Y163.163 I0. J0.163
G1 X261.768
X285.613 Z-6.405
G2 Y162.837 Z-6.408 I0. J-0.163
G1 X261.769 Z-6.563
X285.613
G3 Y163.163 I0. J0.163
G1 X261.768
X285.613 Z-6.717
G2 Y162.837 Z-6.72 I0. J-0.163
G1 X261.769 Z-6.875
X285.613
G3 Y163.163 I0. J0.163
G1 X261.768
X285.613 Z-7.03
G2 Y162.837 Z-7.033 I0. J-0.163
G1 X261.769 Z-7.188
X285.613
G3 Y163.163 I0. J0.163
G1 X261.768
X285.613 Z-7.342
G2 Y162.837 Z-7.345 I0. J-0.163
G1 X261.769 Z-7.5
X285.613
G3 Y163.163 I0. J0.163
G1 X261.768
X285.613 Z-7.655
G2 Y162.837 Z-7.658 I0. J-0.163
G1 X261.769 Z-7.813
X285.613
G3 Y163.163 I0. J0.163
G1 X261.768
X285.613 Z-7.967
G2 Y162.837 Z-7.97 I0. J-0.163
G1 X261.769 Z-8.125
X285.613
G3 Y163.163 I0. J0.163
G1 X261.768
X285.613 Z-8.28
G2 Y162.837 Z-8.283 I0. J-0.163
G1 X261.769 Z-8.438
X285.613
G3 Y163.163 I0. J0.163
G1 X261.768
X285.613 Z-8.592
G2 Y162.837 Z-8.595 I0. J-0.163
G1 X261.769 Z-8.75
X285.613
G3 Y163.163 I0. J0.163
G1 X261.768
X285.613 Z-8.905
G2 Y162.837 Z-8.908 I0. J-0.163
G1 X261.769 Z-9.063
X285.613
G3 Y163.163 I0. J0.163
G1 X261.768
X285.613 Z-9.217
G2 Y162.837 Z-9.22 I0. J-0.163
G1 X261.769 Z-9.375
X285.613
G3 Y163.163 I0. J0.163
G1 X261.768
X285.613 Z-9.53
G2 Y162.837 Z-9.533 I0. J-0.163
G1 X261.769 Z-9.688
X285.613
G3 Y163.163 I0. J0.163
G1 X261.768
X285.613 Z-9.842
G2 Y162.837 Z-9.845 I0. J-0.163
G1 X261.769 Z-10.
X285.613
G3 Y163.163 I0. J0.163
G1 X261.768
X285.613 Z-10.155
G2 Y162.837 Z-10.158 I0. J-0.163
G1 X261.769 Z-10.313
X285.613
G3 Y163.163 I0. J0.163
G1 X261.768
X285.613 Z-10.467
G2 Y162.837 Z-10.47 I0. J-0.163
G1 X261.769 Z-10.625
X285.613
G3 Y163.163 I0. J0.163
G1 X261.768
X285.613 Z-10.78
G2 Y162.837 Z-10.783 I0. J-0.163
G1 X261.769 Z-10.938
X285.613
G3 Y163.163 I0. J0.163
G1 X261.768
X285.613 Z-11.092
G2 Y162.837 Z-11.095 I0. J-0.163
G1 X261.769 Z-11.25
X285.613
G3 Y163.163 I0. J0.163
G1 X261.768
X285.613 Z-11.405
G2 Y162.837 Z-11.408 I0. J-0.163
G1 X261.769 Z-11.563
X285.613
G3 Y163.163 I0. J0.163
G1 X261.768
X285.613 Z-11.717
G2 Y162.837 Z-11.72 I0. J-0.163
G1 X261.769 Z-11.875
X285.613
G3 Y163.163 I0. J0.163
G1 X261.768
X285.613 Z-12.03
G2 Y162.837 Z-12.033 I0. J-0.163
G1 X261.769 Z-12.188
X285.613
G3 Y163.163 I0. J0.163
G1 X261.768
X285.613 Z-12.342
G2 Y162.837 Z-12.345 I0. J-0.163
G1 X261.769 Z-12.5
X285.613
G3 Y163.163 I0. J0.163
G1 X261.768
X285.613 Z-12.655
G2 Y162.837 Z-12.658 I0. J-0.163
G1 X261.769 Z-12.813
X285.613
G3 Y163.163 I0. J0.163
G1 X261.768
X285.613 Z-12.967
G2 Y162.837 Z-12.97 I0. J-0.163
G1 X261.769 Z-13.125
X285.613
G3 Y163.163 I0. J0.163
G1 X261.768
X285.613 Z-13.28
G2 Y162.837 Z-13.283 I0. J-0.163
G1 X261.769 Z-13.438
X285.613
G3 Y163.163 I0. J0.163
G1 X261.768
X285.613 Z-13.592
G2 Y162.837 Z-13.595 I0. J-0.163
G1 X261.769 Z-13.75
X285.613
G3 Y163.163 I0. J0.163
G1 X261.768
X285.613 Z-13.905
G2 Y162.837 Z-13.908 I0. J-0.163
G1 X261.769 Z-14.063
X285.613
G3 Y163.163 I0. J0.163
G1 X261.768
X285.613 Z-14.217
G2 Y162.837 Z-14.22 I0. J-0.163
G1 X261.769 Z-14.375
X285.613
G3 Y163.163 I0. J0.163
G1 X261.768
X285.613 Z-14.53
G2 Y162.837 Z-14.533 I0. J-0.163
G1 X261.769 Z-14.688
X285.613
G3 Y163.163 I0. J0.163
G1 X261.768
X285.613 Z-14.842
G2 Y162.837 Z-14.845 I0. J-0.163
G1 X261.769 Z-15.
X285.613
G3 Y163.163 I0. J0.163
G1 X261.768
X285.613 Z-15.155
G2 Y162.837 Z-15.158 I0. J-0.163
G1 X261.769 Z-15.313
X285.613
G3 Y163.163 I0. J0.163
G1 X261.768
X285.613 Z-15.467
G2 Y162.837 Z-15.47 I0. J-0.163
G1 X261.769 Z-15.625
X285.613
G3 Y163.163 I0. J0.163
G1 X261.768
X285.613 Z-15.78
G2 Y162.837 Z-15.783 I0. J-0.163
G1 X261.769 Z-15.938
X285.613
G3 Y163.163 I0. J0.163
G1 X261.768
X285.613 Z-16.092
G2 Y162.837 Z-16.095 I0. J-0.163
G1 X261.769 Z-16.25
X285.613
G3 Y163.163 I0. J0.163
G1 X261.768
X285.613 Z-16.405
G2 Y162.837 Z-16.408 I0. J-0.163
G1 X261.769 Z-16.563
X285.613
G3 Y163.163 I0. J0.163
G1 X261.768
X285.613 Z-16.717
G2 Y162.837 Z-16.72 I0. J-0.163
G1 X261.769 Z-16.875
X285.613
G3 Y163.163 I0. J0.163
G1 X261.768
X285.613 Z-17.03
G2 Y162.837 Z-17.033 I0. J-0.163
G1 X261.769 Z-17.188
X285.613
G3 Y163.163 I0. J0.163
G1 X261.768
X285.613 Z-17.342
G2 Y162.837 Z-17.345 I0. J-0.163
G1 X261.769 Z-17.5
X285.613
G3 Y163.163 I0. J0.163
G1 X261.768
X261.719 Y163.159
X261.449 Y163.116
X261.379 Y163.105 Z-17.492
X261.313 Y163.094 Z-17.469
X261.254 Y163.085 Z-17.431
X261.204 Y163.077 Z-17.38
X261.167 Y163.071 Z-17.32
X261.143 Y163.067 Z-17.253
X261.136 Y163.066 Z-17.183
G0 Z15.
X260.545 Y301.527
Z5.
G1 Z-0.027 F534.
X260.552 Y301.526 Z-0.09 F1068.
X260.573 Y301.523 Z-0.151
X260.607 Y301.518 Z-0.205
X260.652 Y301.511 Z-0.25
X260.705 Y301.502 Z-0.284
X260.765 Y301.493 Z-0.305
X260.828 Y301.483 Z-0.313
X261.719 Y301.341
X261.769 Y301.337
X285.613
G3 Y301.663 I0. J0.163
G1 X261.768
X285.613 Z-0.467
G2 Y301.337 Z-0.47 I0. J-0.163
G1 X261.769 Z-0.625
X285.613
G3 Y301.663 I0. J0.163
G1 X261.768
X285.613 Z-0.78
G2 Y301.337 Z-0.783 I0. J-0.163
G1 X261.769 Z-0.938
X285.613
G3 Y301.663 I0. J0.163
G1 X261.768
X285.613 Z-1.092
G2 Y301.337 Z-1.095 I0. J-0.163
G1 X261.769 Z-1.25
X285.613
G3 Y301.663 I0. J0.163
G1 X261.768
X285.613 Z-1.405
G2 Y301.337 Z-1.408 I0. J-0.163
G1 X261.769 Z-1.563
X285.613
G3 Y301.663 I0. J0.163
G1 X261.768
X285.613 Z-1.717
G2 Y301.337 Z-1.72 I0. J-0.163
G1 X261.769 Z-1.875
X285.613
G3 Y301.663 I0. J0.163
G1 X261.768
X285.613 Z-2.03
G2 Y301.337 Z-2.033 I0. J-0.163
G1 X261.769 Z-2.188
X285.613
G3 Y301.663 I0. J0.163
G1 X261.768
X285.613 Z-2.342
G2 Y301.337 Z-2.345 I0. J-0.163
G1 X261.769 Z-2.5
X285.613
G3 Y301.663 I0. J0.163
G1 X261.768
X285.613 Z-2.655
G2 Y301.337 Z-2.658 I0. J-0.163
G1 X261.769 Z-2.813
X285.613
G3 Y301.663 I0. J0.163
G1 X261.768
X285.613 Z-2.967
G2 Y301.337 Z-2.97 I0. J-0.163
G1 X261.769 Z-3.125
X285.613
G3 Y301.663 I0. J0.163
G1 X261.768
X285.613 Z-3.28
G2 Y301.337 Z-3.283 I0. J-0.163
G1 X261.769 Z-3.438
X285.613
G3 Y301.663 I0. J0.163
G1 X261.768
X285.613 Z-3.592
G2 Y301.337 Z-3.595 I0. J-0.163
G1 X261.769 Z-3.75
X285.613
G3 Y301.663 I0. J0.163
G1 X261.768
X285.613 Z-3.905
G2 Y301.337 Z-3.908 I0. J-0.163
G1 X261.769 Z-4.063
X285.613
G3 Y301.663 I0. J0.163
G1 X261.768
X285.613 Z-4.217
G2 Y301.337 Z-4.22 I0. J-0.163
G1 X261.769 Z-4.375
X285.613
G3 Y301.663 I0. J0.163
G1 X261.768
X285.613 Z-4.53
G2 Y301.337 Z-4.533 I0. J-0.163
G1 X261.769 Z-4.688
X285.613
G3 Y301.663 I0. J0.163
G1 X261.768
X285.613 Z-4.842
G2 Y301.337 Z-4.845 I0. J-0.163
G1 X261.769 Z-5.
X285.613
G3 Y301.663 I0. J0.163
G1 X261.768
X285.613 Z-5.155
G2 Y301.337 Z-5.158 I0. J-0.163
G1 X261.769 Z-5.313
X285.613
G3 Y301.663 I0. J0.163
G1 X261.768
X285.613 Z-5.467
G2 Y301.337 Z-5.47 I0. J-0.163
G1 X261.769 Z-5.625
X285.613
G3 Y301.663 I0. J0.163
G1 X261.768
X285.613 Z-5.78
G2 Y301.337 Z-5.783 I0. J-0.163
G1 X261.769 Z-5.938
X285.613
G3 Y301.663 I0. J0.163
G1 X261.768
X285.613 Z-6.092
G2 Y301.337 Z-6.095 I0. J-0.163
G1 X261.769 Z-6.25
X285.613
G3 Y301.663 I0. J0.163
G1 X261.768
X285.613 Z-6.405
G2 Y301.337 Z-6.408 I0. J-0.163
G1 X261.769 Z-6.563
X285.613
G3 Y301.663 I0. J0.163
G1 X261.768
X285.613 Z-6.717
G2 Y301.337 Z-6.72 I0. J-0.163
G1 X261.769 Z-6.875
X285.613
G3 Y301.663 I0. J0.163
G1 X261.768
X285.613 Z-7.03
G2 Y301.337 Z-7.033 I0. J-0.163
G1 X261.769 Z-7.188
X285.613
G3 Y301.663 I0. J0.163
G1 X261.768
X285.613 Z-7.342
G2 Y301.337 Z-7.345 I0. J-0.163
G1 X261.769 Z-7.5
X285.613
G3 Y301.663 I0. J0.163
G1 X261.768
X285.613 Z-7.655
G2 Y301.337 Z-7.658 I0. J-0.163
G1 X261.769 Z-7.813
X285.613
G3 Y301.663 I0. J0.163
G1 X261.768
X285.613 Z-7.967
G2 Y301.337 Z-7.97 I0. J-0.163
G1 X261.769 Z-8.125
X285.613
G3 Y301.663 I0. J0.163
G1 X261.768
X285.613 Z-8.28
G2 Y301.337 Z-8.283 I0. J-0.163
G1 X261.769 Z-8.438
X285.613
G3 Y301.663 I0. J0.163
G1 X261.768
X285.613 Z-8.592
G2 Y301.337 Z-8.595 I0. J-0.163
G1 X261.769 Z-8.75
X285.613
G3 Y301.663 I0. J0.163
G1 X261.768
X285.613 Z-8.905
G2 Y301.337 Z-8.908 I0. J-0.163
G1 X261.769 Z-9.063
X285.613
G3 Y301.663 I0. J0.163
G1 X261.768
X285.613 Z-9.217
G2 Y301.337 Z-9.22 I0. J-0.163
G1 X261.769 Z-9.375
X285.613
G3 Y301.663 I0. J0.163
G1 X261.768
X285.613 Z-9.53
G2 Y301.337 Z-9.533 I0. J-0.163
G1 X261.769 Z-9.688
X285.613
G3 Y301.663 I0. J0.163
G1 X261.768
X285.613 Z-9.842
G2 Y301.337 Z-9.845 I0. J-0.163
G1 X261.769 Z-10.
X285.613
G3 Y301.663 I0. J0.163
G1 X261.768
X285.613 Z-10.155
G2 Y301.337 Z-10.158 I0. J-0.163
G1 X261.769 Z-10.313
X285.613
G3 Y301.663 I0. J0.163
G1 X261.768
X285.613 Z-10.467
G2 Y301.337 Z-10.47 I0. J-0.163
G1 X261.769 Z-10.625
X285.613
G3 Y301.663 I0. J0.163
G1 X261.768
X285.613 Z-10.78
G2 Y301.337 Z-10.783 I0. J-0.163
G1 X261.769 Z-10.938
X285.613
G3 Y301.663 I0. J0.163
G1 X261.768
X285.613 Z-11.092
G2 Y301.337 Z-11.095 I0. J-0.163
G1 X261.769 Z-11.25
X285.613
G3 Y301.663 I0. J0.163
G1 X261.768
X285.613 Z-11.405
G2 Y301.337 Z-11.408 I0. J-0.163
G1 X261.769 Z-11.563
X285.613
G3 Y301.663 I0. J0.163
G1 X261.768
X285.613 Z-11.717
G2 Y301.337 Z-11.72 I0. J-0.163
G1 X261.769 Z-11.875
X285.613
G3 Y301.663 I0. J0.163
G1 X261.768
X285.613 Z-12.03
G2 Y301.337 Z-12.033 I0. J-0.163
G1 X261.769 Z-12.188
X285.613
G3 Y301.663 I0. J0.163
G1 X261.768
X285.613 Z-12.342
G2 Y301.337 Z-12.345 I0. J-0.163
G1 X261.769 Z-12.5
X285.613
G3 Y301.663 I0. J0.163
G1 X261.768
X285.613 Z-12.655
G2 Y301.337 Z-12.658 I0. J-0.163
G1 X261.769 Z-12.813
X285.613
G3 Y301.663 I0. J0.163
G1 X261.768
X285.613 Z-12.967
G2 Y301.337 Z-12.97 I0. J-0.163
G1 X261.769 Z-13.125
X285.613
G3 Y301.663 I0. J0.163
G1 X261.768
X285.613 Z-13.28
G2 Y301.337 Z-13.283 I0. J-0.163
G1 X261.769 Z-13.438
X285.613
G3 Y301.663 I0. J0.163
G1 X261.768
X285.613 Z-13.592
G2 Y301.337 Z-13.595 I0. J-0.163
G1 X261.769 Z-13.75
X285.613
G3 Y301.663 I0. J0.163
G1 X261.768
X285.613 Z-13.905
G2 Y301.337 Z-13.908 I0. J-0.163
G1 X261.769 Z-14.063
X285.613
G3 Y301.663 I0. J0.163
G1 X261.768
X285.613 Z-14.217
G2 Y301.337 Z-14.22 I0. J-0.163
G1 X261.769 Z-14.375
X285.613
G3 Y301.663 I0. J0.163
G1 X261.768
X285.613 Z-14.53
G2 Y301.337 Z-14.533 I0. J-0.163
G1 X261.769 Z-14.688
X285.613
G3 Y301.663 I0. J0.163
G1 X261.768
X285.613 Z-14.842
G2 Y301.337 Z-14.845 I0. J-0.163
G1 X261.769 Z-15.
X285.613
G3 Y301.663 I0. J0.163
G1 X261.768
X285.613 Z-15.155
G2 Y301.337 Z-15.158 I0. J-0.163
G1 X261.769 Z-15.313
X285.613
G3 Y301.663 I0. J0.163
G1 X261.768
X285.613 Z-15.467
G2 Y301.337 Z-15.47 I0. J-0.163
G1 X261.769 Z-15.625
X285.613
G3 Y301.663 I0. J0.163
G1 X261.768
X285.613 Z-15.78
G2 Y301.337 Z-15.783 I0. J-0.163
G1 X261.769 Z-15.938
X285.613
G3 Y301.663 I0. J0.163
G1 X261.768
X285.613 Z-16.092
G2 Y301.337 Z-16.095 I0. J-0.163
G1 X261.769 Z-16.25
X285.613
G3 Y301.663 I0. J0.163
G1 X261.768
X285.613 Z-16.405
G2 Y301.337 Z-16.408 I0. J-0.163
G1 X261.769 Z-16.563
X285.613
G3 Y301.663 I0. J0.163
G1 X261.768
X285.613 Z-16.717
G2 Y301.337 Z-16.72 I0. J-0.163
G1 X261.769 Z-16.875
X285.613
G3 Y301.663 I0. J0.163
G1 X261.768
X285.613 Z-17.03
G2 Y301.337 Z-17.033 I0. J-0.163
G1 X261.769 Z-17.188
X285.613
G3 Y301.663 I0. J0.163
G1 X261.768
X285.613 Z-17.342
G2 Y301.337 Z-17.345 I0. J-0.163
G1 X261.769 Z-17.5
X285.613
G3 Y301.663 I0. J0.163
G1 X261.768
X261.719 Y301.659
X261.449 Y301.616
X261.379 Y301.605 Z-17.492
X261.313 Y301.594 Z-17.469
X261.254 Y301.585 Z-17.431
X261.204 Y301.577 Z-17.38
X261.167 Y301.571 Z-17.32
X261.143 Y301.567 Z-17.253
X261.136 Y301.566 Z-17.183
G0 Z15.
X240.414 Y162.837
Z5.
G1 Z2.817 F534.
G18 G2 X240.73 Z2.5 I0.317 K0. F1068.
G1 X261.613 Z2.384
G17 G3 Y163.163 Z2.381 I0. J0.163
G1 X233.634 Z2.225
G3 Y162.837 Z2.222 I0. J-0.163
G1 X261.613 Z2.066
G3 Y163.163 Z2.063 I0. J0.163
G1 X233.634 Z1.907
G3 Y162.837 Z1.905 I0. J-0.163
G1 X261.613 Z1.749
G3 Y163.163 Z1.746 I0. J0.163
G1 X233.634 Z1.59
G3 Y162.837 Z1.587 I0. J-0.163
G1 X261.613 Z1.431
G3 Y163.163 Z1.428 I0. J0.163
G1 X233.634 Z1.272
G3 Y162.837 Z1.27 I0. J-0.163
G1 X261.613 Z1.114
G3 Y163.163 Z1.111 I0. J0.163
G1 X233.634 Z0.955
G3 Y162.837 Z0.952 I0. J-0.163
G1 X261.613 Z0.796
G3 Y163.163 Z0.793 I0. J0.163
G1 X233.634 Z0.637
G3 Y162.837 Z0.635 I0. J-0.163
G1 X261.613 Z0.479
G3 Y163.163 Z0.476 I0. J0.163
G1 X233.634 Z0.32
G3 Y162.837 Z0.317 I0. J-0.163
G1 X261.613 Z0.161
G3 Y163.163 Z0.158 I0. J0.163
G1 X233.634 Z0.002
G3 Y162.837 Z0. I0. J-0.163
G1 X261.613 Z-0.156
G3 Y163.163 Z-0.159 I0. J0.163
G1 X233.634 Z-0.315
X233.587 Y163.156
X233.544 Y163.135 Z-0.316
X233.509 Y163.104
X233.484 Y163.063
G3 X233.634 Y162.837 I0.15 J-0.063
G1 X261.613
G3 Y163.163 I0. J0.163
G1 X233.634
X233.587 Y163.156
X233.544 Y163.135
X233.509 Y163.104
X233.484 Y163.063
G3 X233.634 Y162.837 Z-0.318 I0.15 J-0.063
G1 X261.613 Z-0.474
G3 Y163.163 Z-0.477 I0. J0.163
G1 X233.681 Z-0.632
X233.634
G3 Y162.837 I0. J-0.163
G1 X261.613
G3 Y163.163 I0. J0.163
G1 X233.681
X233.634 Z-0.633
G3 Y162.837 Z-0.635 I0. J-0.163
G1 X261.613 Z-0.791
G3 Y163.163 Z-0.794 I0. J0.163
G1 X233.919 Z-0.949
X233.681
X233.634
G3 Y162.837 I0. J-0.163
G1 X261.613
G3 Y163.163 I0. J0.163
G1 X233.919
X233.634 Z-0.95
G3 Y162.837 Z-0.953 I0. J-0.163
G1 X261.613 Z-1.109
G3 Y163.163 Z-1.112 I0. J0.163
G1 X234.156 Z-1.265
X233.634
G3 Y162.837 I0. J-0.163
G1 X261.613
G3 Y163.163 I0. J0.163
G1 X234.156
X233.634 Z-1.268
G3 Y162.837 Z-1.27 I0. J-0.163
G1 X261.613 Z-1.426
G3 Y163.163 Z-1.429 I0. J0.163
G1 X234.394 Z-1.581
X233.634
G3 Y162.837 I0. J-0.163
G1 X261.613
G3 Y163.163 I0. J0.163
G1 X234.394
X233.634 Z-1.585
G3 Y162.837 Z-1.588 I0. J-0.163
G1 X261.613 Z-1.744
G3 Y163.163 Z-1.747 I0. J0.163
G1 X234.631 Z-1.897
X233.634
G3 Y162.837 I0. J-0.163
G1 X261.613
G3 Y163.163 I0. J0.163
G1 X234.631
X233.634 Z-1.903
G3 Y162.837 Z-1.905 I0. J-0.163
G1 X261.613 Z-2.061
G3 Y163.163 Z-2.064 I0. J0.163
G1 X234.869 Z-2.213
X233.634
G3 Y162.837 I0. J-0.163
G1 X261.613
G3 Y163.163 I0. J0.163
G1 X234.869
X233.634 Z-2.22
G3 Y162.837 Z-2.223 I0. J-0.163
G1 X261.613 Z-2.379
G3 Y163.163 Z-2.382 I0. J0.163
G1 X235.106 Z-2.529
X233.634
G3 Y162.837 I0. J-0.163
G1 X261.613
G3 Y163.163 I0. J0.163
G1 X235.106
X233.634 Z-2.538
G3 Y162.837 Z-2.54 I0. J-0.163
G1 X261.613 Z-2.696
G3 Y163.163 Z-2.699 I0. J0.163
G1 X235.344 Z-2.846
X233.634
G3 Y162.837 I0. J-0.163
G1 X261.613
G3 Y163.163 I0. J0.163
G1 X235.344
X233.634 Z-2.855
G3 Y162.837 Z-2.858 I0. J-0.163
G1 X261.613 Z-3.014
G3 Y163.163 Z-3.017 I0. J0.163
G1 X235.581 Z-3.162
X233.634
G3 Y162.837 I0. J-0.163
G1 X261.613
G3 Y163.163 I0. J0.163
G1 X235.581
X233.634 Z-3.173
G3 Y162.837 Z-3.175 I0. J-0.163
G1 X261.613 Z-3.331
G3 Y163.163 Z-3.334 I0. J0.163
G1 X235.819 Z-3.478
X233.634
G3 Y162.837 I0. J-0.163
G1 X261.613
G3 Y163.163 I0. J0.163
G1 X235.819
X233.634 Z-3.49
G3 Y162.837 Z-3.493 I0. J-0.163
G1 X261.613 Z-3.649
G3 Y163.163 Z-3.652 I0. J0.163
G1 X236.056 Z-3.794
X233.634
G3 Y162.837 I0. J-0.163
G1 X261.613
G3 Y163.163 I0. J0.163
G1 X236.056
X233.634 Z-3.808
G3 Y162.837 Z-3.81 I0. J-0.163
G1 X261.613 Z-3.966
G3 Y163.163 Z-3.969 I0. J0.163
G1 X236.294 Z-4.11
X233.634
G3 Y162.837 I0. J-0.163
G1 X261.613
G3 Y163.163 I0. J0.163
G1 X236.294
X233.634 Z-4.125
G3 Y162.837 Z-4.128 I0. J-0.163
G1 X261.613 Z-4.284
G3 Y163.163 Z-4.287 I0. J0.163
G1 X236.531 Z-4.426
X233.634
G3 Y162.837 I0. J-0.163
G1 X261.613
G3 Y163.163 I0. J0.163
G1 X236.531
X233.634 Z-4.443
G3 Y162.837 Z-4.445 I0. J-0.163
G1 X261.613 Z-4.601
G3 Y163.163 Z-4.604 I0. J0.163
G1 X236.769 Z-4.743
X233.634
G3 Y162.837 I0. J-0.163
G1 X261.613
G3 Y163.163 I0. J0.163
G1 X236.769
X233.634 Z-4.76
G3 Y162.837 Z-4.763 I0. J-0.163
G1 X261.613 Z-4.919
G3 Y163.163 Z-4.922 I0. J0.163
G1 X237.006 Z-5.059
X233.634
G3 Y162.837 I0. J-0.163
G1 X261.613
G3 Y163.163 I0. J0.163
G1 X237.006
X233.634 Z-5.078
G3 Y162.837 Z-5.08 I0. J-0.163
G1 X261.613 Z-5.236
G3 Y163.163 Z-5.239 I0. J0.163
G1 X237.244 Z-5.375
X233.634
G3 Y162.837 I0. J-0.163
G1 X261.613
G3 Y163.163 I0. J0.163
G1 X237.244
X233.634 Z-5.395
G3 Y162.837 Z-5.398 I0. J-0.163
G1 X261.613 Z-5.554
G3 Y163.163 Z-5.557 I0. J0.163
G1 X237.481 Z-5.691
X233.634
G3 Y162.837 I0. J-0.163
G1 X261.613
G3 Y163.163 I0. J0.163
G1 X237.481
X233.634 Z-5.713
G3 Y162.837 Z-5.715 I0. J-0.163
G1 X261.613 Z-5.871
G3 Y163.163 Z-5.874 I0. J0.163
G1 X237.719 Z-6.007
X233.634
G3 Y162.837 I0. J-0.163
G1 X261.613
G3 Y163.163 I0. J0.163
G1 X237.719
X233.634 Z-6.03
G3 Y162.837 Z-6.033 I0. J-0.163
G1 X261.613 Z-6.189
G3 Y163.163 Z-6.192 I0. J0.163
G1 X237.956 Z-6.324
X233.634
G3 Y162.837 I0. J-0.163
G1 X261.613
G3 Y163.163 I0. J0.163
G1 X237.956
X233.634 Z-6.348
G3 Y162.837 Z-6.35 I0. J-0.163
G1 X261.613 Z-6.506
G3 Y163.163 Z-6.509 I0. J0.163
G1 X238.194 Z-6.64
X233.634
G3 Y162.837 I0. J-0.163
G1 X261.613
G3 Y163.163 I0. J0.163
G1 X238.194
X233.634 Z-6.665
G3 Y162.837 Z-6.668 I0. J-0.163
G1 X261.613 Z-6.824
G3 Y163.163 Z-6.827 I0. J0.163
G1 X238.431 Z-6.956
X233.634
G3 Y162.837 I0. J-0.163
G1 X261.613
G3 Y163.163 I0. J0.163
G1 X238.431
X233.634 Z-6.983
G3 Y162.837 Z-6.985 I0. J-0.163
G1 X261.613 Z-7.141
G3 Y163.163 Z-7.144 I0. J0.163
G1 X238.669 Z-7.272
X233.634
G3 Y162.837 I0. J-0.163
G1 X261.613
G3 Y163.163 I0. J0.163
G1 X238.669
X233.634 Z-7.3
G3 Y162.837 Z-7.303 I0. J-0.163
G1 X261.613 Z-7.459
G3 Y163.163 Z-7.462 I0. J0.163
G1 X238.907 Z-7.588
X233.634
G3 Y162.837 I0. J-0.163
G1 X261.613
G3 Y163.163 I0. J0.163
G1 X238.907
X233.634 Z-7.618
G3 Y162.837 Z-7.62 I0. J-0.163
G1 X261.613 Z-7.776
G3 Y163.163 Z-7.779 I0. J0.163
G1 X239.144 Z-7.904
X233.634
G3 Y162.837 I0. J-0.163
G1 X261.613
G3 Y163.163 I0. J0.163
G1 X239.144
X233.634 Z-7.935
G3 Y162.837 Z-7.938 I0. J-0.163
G1 X261.613 Z-8.094
G3 Y163.163 Z-8.097 I0. J0.163
G1 X239.382 Z-8.221
X233.634
G3 Y162.837 I0. J-0.163
G1 X261.613
G3 Y163.163 I0. J0.163
G1 X239.382
X233.634 Z-8.253
G3 Y162.837 Z-8.255 I0. J-0.163
G1 X261.613 Z-8.411
G3 Y163.163 Z-8.414 I0. J0.163
G1 X239.619 Z-8.537
X233.634
G3 Y162.837 I0. J-0.163
G1 X261.613
G3 Y163.163 I0. J0.163
G1 X239.619
X233.634 Z-8.57
G3 Y162.837 Z-8.573 I0. J-0.163
G1 X261.613 Z-8.729
G3 Y163.163 Z-8.732 I0. J0.163
G1 X239.857 Z-8.853
X233.634
G3 Y162.837 I0. J-0.163
G1 X261.613
G3 Y163.163 I0. J0.163
G1 X239.857
X233.634 Z-8.888
G3 Y162.837 Z-8.89 I0. J-0.163
G1 X261.613 Z-9.046
G3 Y163.163 Z-9.049 I0. J0.163
G1 X240.094 Z-9.169
X233.634
G3 Y162.837 I0. J-0.163
G1 X261.613
G3 Y163.163 I0. J0.163
G1 X240.094
X233.634 Z-9.205
G3 Y162.837 Z-9.208 I0. J-0.163
G1 X261.613 Z-9.364
G3 Y163.163 Z-9.367 I0. J0.163
G1 X240.332 Z-9.485
X233.634
G3 Y162.837 I0. J-0.163
G1 X261.613
G3 Y163.163 I0. J0.163
G1 X240.332
X233.634 Z-9.523
G3 Y162.837 Z-9.525 I0. J-0.163
G1 X261.613 Z-9.681
G3 Y163.163 Z-9.684 I0. J0.163
G1 X240.569 Z-9.801
X233.634
G3 Y162.837 I0. J-0.163
G1 X261.613
G3 Y163.163 I0. J0.163
G1 X240.569
X233.634 Z-9.84
G3 Y162.837 Z-9.843 I0. J-0.163
G1 X261.613 Z-9.999
G3 Y163.163 Z-10.002 I0. J0.163
G1 X240.807 Z-10.118
X233.634
G3 Y162.837 I0. J-0.163
G1 X261.613
G3 Y163.163 I0. J0.163
G1 X240.807
X233.634 Z-10.158
G3 Y162.837 Z-10.16 I0. J-0.163
G1 X261.613 Z-10.316
G3 Y163.163 Z-10.319 I0. J0.163
G1 X241.044 Z-10.434
X233.634
G3 Y162.837 I0. J-0.163
G1 X261.613
G3 Y163.163 I0. J0.163
G1 X241.044
X233.634 Z-10.475
G3 Y162.837 Z-10.478 I0. J-0.163
G1 X261.613 Z-10.634
G3 Y163.163 Z-10.637 I0. J0.163
G1 X241.282 Z-10.75
X233.634
G3 Y162.837 I0. J-0.163
G1 X261.613
G3 Y163.163 I0. J0.163
G1 X241.282
X233.634 Z-10.793
G3 Y162.837 Z-10.795 I0. J-0.163
G1 X261.613 Z-10.951
G3 Y163.163 Z-10.954 I0. J0.163
G1 X241.519 Z-11.066
X233.634
G3 Y162.837 I0. J-0.163
G1 X261.613
G3 Y163.163 I0. J0.163
G1 X241.519
X233.634 Z-11.11
G3 Y162.837 Z-11.113 I0. J-0.163
G1 X261.613 Z-11.269
G3 Y163.163 Z-11.272 I0. J0.163
G1 X241.757 Z-11.382
X233.634
G3 Y162.837 I0. J-0.163
G1 X261.613
G3 Y163.163 I0. J0.163
G1 X241.757
X233.634 Z-11.428
G3 Y162.837 Z-11.43 I0. J-0.163
G1 X261.613 Z-11.586
G3 Y163.163 Z-11.589 I0. J0.163
G1 X241.994 Z-11.699
X233.634
G3 Y162.837 I0. J-0.163
G1 X261.613
G3 Y163.163 I0. J0.163
G1 X241.994
X233.634 Z-11.745
G3 Y162.837 Z-11.748 I0. J-0.163
G1 X261.613 Z-11.904
G3 Y163.163 Z-11.907 I0. J0.163
G1 X242.232 Z-12.015
X233.634
G3 Y162.837 I0. J-0.163
G1 X261.613
G3 Y163.163 I0. J0.163
G1 X242.232
X233.634 Z-12.063
G3 Y162.837 Z-12.065 I0. J-0.163
G1 X261.613 Z-12.221
G3 Y163.163 Z-12.224 I0. J0.163
G1 X242.469 Z-12.331
X233.634
G3 Y162.837 I0. J-0.163
G1 X261.613
G3 Y163.163 I0. J0.163
G1 X242.469
X233.634 Z-12.38
G3 Y162.837 Z-12.383 I0. J-0.163
G1 X261.613 Z-12.539
G3 Y163.163 Z-12.542 I0. J0.163
G1 X242.707 Z-12.647
X233.634
G3 Y162.837 I0. J-0.163
G1 X261.613
G3 Y163.163 I0. J0.163
G1 X242.707
X233.634 Z-12.698
G3 Y162.837 Z-12.7 I0. J-0.163
G1 X261.613 Z-12.856
G3 Y163.163 Z-12.859 I0. J0.163
G1 X242.944 Z-12.963
X233.634
G3 Y162.837 I0. J-0.163
G1 X261.613
G3 Y163.163 I0. J0.163
G1 X242.944
X233.634 Z-13.015
G3 Y162.837 Z-13.018 I0. J-0.163
G1 X261.613 Z-13.174
G3 Y163.163 Z-13.177 I0. J0.163
G1 X243.182 Z-13.279
X233.634
G3 Y162.837 I0. J-0.163
G1 X261.613
G3 Y163.163 I0. J0.163
G1 X243.182
X233.634 Z-13.333
G3 Y162.837 Z-13.335 I0. J-0.163
G1 X261.613 Z-13.491
G3 Y163.163 Z-13.494 I0. J0.163
G1 X243.419 Z-13.596
X233.634
G3 Y162.837 I0. J-0.163
G1 X261.613
G3 Y163.163 I0. J0.163
G1 X243.419
X233.634 Z-13.65
G3 Y162.837 Z-13.653 I0. J-0.163
G1 X261.613 Z-13.809
G3 Y163.163 Z-13.812 I0. J0.163
G1 X243.657 Z-13.912
X233.634
G3 Y162.837 I0. J-0.163
G1 X261.613
G3 Y163.163 I0. J0.163
G1 X243.657
X233.634 Z-13.968
G3 Y162.837 Z-13.97 I0. J-0.163
G1 X261.613 Z-14.126
G3 Y163.163 Z-14.129 I0. J0.163
G1 X243.894 Z-14.228
X233.634
G3 Y162.837 I0. J-0.163
G1 X261.613
G3 Y163.163 I0. J0.163
G1 X243.894
X233.634 Z-14.285
G3 Y162.837 Z-14.288 I0. J-0.163
G1 X261.613 Z-14.444
G3 Y163.163 Z-14.447 I0. J0.163
G1 X244.132 Z-14.544
X233.634
G3 Y162.837 I0. J-0.163
G1 X261.613
G3 Y163.163 I0. J0.163
G1 X244.132
X233.634 Z-14.603
G3 Y162.837 Z-14.605 I0. J-0.163
G1 X261.613 Z-14.761
G3 Y163.163 Z-14.764 I0. J0.163
G1 X244.37 Z-14.86
X233.634
G3 Y162.837 I0. J-0.163
G1 X261.613
G3 Y163.163 I0. J0.163
G1 X244.37
X233.634 Z-14.92
G3 Y162.837 Z-14.923 I0. J-0.163
G1 X261.613 Z-15.079
G3 Y163.163 Z-15.082 I0. J0.163
G1 X244.607 Z-15.176
X233.634
G3 Y162.837 I0. J-0.163
G1 X261.613
G3 Y163.163 I0. J0.163
G1 X244.607
X233.634 Z-15.238
G3 Y162.837 Z-15.24 I0. J-0.163
G1 X261.613 Z-15.396
G3 Y163.163 Z-15.399 I0. J0.163
G1 X244.845 Z-15.493
X233.634
G3 Y162.837 I0. J-0.163
G1 X261.613
G3 Y163.163 I0. J0.163
G1 X244.845
X233.634 Z-15.555
G3 Y162.837 Z-15.558 I0. J-0.163
G1 X261.613 Z-15.714
G3 Y163.163 Z-15.717 I0. J0.163
G1 X245.082 Z-15.809
X233.634
G3 Y162.837 I0. J-0.163
G1 X261.613
G3 Y163.163 I0. J0.163
G1 X245.082
X233.634 Z-15.873
G3 Y162.837 Z-15.875 I0. J-0.163
G1 X261.613 Z-16.031
G3 Y163.163 Z-16.034 I0. J0.163
G1 X245.32 Z-16.125
X233.634
G3 Y162.837 I0. J-0.163
G1 X261.613
G3 Y163.163 I0. J0.163
G1 X245.32
X233.634 Z-16.19
G3 Y162.837 Z-16.193 I0. J-0.163
G1 X261.613 Z-16.349
G3 Y163.163 Z-16.352 I0. J0.163
G1 X245.557 Z-16.441
X233.634
G3 Y162.837 I0. J-0.163
G1 X261.613
G3 Y163.163 I0. J0.163
G1 X245.557
X233.634 Z-16.508
G3 Y162.837 Z-16.51 I0. J-0.163
G1 X261.613 Z-16.666
G3 Y163.163 Z-16.669 I0. J0.163
G1 X245.795 Z-16.757
X233.634
G3 Y162.837 I0. J-0.163
G1 X261.613
G3 Y163.163 I0. J0.163
G1 X245.795
X233.634 Z-16.825
G3 Y162.837 Z-16.828 I0. J-0.163
G1 X261.613 Z-16.984
G3 Y163.163 Z-16.987 I0. J0.163
G1 X246.032 Z-17.074
X233.634
G3 Y162.837 I0. J-0.163
G1 X261.613
G3 Y163.163 I0. J0.163
G1 X246.032
X233.634 Z-17.143
G3 Y162.837 Z-17.145 I0. J-0.163
G1 X261.613 Z-17.301
G3 Y163.163 Z-17.304 I0. J0.163
G1 X246.27 Z-17.39
X233.634
G3 Y162.837 I0. J-0.163
G1 X261.613
G3 Y163.163 I0. J0.163
G1 X246.27
X233.634 Z-17.46
G3 Y162.837 Z-17.463 I0. J-0.163
G1 X261.613 Z-17.619
G3 Y163.163 Z-17.622 I0. J0.163
G1 X246.507 Z-17.706
X233.634
G3 Y162.837 I0. J-0.163
G1 X261.613
G3 Y163.163 I0. J0.163
G1 X246.507
X233.634 Z-17.778
G3 Y162.837 Z-17.78 I0. J-0.163
G1 X261.613 Z-17.936
G3 Y163.163 Z-17.939 I0. J0.163
G1 X246.745 Z-18.022
X233.634
G3 Y162.837 I0. J-0.163
G1 X261.613
G3 Y163.163 I0. J0.163
G1 X246.745
X233.634 Z-18.095
G3 Y162.837 Z-18.098 I0. J-0.163
G1 X261.613 Z-18.254
G3 Y163.163 Z-18.257 I0. J0.163
G1 X246.982 Z-18.338
X233.634
G3 Y162.837 I0. J-0.163
G1 X261.613
G3 Y163.163 I0. J0.163
G1 X246.982
X233.634 Z-18.413
G3 Y162.837 Z-18.415 I0. J-0.163
G1 X261.613 Z-18.571
G3 Y163.163 Z-18.574 I0. J0.163
G1 X247.22 Z-18.654
X233.634
G3 Y162.837 I0. J-0.163
G1 X261.613
G3 Y163.163 I0. J0.163
G1 X247.22
X233.634 Z-18.73
G3 Y162.837 Z-18.733 I0. J-0.163
G1 X261.613 Z-18.889
G3 Y163.163 Z-18.892 I0. J0.163
G1 X247.457 Z-18.971
X233.634
G3 Y162.837 I0. J-0.163
G1 X261.613
G3 Y163.163 I0. J0.163
G1 X247.457
X233.634 Z-19.048
G3 Y162.837 Z-19.05 I0. J-0.163
G1 X261.613 Z-19.206
G3 Y163.163 Z-19.209 I0. J0.163
G1 X247.695 Z-19.287
X233.634
G3 Y162.837 I0. J-0.163
G1 X261.613
G3 Y163.163 I0. J0.163
G1 X247.695
X233.634 Z-19.365
G3 Y162.837 Z-19.368 I0. J-0.163
G1 X261.613 Z-19.524
G3 Y163.163 Z-19.527 I0. J0.163
G1 X247.932 Z-19.603
X233.634
G3 Y162.837 I0. J-0.163
G1 X261.613
G3 Y163.163 I0. J0.163
G1 X247.932
X233.634 Z-19.683
G3 Y162.837 Z-19.685 I0. J-0.163
G1 X261.613 Z-19.841
G3 Y163.163 Z-19.844 I0. J0.163
G1 X248.17 Z-19.919
X233.634
G3 Y162.837 I0. J-0.163
G1 X261.613
G3 Y163.163 I0. J0.163
G1 X248.17
X233.634 Z-20.
G3 Y162.837 Z-20.003 I0. J-0.163
G1 X261.613 Z-20.159
G3 Y163.163 Z-20.162 I0. J0.163
G1 X248.407 Z-20.235
X233.634
G3 Y162.837 I0. J-0.163
G1 X261.613
G3 Y163.163 I0. J0.163
G1 X248.407
X233.634 Z-20.318
G3 Y162.837 Z-20.32 I0. J-0.163
G1 X261.613 Z-20.476
G3 Y163.163 Z-20.479 I0. J0.163
G1 X248.645 Z-20.551
X233.634
G3 Y162.837 I0. J-0.163
G1 X261.613
G3 Y163.163 I0. J0.163
G1 X248.645
X233.634 Z-20.635
G3 Y162.837 Z-20.638 I0. J-0.163
G1 X261.613 Z-20.794
G3 Y163.163 Z-20.797 I0. J0.163
G1 X248.882 Z-20.868
X233.634
G3 Y162.837 I0. J-0.163
G1 X261.613
G3 Y163.163 I0. J0.163
G1 X248.882
X233.634 Z-20.953
G3 Y162.837 Z-20.955 I0. J-0.163
G1 X261.613 Z-21.111
G3 Y163.163 Z-21.114 I0. J0.163
G1 X249.12 Z-21.184
X233.634
G3 Y162.837 I0. J-0.163
G1 X261.613
G3 Y163.163 I0. J0.163
G1 X249.12
X233.634 Z-21.27
G3 Y162.837 Z-21.273 I0. J-0.163
G1 X261.613 Z-21.429
G3 Y163.163 Z-21.432 I0. J0.163
G1 X249.358 Z-21.5
X233.634
G3 Y162.837 I0. J-0.163
G1 X261.613
G3 Y163.163 I0. J0.163
G1 X249.358
G18 G3 X249.04 Z-21.183 I0. K0.317
G0 Z5.
X240.414 Y301.337
G1 Z2.817 F534.
G2 X240.73 Z2.5 I0.317 K0. F1068.
G1 X261.613 Z2.384
G17 G3 Y301.663 Z2.381 I0. J0.163
G1 X233.634 Z2.225
G3 Y301.337 Z2.222 I0. J-0.163
G1 X261.613 Z2.066
G3 Y301.663 Z2.063 I0. J0.163
G1 X233.634 Z1.907
G3 Y301.337 Z1.905 I0. J-0.163
G1 X261.613 Z1.749
G3 Y301.663 Z1.746 I0. J0.163
G1 X233.634 Z1.59
G3 Y301.337 Z1.587 I0. J-0.163
G1 X261.613 Z1.431
G3 Y301.663 Z1.428 I0. J0.163
G1 X233.634 Z1.272
G3 Y301.337 Z1.27 I0. J-0.163
G1 X261.613 Z1.114
G3 Y301.663 Z1.111 I0. J0.163
G1 X233.634 Z0.955
G3 Y301.337 Z0.952 I0. J-0.163
G1 X261.613 Z0.796
G3 Y301.663 Z0.793 I0. J0.163
G1 X233.634 Z0.637
G3 Y301.337 Z0.635 I0. J-0.163
G1 X261.613 Z0.479
G3 Y301.663 Z0.476 I0. J0.163
G1 X233.634 Z0.32
G3 Y301.337 Z0.317 I0. J-0.163
G1 X261.613 Z0.161
G3 Y301.663 Z0.158 I0. J0.163
G1 X233.634 Z0.002
G3 Y301.337 Z0. I0. J-0.163
G1 X261.613 Z-0.156
G3 Y301.663 Z-0.159 I0. J0.163
G1 X233.634 Z-0.315
X233.587 Y301.656
X233.544 Y301.635 Z-0.316
X233.509 Y301.604
X233.484 Y301.563
G3 X233.634 Y301.337 I0.15 J-0.063
G1 X261.613
G3 Y301.663 I0. J0.163
G1 X233.634
X233.587 Y301.656
X233.544 Y301.635
X233.509 Y301.604
X233.484 Y301.563
G3 X233.634 Y301.337 Z-0.318 I0.15 J-0.063
G1 X261.613 Z-0.474
G3 Y301.663 Z-0.477 I0. J0.163
G1 X233.681 Z-0.632
X233.634
G3 Y301.337 I0. J-0.163
G1 X261.613
G3 Y301.663 I0. J0.163
G1 X233.681
X233.634 Z-0.633
G3 Y301.337 Z-0.635 I0. J-0.163
G1 X261.613 Z-0.791
G3 Y301.663 Z-0.794 I0. J0.163
G1 X233.919 Z-0.949
X233.681
X233.634
G3 Y301.337 I0. J-0.163
G1 X261.613
G3 Y301.663 I0. J0.163
G1 X233.919
X233.634 Z-0.95
G3 Y301.337 Z-0.953 I0. J-0.163
G1 X261.613 Z-1.109
G3 Y301.663 Z-1.112 I0. J0.163
G1 X234.156 Z-1.265
X233.634
G3 Y301.337 I0. J-0.163
G1 X261.613
G3 Y301.663 I0. J0.163
G1 X234.156
X233.634 Z-1.268
G3 Y301.337 Z-1.27 I0. J-0.163
G1 X261.613 Z-1.426
G3 Y301.663 Z-1.429 I0. J0.163
G1 X234.394 Z-1.581
X233.634
G3 Y301.337 I0. J-0.163
G1 X261.613
G3 Y301.663 I0. J0.163
G1 X234.394
X233.634 Z-1.585
G3 Y301.337 Z-1.588 I0. J-0.163
G1 X261.613 Z-1.744
G3 Y301.663 Z-1.747 I0. J0.163
G1 X234.631 Z-1.897
X233.634
G3 Y301.337 I0. J-0.163
G1 X261.613
G3 Y301.663 I0. J0.163
G1 X234.631
X233.634 Z-1.903
G3 Y301.337 Z-1.905 I0. J-0.163
G1 X261.613 Z-2.061
G3 Y301.663 Z-2.064 I0. J0.163
G1 X234.869 Z-2.213
X233.634
G3 Y301.337 I0. J-0.163
G1 X261.613
G3 Y301.663 I0. J0.163
G1 X234.869
X233.634 Z-2.22
G3 Y301.337 Z-2.223 I0. J-0.163
G1 X261.613 Z-2.379
G3 Y301.663 Z-2.382 I0. J0.163
G1 X235.106 Z-2.529
X233.634
G3 Y301.337 I0. J-0.163
G1 X261.613
G3 Y301.663 I0. J0.163
G1 X235.106
X233.634 Z-2.538
G3 Y301.337 Z-2.54 I0. J-0.163
G1 X261.613 Z-2.696
G3 Y301.663 Z-2.699 I0. J0.163
G1 X235.344 Z-2.846
X233.634
G3 Y301.337 I0. J-0.163
G1 X261.613
G3 Y301.663 I0. J0.163
G1 X235.344
X233.634 Z-2.855
G3 Y301.337 Z-2.858 I0. J-0.163
G1 X261.613 Z-3.014
G3 Y301.663 Z-3.017 I0. J0.163
G1 X235.581 Z-3.162
X233.634
G3 Y301.337 I0. J-0.163
G1 X261.613
G3 Y301.663 I0. J0.163
G1 X235.581
X233.634 Z-3.173
G3 Y301.337 Z-3.175 I0. J-0.163
G1 X261.613 Z-3.331
G3 Y301.663 Z-3.334 I0. J0.163
G1 X235.819 Z-3.478
X233.634
G3 Y301.337 I0. J-0.163
G1 X261.613
G3 Y301.663 I0. J0.163
G1 X235.819
X233.634 Z-3.49
G3 Y301.337 Z-3.493 I0. J-0.163
G1 X261.613 Z-3.649
G3 Y301.663 Z-3.652 I0. J0.163
G1 X236.056 Z-3.794
X233.634
G3 Y301.337 I0. J-0.163
G1 X261.613
G3 Y301.663 I0. J0.163
G1 X236.056
X233.634 Z-3.808
G3 Y301.337 Z-3.81 I0. J-0.163
G1 X261.613 Z-3.966
G3 Y301.663 Z-3.969 I0. J0.163
G1 X236.294 Z-4.11
X233.634
G3 Y301.337 I0. J-0.163
G1 X261.613
G3 Y301.663 I0. J0.163
G1 X236.294
X233.634 Z-4.125
G3 Y301.337 Z-4.128 I0. J-0.163
G1 X261.613 Z-4.284
G3 Y301.663 Z-4.287 I0. J0.163
G1 X236.531 Z-4.426
X233.634
G3 Y301.337 I0. J-0.163
G1 X261.613
G3 Y301.663 I0. J0.163
G1 X236.531
X233.634 Z-4.443
G3 Y301.337 Z-4.445 I0. J-0.163
G1 X261.613 Z-4.601
G3 Y301.663 Z-4.604 I0. J0.163
G1 X236.769 Z-4.743
X233.634
G3 Y301.337 I0. J-0.163
G1 X261.613
G3 Y301.663 I0. J0.163
G1 X236.769
X233.634 Z-4.76
G3 Y301.337 Z-4.763 I0. J-0.163
G1 X261.613 Z-4.919
G3 Y301.663 Z-4.922 I0. J0.163
G1 X237.006 Z-5.059
X233.634
G3 Y301.337 I0. J-0.163
G1 X261.613
G3 Y301.663 I0. J0.163
G1 X237.006
X233.634 Z-5.078
G3 Y301.337 Z-5.08 I0. J-0.163
G1 X261.613 Z-5.236
G3 Y301.663 Z-5.239 I0. J0.163
G1 X237.244 Z-5.375
X233.634
G3 Y301.337 I0. J-0.163
G1 X261.613
G3 Y301.663 I0. J0.163
G1 X237.244
X233.634 Z-5.395
G3 Y301.337 Z-5.398 I0. J-0.163
G1 X261.613 Z-5.554
G3 Y301.663 Z-5.557 I0. J0.163
G1 X237.481 Z-5.691
X233.634
G3 Y301.337 I0. J-0.163
G1 X261.613
G3 Y301.663 I0. J0.163
G1 X237.481
X233.634 Z-5.713
G3 Y301.337 Z-5.715 I0. J-0.163
G1 X261.613 Z-5.871
G3 Y301.663 Z-5.874 I0. J0.163
G1 X237.719 Z-6.007
X233.634
G3 Y301.337 I0. J-0.163
G1 X261.613
G3 Y301.663 I0. J0.163
G1 X237.719
X233.634 Z-6.03
G3 Y301.337 Z-6.033 I0. J-0.163
G1 X261.613 Z-6.189
G3 Y301.663 Z-6.192 I0. J0.163
G1 X237.956 Z-6.324
X233.634
G3 Y301.337 I0. J-0.163
G1 X261.613
G3 Y301.663 I0. J0.163
G1 X237.956
X233.634 Z-6.348
G3 Y301.337 Z-6.35 I0. J-0.163
G1 X261.613 Z-6.506
G3 Y301.663 Z-6.509 I0. J0.163
G1 X238.194 Z-6.64
X233.634
G3 Y301.337 I0. J-0.163
G1 X261.613
G3 Y301.663 I0. J0.163
G1 X238.194
X233.634 Z-6.665
G3 Y301.337 Z-6.668 I0. J-0.163
G1 X261.613 Z-6.824
G3 Y301.663 Z-6.827 I0. J0.163
G1 X238.431 Z-6.956
X233.634
G3 Y301.337 I0. J-0.163
G1 X261.613
G3 Y301.663 I0. J0.163
G1 X238.431
X233.634 Z-6.983
G3 Y301.337 Z-6.985 I0. J-0.163
G1 X261.613 Z-7.141
G3 Y301.663 Z-7.144 I0. J0.163
G1 X238.669 Z-7.272
X233.634
G3 Y301.337 I0. J-0.163
G1 X261.613
G3 Y301.663 I0. J0.163
G1 X238.669
X233.634 Z-7.3
G3 Y301.337 Z-7.303 I0. J-0.163
G1 X261.613 Z-7.459
G3 Y301.663 Z-7.462 I0. J0.163
G1 X238.907 Z-7.588
X233.634
G3 Y301.337 I0. J-0.163
G1 X261.613
G3 Y301.663 I0. J0.163
G1 X238.907
X233.634 Z-7.618
G3 Y301.337 Z-7.62 I0. J-0.163
G1 X261.613 Z-7.776
G3 Y301.663 Z-7.779 I0. J0.163
G1 X239.144 Z-7.904
X233.634
G3 Y301.337 I0. J-0.163
G1 X261.613
G3 Y301.663 I0. J0.163
G1 X239.144
X233.634 Z-7.935
G3 Y301.337 Z-7.938 I0. J-0.163
G1 X261.613 Z-8.094
G3 Y301.663 Z-8.097 I0. J0.163
G1 X239.382 Z-8.221
X233.634
G3 Y301.337 I0. J-0.163
G1 X261.613
G3 Y301.663 I0. J0.163
G1 X239.382
X233.634 Z-8.253
G3 Y301.337 Z-8.255 I0. J-0.163
G1 X261.613 Z-8.411
G3 Y301.663 Z-8.414 I0. J0.163
G1 X239.619 Z-8.537
X233.634
G3 Y301.337 I0. J-0.163
G1 X261.613
G3 Y301.663 I0. J0.163
G1 X239.619
X233.634 Z-8.57
G3 Y301.337 Z-8.573 I0. J-0.163
G1 X261.613 Z-8.729
G3 Y301.663 Z-8.732 I0. J0.163
G1 X239.857 Z-8.853
X233.634
G3 Y301.337 I0. J-0.163
G1 X261.613
G3 Y301.663 I0. J0.163
G1 X239.857
X233.634 Z-8.888
G3 Y301.337 Z-8.89 I0. J-0.163
G1 X261.613 Z-9.046
G3 Y301.663 Z-9.049 I0. J0.163
G1 X240.094 Z-9.169
X233.634
G3 Y301.337 I0. J-0.163
G1 X261.613
G3 Y301.663 I0. J0.163
G1 X240.094
X233.634 Z-9.205
G3 Y301.337 Z-9.208 I0. J-0.163
G1 X261.613 Z-9.364
G3 Y301.663 Z-9.367 I0. J0.163
G1 X240.332 Z-9.485
X233.634
G3 Y301.337 I0. J-0.163
G1 X261.613
G3 Y301.663 I0. J0.163
G1 X240.332
X233.634 Z-9.523
G3 Y301.337 Z-9.525 I0. J-0.163
G1 X261.613 Z-9.681
G3 Y301.663 Z-9.684 I0. J0.163
G1 X240.569 Z-9.801
X233.634
G3 Y301.337 I0. J-0.163
G1 X261.613
G3 Y301.663 I0. J0.163
G1 X240.569
X233.634 Z-9.84
G3 Y301.337 Z-9.843 I0. J-0.163
G1 X261.613 Z-9.999
G3 Y301.663 Z-10.002 I0. J0.163
G1 X240.807 Z-10.118
X233.634
G3 Y301.337 I0. J-0.163
G1 X261.613
G3 Y301.663 I0. J0.163
G1 X240.807
X233.634 Z-10.158
G3 Y301.337 Z-10.16 I0. J-0.163
G1 X261.613 Z-10.316
G3 Y301.663 Z-10.319 I0. J0.163
G1 X241.044 Z-10.434
X233.634
G3 Y301.337 I0. J-0.163
G1 X261.613
G3 Y301.663 I0. J0.163
G1 X241.044
X233.634 Z-10.475
G3 Y301.337 Z-10.478 I0. J-0.163
G1 X261.613 Z-10.634
G3 Y301.663 Z-10.637 I0. J0.163
G1 X241.282 Z-10.75
X233.634
G3 Y301.337 I0. J-0.163
G1 X261.613
G3 Y301.663 I0. J0.163
G1 X241.282
X233.634 Z-10.793
G3 Y301.337 Z-10.795 I0. J-0.163
G1 X261.613 Z-10.951
G3 Y301.663 Z-10.954 I0. J0.163
G1 X241.519 Z-11.066
X233.634
G3 Y301.337 I0. J-0.163
G1 X261.613
G3 Y301.663 I0. J0.163
G1 X241.519
X233.634 Z-11.11
G3 Y301.337 Z-11.113 I0. J-0.163
G1 X261.613 Z-11.269
G3 Y301.663 Z-11.272 I0. J0.163
G1 X241.757 Z-11.382
X233.634
G3 Y301.337 I0. J-0.163
G1 X261.613
G3 Y301.663 I0. J0.163
G1 X241.757
X233.634 Z-11.428
G3 Y301.337 Z-11.43 I0. J-0.163
G1 X261.613 Z-11.586
G3 Y301.663 Z-11.589 I0. J0.163
G1 X241.994 Z-11.699
X233.634
G3 Y301.337 I0. J-0.163
G1 X261.613
G3 Y301.663 I0. J0.163
G1 X241.994
X233.634 Z-11.745
G3 Y301.337 Z-11.748 I0. J-0.163
G1 X261.613 Z-11.904
G3 Y301.663 Z-11.907 I0. J0.163
G1 X242.232 Z-12.015
X233.634
G3 Y301.337 I0. J-0.163
G1 X261.613
G3 Y301.663 I0. J0.163
G1 X242.232
X233.634 Z-12.063
G3 Y301.337 Z-12.065 I0. J-0.163
G1 X261.613 Z-12.221
G3 Y301.663 Z-12.224 I0. J0.163
G1 X242.469 Z-12.331
X233.634
G3 Y301.337 I0. J-0.163
G1 X261.613
G3 Y301.663 I0. J0.163
G1 X242.469
X233.634 Z-12.38
G3 Y301.337 Z-12.383 I0. J-0.163
G1 X261.613 Z-12.539
G3 Y301.663 Z-12.542 I0. J0.163
G1 X242.707 Z-12.647
X233.634
G3 Y301.337 I0. J-0.163
G1 X261.613
G3 Y301.663 I0. J0.163
G1 X242.707
X233.634 Z-12.698
G3 Y301.337 Z-12.7 I0. J-0.163
G1 X261.613 Z-12.856
G3 Y301.663 Z-12.859 I0. J0.163
G1 X242.944 Z-12.963
X233.634
G3 Y301.337 I0. J-0.163
G1 X261.613
G3 Y301.663 I0. J0.163
G1 X242.944
X233.634 Z-13.015
G3 Y301.337 Z-13.018 I0. J-0.163
G1 X261.613 Z-13.174
G3 Y301.663 Z-13.177 I0. J0.163
G1 X243.182 Z-13.279
X233.634
G3 Y301.337 I0. J-0.163
G1 X261.613
G3 Y301.663 I0. J0.163
G1 X243.182
X233.634 Z-13.333
G3 Y301.337 Z-13.335 I0. J-0.163
G1 X261.613 Z-13.491
G3 Y301.663 Z-13.494 I0. J0.163
G1 X243.419 Z-13.596
X233.634
G3 Y301.337 I0. J-0.163
G1 X261.613
G3 Y301.663 I0. J0.163
G1 X243.419
X233.634 Z-13.65
G3 Y301.337 Z-13.653 I0. J-0.163
G1 X261.613 Z-13.809
G3 Y301.663 Z-13.812 I0. J0.163
G1 X243.657 Z-13.912
X233.634
G3 Y301.337 I0. J-0.163
G1 X261.613
G3 Y301.663 I0. J0.163
G1 X243.657
X233.634 Z-13.968
G3 Y301.337 Z-13.97 I0. J-0.163
G1 X261.613 Z-14.126
G3 Y301.663 Z-14.129 I0. J0.163
G1 X243.894 Z-14.228
X233.634
G3 Y301.337 I0. J-0.163
G1 X261.613
G3 Y301.663 I0. J0.163
G1 X243.894
X233.634 Z-14.285
G3 Y301.337 Z-14.288 I0. J-0.163
G1 X261.613 Z-14.444
G3 Y301.663 Z-14.447 I0. J0.163
G1 X244.132 Z-14.544
X233.634
G3 Y301.337 I0. J-0.163
G1 X261.613
G3 Y301.663 I0. J0.163
G1 X244.132
X233.634 Z-14.603
G3 Y301.337 Z-14.605 I0. J-0.163
G1 X261.613 Z-14.761
G3 Y301.663 Z-14.764 I0. J0.163
G1 X244.37 Z-14.86
X233.634
G3 Y301.337 I0. J-0.163
G1 X261.613
G3 Y301.663 I0. J0.163
G1 X244.37
X233.634 Z-14.92
G3 Y301.337 Z-14.923 I0. J-0.163
G1 X261.613 Z-15.079
G3 Y301.663 Z-15.082 I0. J0.163
G1 X244.607 Z-15.176
X233.634
G3 Y301.337 I0. J-0.163
G1 X261.613
G3 Y301.663 I0. J0.163
G1 X244.607
X233.634 Z-15.238
G3 Y301.337 Z-15.24 I0. J-0.163
G1 X261.613 Z-15.396
G3 Y301.663 Z-15.399 I0. J0.163
G1 X244.845 Z-15.493
X233.634
G3 Y301.337 I0. J-0.163
G1 X261.613
G3 Y301.663 I0. J0.163
G1 X244.845
X233.634 Z-15.555
G3 Y301.337 Z-15.558 I0. J-0.163
G1 X261.613 Z-15.714
G3 Y301.663 Z-15.717 I0. J0.163
G1 X245.082 Z-15.809
X233.634
G3 Y301.337 I0. J-0.163
G1 X261.613
G3 Y301.663 I0. J0.163
G1 X245.082
X233.634 Z-15.873
G3 Y301.337 Z-15.875 I0. J-0.163
G1 X261.613 Z-16.031
G3 Y301.663 Z-16.034 I0. J0.163
G1 X245.32 Z-16.125
X233.634
G3 Y301.337 I0. J-0.163
G1 X261.613
G3 Y301.663 I0. J0.163
G1 X245.32
X233.634 Z-16.19
G3 Y301.337 Z-16.193 I0. J-0.163
G1 X261.613 Z-16.349
G3 Y301.663 Z-16.352 I0. J0.163
G1 X245.557 Z-16.441
X233.634
G3 Y301.337 I0. J-0.163
G1 X261.613
G3 Y301.663 I0. J0.163
G1 X245.557
X233.634 Z-16.508
G3 Y301.337 Z-16.51 I0. J-0.163
G1 X261.613 Z-16.666
G3 Y301.663 Z-16.669 I0. J0.163
G1 X245.795 Z-16.757
X233.634
G3 Y301.337 I0. J-0.163
G1 X261.613
G3 Y301.663 I0. J0.163
G1 X245.795
X233.634 Z-16.825
G3 Y301.337 Z-16.828 I0. J-0.163
G1 X261.613 Z-16.984
G3 Y301.663 Z-16.987 I0. J0.163
G1 X246.032 Z-17.074
X233.634
G3 Y301.337 I0. J-0.163
G1 X261.613
G3 Y301.663 I0. J0.163
G1 X246.032
X233.634 Z-17.143
G3 Y301.337 Z-17.145 I0. J-0.163
G1 X261.613 Z-17.301
G3 Y301.663 Z-17.304 I0. J0.163
G1 X246.27 Z-17.39
X233.634
G3 Y301.337 I0. J-0.163
G1 X261.613
G3 Y301.663 I0. J0.163
G1 X246.27
X233.634 Z-17.46
G3 Y301.337 Z-17.463 I0. J-0.163
G1 X261.613 Z-17.619
G3 Y301.663 Z-17.622 I0. J0.163
G1 X246.507 Z-17.706
X233.634
G3 Y301.337 I0. J-0.163
G1 X261.613
G3 Y301.663 I0. J0.163
G1 X246.507
X233.634 Z-17.778
G3 Y301.337 Z-17.78 I0. J-0.163
G1 X261.613 Z-17.936
G3 Y301.663 Z-17.939 I0. J0.163
G1 X246.745 Z-18.022
X233.634
G3 Y301.337 I0. J-0.163
G1 X261.613
G3 Y301.663 I0. J0.163
G1 X246.745
X233.634 Z-18.095
G3 Y301.337 Z-18.098 I0. J-0.163
G1 X261.613 Z-18.254
G3 Y301.663 Z-18.257 I0. J0.163
G1 X246.982 Z-18.338
X233.634
G3 Y301.337 I0. J-0.163
G1 X261.613
G3 Y301.663 I0. J0.163
G1 X246.982
X233.634 Z-18.413
G3 Y301.337 Z-18.415 I0. J-0.163
G1 X261.613 Z-18.571
G3 Y301.663 Z-18.574 I0. J0.163
G1 X247.22 Z-18.654
X233.634
G3 Y301.337 I0. J-0.163
G1 X261.613
G3 Y301.663 I0. J0.163
G1 X247.22
X233.634 Z-18.73
G3 Y301.337 Z-18.733 I0. J-0.163
G1 X261.613 Z-18.889
G3 Y301.663 Z-18.892 I0. J0.163
G1 X247.457 Z-18.971
X233.634
G3 Y301.337 I0. J-0.163
G1 X261.613
G3 Y301.663 I0. J0.163
G1 X247.457
X233.634 Z-19.048
G3 Y301.337 Z-19.05 I0. J-0.163
G1 X261.613 Z-19.206
G3 Y301.663 Z-19.209 I0. J0.163
G1 X247.695 Z-19.287
X233.634
G3 Y301.337 I0. J-0.163
G1 X261.613
G3 Y301.663 I0. J0.163
G1 X247.695
X233.634 Z-19.365
G3 Y301.337 Z-19.368 I0. J-0.163
G1 X261.613 Z-19.524
G3 Y301.663 Z-19.527 I0. J0.163
G1 X247.932 Z-19.603
X233.634
G3 Y301.337 I0. J-0.163
G1 X261.613
G3 Y301.663 I0. J0.163
G1 X247.932
X233.634 Z-19.683
G3 Y301.337 Z-19.685 I0. J-0.163
G1 X261.613 Z-19.841
G3 Y301.663 Z-19.844 I0. J0.163
G1 X248.17 Z-19.919
X233.634
G3 Y301.337 I0. J-0.163
G1 X261.613
G3 Y301.663 I0. J0.163
G1 X248.17
X233.634 Z-20.
G3 Y301.337 Z-20.003 I0. J-0.163
G1 X261.613 Z-20.159
G3 Y301.663 Z-20.162 I0. J0.163
G1 X248.407 Z-20.235
X233.634
G3 Y301.337 I0. J-0.163
G1 X261.613
G3 Y301.663 I0. J0.163
G1 X248.407
X233.634 Z-20.318
G3 Y301.337 Z-20.32 I0. J-0.163
G1 X261.613 Z-20.476
G3 Y301.663 Z-20.479 I0. J0.163
G1 X248.645 Z-20.551
X233.634
G3 Y301.337 I0. J-0.163
G1 X261.613
G3 Y301.663 I0. J0.163
G1 X248.645
X233.634 Z-20.635
G3 Y301.337 Z-20.638 I0. J-0.163
G1 X261.613 Z-20.794
G3 Y301.663 Z-20.797 I0. J0.163
G1 X248.882 Z-20.868
X233.634
G3 Y301.337 I0. J-0.163
G1 X261.613
G3 Y301.663 I0. J0.163
G1 X248.882
X233.634 Z-20.953
G3 Y301.337 Z-20.955 I0. J-0.163
G1 X261.613 Z-21.111
G3 Y301.663 Z-21.114 I0. J0.163
G1 X249.12 Z-21.184
X233.634
G3 Y301.337 I0. J-0.163
G1 X261.613
G3 Y301.663 I0. J0.163
G1 X249.12
X233.634 Z-21.27
G3 Y301.337 Z-21.273 I0. J-0.163
G1 X261.613 Z-21.429
G3 Y301.663 Z-21.432 I0. J0.163
G1 X249.358 Z-21.5
X233.634
G3 Y301.337 I0. J-0.163
G1 X261.613
G3 Y301.663 I0. J0.163
G1 X249.358
G18 G3 X249.04 Z-21.183 I0. K0.317
G0 Z5.
X240.414 Y24.337
G1 Z2.817 F534.
G2 X240.73 Z2.5 I0.317 K0. F1068.
G1 X261.613 Z2.384
G17 G3 Y24.663 Z2.381 I0. J0.163
G1 X233.634 Z2.225
G3 Y24.337 Z2.222 I0. J-0.163
G1 X261.613 Z2.066
G3 Y24.663 Z2.063 I0. J0.163
G1 X233.634 Z1.907
G3 Y24.337 Z1.905 I0. J-0.163
G1 X261.613 Z1.749
G3 Y24.663 Z1.746 I0. J0.163
G1 X233.634 Z1.59
G3 Y24.337 Z1.587 I0. J-0.163
G1 X261.613 Z1.431
G3 Y24.663 Z1.428 I0. J0.163
G1 X233.634 Z1.272
G3 Y24.337 Z1.27 I0. J-0.163
G1 X261.613 Z1.114
G3 Y24.663 Z1.111 I0. J0.163
G1 X233.634 Z0.955
G3 Y24.337 Z0.952 I0. J-0.163
G1 X261.613 Z0.796
G3 Y24.663 Z0.793 I0. J0.163
G1 X233.634 Z0.637
G3 Y24.337 Z0.635 I0. J-0.163
G1 X261.613 Z0.479
G3 Y24.663 Z0.476 I0. J0.163
G1 X233.634 Z0.32
G3 Y24.337 Z0.317 I0. J-0.163
G1 X261.613 Z0.161
G3 Y24.663 Z0.158 I0. J0.163
G1 X233.634 Z0.002
G3 Y24.337 Z0. I0. J-0.163
G1 X261.613 Z-0.156
G3 Y24.663 Z-0.159 I0. J0.163
G1 X233.634 Z-0.315
X233.587 Y24.656
X233.544 Y24.635 Z-0.316
X233.509 Y24.604
X233.484 Y24.563
G3 X233.634 Y24.337 I0.15 J-0.063
G1 X261.613
G3 Y24.663 I0. J0.163
G1 X233.634
X233.587 Y24.656
X233.544 Y24.635
X233.509 Y24.604
X233.484 Y24.563
G3 X233.634 Y24.337 Z-0.318 I0.15 J-0.063
G1 X261.613 Z-0.474
G3 Y24.663 Z-0.477 I0. J0.163
G1 X233.681 Z-0.632
X233.634
G3 Y24.337 I0. J-0.163
G1 X261.613
G3 Y24.663 I0. J0.163
G1 X233.681
X233.634 Z-0.633
G3 Y24.337 Z-0.635 I0. J-0.163
G1 X261.613 Z-0.791
G3 Y24.663 Z-0.794 I0. J0.163
G1 X233.919 Z-0.949
X233.681
X233.634
G3 Y24.337 I0. J-0.163
G1 X261.613
G3 Y24.663 I0. J0.163
G1 X233.919
X233.634 Z-0.95
G3 Y24.337 Z-0.953 I0. J-0.163
G1 X261.613 Z-1.109
G3 Y24.663 Z-1.112 I0. J0.163
G1 X234.156 Z-1.265
X233.634
G3 Y24.337 I0. J-0.163
G1 X261.613
G3 Y24.663 I0. J0.163
G1 X234.156
X233.634 Z-1.268
G3 Y24.337 Z-1.27 I0. J-0.163
G1 X261.613 Z-1.426
G3 Y24.663 Z-1.429 I0. J0.163
G1 X234.394 Z-1.581
X233.634
G3 Y24.337 I0. J-0.163
G1 X261.613
G3 Y24.663 I0. J0.163
G1 X234.394
X233.634 Z-1.585
G3 Y24.337 Z-1.588 I0. J-0.163
G1 X261.613 Z-1.744
G3 Y24.663 Z-1.747 I0. J0.163
G1 X234.631 Z-1.897
X233.634
G3 Y24.337 I0. J-0.163
G1 X261.613
G3 Y24.663 I0. J0.163
G1 X234.631
X233.634 Z-1.903
G3 Y24.337 Z-1.905 I0. J-0.163
G1 X261.613 Z-2.061
G3 Y24.663 Z-2.064 I0. J0.163
G1 X234.869 Z-2.213
X233.634
G3 Y24.337 I0. J-0.163
G1 X261.613
G3 Y24.663 I0. J0.163
G1 X234.869
X233.634 Z-2.22
G3 Y24.337 Z-2.223 I0. J-0.163
G1 X261.613 Z-2.379
G3 Y24.663 Z-2.382 I0. J0.163
G1 X235.106 Z-2.529
X233.634
G3 Y24.337 I0. J-0.163
G1 X261.613
G3 Y24.663 I0. J0.163
G1 X235.106
X233.634 Z-2.538
G3 Y24.337 Z-2.54 I0. J-0.163
G1 X261.613 Z-2.696
G3 Y24.663 Z-2.699 I0. J0.163
G1 X235.344 Z-2.846
X233.634
G3 Y24.337 I0. J-0.163
G1 X261.613
G3 Y24.663 I0. J0.163
G1 X235.344
X233.634 Z-2.855
G3 Y24.337 Z-2.858 I0. J-0.163
G1 X261.613 Z-3.014
G3 Y24.663 Z-3.017 I0. J0.163
G1 X235.581 Z-3.162
X233.634
G3 Y24.337 I0. J-0.163
G1 X261.613
G3 Y24.663 I0. J0.163
G1 X235.581
X233.634 Z-3.173
G3 Y24.337 Z-3.175 I0. J-0.163
G1 X261.613 Z-3.331
G3 Y24.663 Z-3.334 I0. J0.163
G1 X235.819 Z-3.478
X233.634
G3 Y24.337 I0. J-0.163
G1 X261.613
G3 Y24.663 I0. J0.163
G1 X235.819
X233.634 Z-3.49
G3 Y24.337 Z-3.493 I0. J-0.163
G1 X261.613 Z-3.649
G3 Y24.663 Z-3.652 I0. J0.163
G1 X236.056 Z-3.794
X233.634
G3 Y24.337 I0. J-0.163
G1 X261.613
G3 Y24.663 I0. J0.163
G1 X236.056
X233.634 Z-3.808
G3 Y24.337 Z-3.81 I0. J-0.163
G1 X261.613 Z-3.966
G3 Y24.663 Z-3.969 I0. J0.163
G1 X236.294 Z-4.11
X233.634
G3 Y24.337 I0. J-0.163
G1 X261.613
G3 Y24.663 I0. J0.163
G1 X236.294
X233.634 Z-4.125
G3 Y24.337 Z-4.128 I0. J-0.163
G1 X261.613 Z-4.284
G3 Y24.663 Z-4.287 I0. J0.163
G1 X236.531 Z-4.426
X233.634
G3 Y24.337 I0. J-0.163
G1 X261.613
G3 Y24.663 I0. J0.163
G1 X236.531
X233.634 Z-4.443
G3 Y24.337 Z-4.445 I0. J-0.163
G1 X261.613 Z-4.601
G3 Y24.663 Z-4.604 I0. J0.163
G1 X236.769 Z-4.743
X233.634
G3 Y24.337 I0. J-0.163
G1 X261.613
G3 Y24.663 I0. J0.163
G1 X236.769
X233.634 Z-4.76
G3 Y24.337 Z-4.763 I0. J-0.163
G1 X261.613 Z-4.919
G3 Y24.663 Z-4.922 I0. J0.163
G1 X237.006 Z-5.059
X233.634
G3 Y24.337 I0. J-0.163
G1 X261.613
G3 Y24.663 I0. J0.163
G1 X237.006
X233.634 Z-5.078
G3 Y24.337 Z-5.08 I0. J-0.163
G1 X261.613 Z-5.236
G3 Y24.663 Z-5.239 I0. J0.163
G1 X237.244 Z-5.375
X233.634
G3 Y24.337 I0. J-0.163
G1 X261.613
G3 Y24.663 I0. J0.163
G1 X237.244
X233.634 Z-5.395
G3 Y24.337 Z-5.398 I0. J-0.163
G1 X261.613 Z-5.554
G3 Y24.663 Z-5.557 I0. J0.163
G1 X237.481 Z-5.691
X233.634
G3 Y24.337 I0. J-0.163
G1 X261.613
G3 Y24.663 I0. J0.163
G1 X237.481
X233.634 Z-5.713
G3 Y24.337 Z-5.715 I0. J-0.163
G1 X261.613 Z-5.871
G3 Y24.663 Z-5.874 I0. J0.163
G1 X237.719 Z-6.007
X233.634
G3 Y24.337 I0. J-0.163
G1 X261.613
G3 Y24.663 I0. J0.163
G1 X237.719
X233.634 Z-6.03
G3 Y24.337 Z-6.033 I0. J-0.163
G1 X261.613 Z-6.189
G3 Y24.663 Z-6.192 I0. J0.163
G1 X237.956 Z-6.324
X233.634
G3 Y24.337 I0. J-0.163
G1 X261.613
G3 Y24.663 I0. J0.163
G1 X237.956
X233.634 Z-6.348
G3 Y24.337 Z-6.35 I0. J-0.163
G1 X261.613 Z-6.506
G3 Y24.663 Z-6.509 I0. J0.163
G1 X238.194 Z-6.64
X233.634
G3 Y24.337 I0. J-0.163
G1 X261.613
G3 Y24.663 I0. J0.163
G1 X238.194
X233.634 Z-6.665
G3 Y24.337 Z-6.668 I0. J-0.163
G1 X261.613 Z-6.824
G3 Y24.663 Z-6.827 I0. J0.163
G1 X238.431 Z-6.956
X233.634
G3 Y24.337 I0. J-0.163
G1 X261.613
G3 Y24.663 I0. J0.163
G1 X238.431
X233.634 Z-6.983
G3 Y24.337 Z-6.985 I0. J-0.163
G1 X261.613 Z-7.141
G3 Y24.663 Z-7.144 I0. J0.163
G1 X238.669 Z-7.272
X233.634
G3 Y24.337 I0. J-0.163
G1 X261.613
G3 Y24.663 I0. J0.163
G1 X238.669
X233.634 Z-7.3
G3 Y24.337 Z-7.303 I0. J-0.163
G1 X261.613 Z-7.459
G3 Y24.663 Z-7.462 I0. J0.163
G1 X238.907 Z-7.588
X233.634
G3 Y24.337 I0. J-0.163
G1 X261.613
G3 Y24.663 I0. J0.163
G1 X238.907
X233.634 Z-7.618
G3 Y24.337 Z-7.62 I0. J-0.163
G1 X261.613 Z-7.776
G3 Y24.663 Z-7.779 I0. J0.163
G1 X239.144 Z-7.904
X233.634
G3 Y24.337 I0. J-0.163
G1 X261.613
G3 Y24.663 I0. J0.163
G1 X239.144
X233.634 Z-7.935
G3 Y24.337 Z-7.938 I0. J-0.163
G1 X261.613 Z-8.094
G3 Y24.663 Z-8.097 I0. J0.163
G1 X239.382 Z-8.221
X233.634
G3 Y24.337 I0. J-0.163
G1 X261.613
G3 Y24.663 I0. J0.163
G1 X239.382
X233.634 Z-8.253
G3 Y24.337 Z-8.255 I0. J-0.163
G1 X261.613 Z-8.411
G3 Y24.663 Z-8.414 I0. J0.163
G1 X239.619 Z-8.537
X233.634
G3 Y24.337 I0. J-0.163
G1 X261.613
G3 Y24.663 I0. J0.163
G1 X239.619
X233.634 Z-8.57
G3 Y24.337 Z-8.573 I0. J-0.163
G1 X261.613 Z-8.729
G3 Y24.663 Z-8.732 I0. J0.163
G1 X239.857 Z-8.853
X233.634
G3 Y24.337 I0. J-0.163
G1 X261.613
G3 Y24.663 I0. J0.163
G1 X239.857
X233.634 Z-8.888
G3 Y24.337 Z-8.89 I0. J-0.163
G1 X261.613 Z-9.046
G3 Y24.663 Z-9.049 I0. J0.163
G1 X240.094 Z-9.169
X233.634
G3 Y24.337 I0. J-0.163
G1 X261.613
G3 Y24.663 I0. J0.163
G1 X240.094
X233.634 Z-9.205
G3 Y24.337 Z-9.208 I0. J-0.163
G1 X261.613 Z-9.364
G3 Y24.663 Z-9.367 I0. J0.163
G1 X240.332 Z-9.485
X233.634
G3 Y24.337 I0. J-0.163
G1 X261.613
G3 Y24.663 I0. J0.163
G1 X240.332
X233.634 Z-9.523
G3 Y24.337 Z-9.525 I0. J-0.163
G1 X261.613 Z-9.681
G3 Y24.663 Z-9.684 I0. J0.163
G1 X240.569 Z-9.801
X233.634
G3 Y24.337 I0. J-0.163
G1 X261.613
G3 Y24.663 I0. J0.163
G1 X240.569
X233.634 Z-9.84
G3 Y24.337 Z-9.843 I0. J-0.163
G1 X261.613 Z-9.999
G3 Y24.663 Z-10.002 I0. J0.163
G1 X240.807 Z-10.118
X233.634
G3 Y24.337 I0. J-0.163
G1 X261.613
G3 Y24.663 I0. J0.163
G1 X240.807
X233.634 Z-10.158
G3 Y24.337 Z-10.16 I0. J-0.163
G1 X261.613 Z-10.316
G3 Y24.663 Z-10.319 I0. J0.163
G1 X241.044 Z-10.434
X233.634
G3 Y24.337 I0. J-0.163
G1 X261.613
G3 Y24.663 I0. J0.163
G1 X241.044
X233.634 Z-10.475
G3 Y24.337 Z-10.478 I0. J-0.163
G1 X261.613 Z-10.634
G3 Y24.663 Z-10.637 I0. J0.163
G1 X241.282 Z-10.75
X233.634
G3 Y24.337 I0. J-0.163
G1 X261.613
G3 Y24.663 I0. J0.163
G1 X241.282
X233.634 Z-10.793
G3 Y24.337 Z-10.795 I0. J-0.163
G1 X261.613 Z-10.951
G3 Y24.663 Z-10.954 I0. J0.163
G1 X241.519 Z-11.066
X233.634
G3 Y24.337 I0. J-0.163
G1 X261.613
G3 Y24.663 I0. J0.163
G1 X241.519
X233.634 Z-11.11
G3 Y24.337 Z-11.113 I0. J-0.163
G1 X261.613 Z-11.269
G3 Y24.663 Z-11.272 I0. J0.163
G1 X241.757 Z-11.382
X233.634
G3 Y24.337 I0. J-0.163
G1 X261.613
G3 Y24.663 I0. J0.163
G1 X241.757
X233.634 Z-11.428
G3 Y24.337 Z-11.43 I0. J-0.163
G1 X261.613 Z-11.586
G3 Y24.663 Z-11.589 I0. J0.163
G1 X241.994 Z-11.699
X233.634
G3 Y24.337 I0. J-0.163
G1 X261.613
G3 Y24.663 I0. J0.163
G1 X241.994
X233.634 Z-11.745
G3 Y24.337 Z-11.748 I0. J-0.163
G1 X261.613 Z-11.904
G3 Y24.663 Z-11.907 I0. J0.163
G1 X242.232 Z-12.015
X233.634
G3 Y24.337 I0. J-0.163
G1 X261.613
G3 Y24.663 I0. J0.163
G1 X242.232
X233.634 Z-12.063
G3 Y24.337 Z-12.065 I0. J-0.163
G1 X261.613 Z-12.221
G3 Y24.663 Z-12.224 I0. J0.163
G1 X242.469 Z-12.331
X233.634
G3 Y24.337 I0. J-0.163
G1 X261.613
G3 Y24.663 I0. J0.163
G1 X242.469
X233.634 Z-12.38
G3 Y24.337 Z-12.383 I0. J-0.163
G1 X261.613 Z-12.539
G3 Y24.663 Z-12.542 I0. J0.163
G1 X242.707 Z-12.647
X233.634
G3 Y24.337 I0. J-0.163
G1 X261.613
G3 Y24.663 I0. J0.163
G1 X242.707
X233.634 Z-12.698
G3 Y24.337 Z-12.7 I0. J-0.163
G1 X261.613 Z-12.856
G3 Y24.663 Z-12.859 I0. J0.163
G1 X242.944 Z-12.963
X233.634
G3 Y24.337 I0. J-0.163
G1 X261.613
G3 Y24.663 I0. J0.163
G1 X242.944
X233.634 Z-13.015
G3 Y24.337 Z-13.018 I0. J-0.163
G1 X261.613 Z-13.174
G3 Y24.663 Z-13.177 I0. J0.163
G1 X243.182 Z-13.279
X233.634
G3 Y24.337 I0. J-0.163
G1 X261.613
G3 Y24.663 I0. J0.163
G1 X243.182
X233.634 Z-13.333
G3 Y24.337 Z-13.335 I0. J-0.163
G1 X261.613 Z-13.491
G3 Y24.663 Z-13.494 I0. J0.163
G1 X243.419 Z-13.596
X233.634
G3 Y24.337 I0. J-0.163
G1 X261.613
G3 Y24.663 I0. J0.163
G1 X243.419
X233.634 Z-13.65
G3 Y24.337 Z-13.653 I0. J-0.163
G1 X261.613 Z-13.809
G3 Y24.663 Z-13.812 I0. J0.163
G1 X243.657 Z-13.912
X233.634
G3 Y24.337 I0. J-0.163
G1 X261.613
G3 Y24.663 I0. J0.163
G1 X243.657
X233.634 Z-13.968
G3 Y24.337 Z-13.97 I0. J-0.163
G1 X261.613 Z-14.126
G3 Y24.663 Z-14.129 I0. J0.163
G1 X243.894 Z-14.228
X233.634
G3 Y24.337 I0. J-0.163
G1 X261.613
G3 Y24.663 I0. J0.163
G1 X243.894
X233.634 Z-14.285
G3 Y24.337 Z-14.288 I0. J-0.163
G1 X261.613 Z-14.444
G3 Y24.663 Z-14.447 I0. J0.163
G1 X244.132 Z-14.544
X233.634
G3 Y24.337 I0. J-0.163
G1 X261.613
G3 Y24.663 I0. J0.163
G1 X244.132
X233.634 Z-14.603
G3 Y24.337 Z-14.605 I0. J-0.163
G1 X261.613 Z-14.761
G3 Y24.663 Z-14.764 I0. J0.163
G1 X244.37 Z-14.86
X233.634
G3 Y24.337 I0. J-0.163
G1 X261.613
G3 Y24.663 I0. J0.163
G1 X244.37
X233.634 Z-14.92
G3 Y24.337 Z-14.923 I0. J-0.163
G1 X261.613 Z-15.079
G3 Y24.663 Z-15.082 I0. J0.163
G1 X244.607 Z-15.176
X233.634
G3 Y24.337 I0. J-0.163
G1 X261.613
G3 Y24.663 I0. J0.163
G1 X244.607
X233.634 Z-15.238
G3 Y24.337 Z-15.24 I0. J-0.163
G1 X261.613 Z-15.396
G3 Y24.663 Z-15.399 I0. J0.163
G1 X244.845 Z-15.493
X233.634
G3 Y24.337 I0. J-0.163
G1 X261.613
G3 Y24.663 I0. J0.163
G1 X244.845
X233.634 Z-15.555
G3 Y24.337 Z-15.558 I0. J-0.163
G1 X261.613 Z-15.714
G3 Y24.663 Z-15.717 I0. J0.163
G1 X245.082 Z-15.809
X233.634
G3 Y24.337 I0. J-0.163
G1 X261.613
G3 Y24.663 I0. J0.163
G1 X245.082
X233.634 Z-15.873
G3 Y24.337 Z-15.875 I0. J-0.163
G1 X261.613 Z-16.031
G3 Y24.663 Z-16.034 I0. J0.163
G1 X245.32 Z-16.125
X233.634
G3 Y24.337 I0. J-0.163
G1 X261.613
G3 Y24.663 I0. J0.163
G1 X245.32
X233.634 Z-16.19
G3 Y24.337 Z-16.193 I0. J-0.163
G1 X261.613 Z-16.349
G3 Y24.663 Z-16.352 I0. J0.163
G1 X245.557 Z-16.441
X233.634
G3 Y24.337 I0. J-0.163
G1 X261.613
G3 Y24.663 I0. J0.163
G1 X245.557
X233.634 Z-16.508
G3 Y24.337 Z-16.51 I0. J-0.163
G1 X261.613 Z-16.666
G3 Y24.663 Z-16.669 I0. J0.163
G1 X245.795 Z-16.757
X233.634
G3 Y24.337 I0. J-0.163
G1 X261.613
G3 Y24.663 I0. J0.163
G1 X245.795
X233.634 Z-16.825
G3 Y24.337 Z-16.828 I0. J-0.163
G1 X261.613 Z-16.984
G3 Y24.663 Z-16.987 I0. J0.163
G1 X246.032 Z-17.074
X233.634
G3 Y24.337 I0. J-0.163
G1 X261.613
G3 Y24.663 I0. J0.163
G1 X246.032
X233.634 Z-17.143
G3 Y24.337 Z-17.145 I0. J-0.163
G1 X261.613 Z-17.301
G3 Y24.663 Z-17.304 I0. J0.163
G1 X246.27 Z-17.39
X233.634
G3 Y24.337 I0. J-0.163
G1 X261.613
G3 Y24.663 I0. J0.163
G1 X246.27
X233.634 Z-17.46
G3 Y24.337 Z-17.463 I0. J-0.163
G1 X261.613 Z-17.619
G3 Y24.663 Z-17.622 I0. J0.163
G1 X246.507 Z-17.706
X233.634
G3 Y24.337 I0. J-0.163
G1 X261.613
G3 Y24.663 I0. J0.163
G1 X246.507
X233.634 Z-17.778
G3 Y24.337 Z-17.78 I0. J-0.163
G1 X261.613 Z-17.936
G3 Y24.663 Z-17.939 I0. J0.163
G1 X246.745 Z-18.022
X233.634
G3 Y24.337 I0. J-0.163
G1 X261.613
G3 Y24.663 I0. J0.163
G1 X246.745
X233.634 Z-18.095
G3 Y24.337 Z-18.098 I0. J-0.163
G1 X261.613 Z-18.254
G3 Y24.663 Z-18.257 I0. J0.163
G1 X246.982 Z-18.338
X233.634
G3 Y24.337 I0. J-0.163
G1 X261.613
G3 Y24.663 I0. J0.163
G1 X246.982
X233.634 Z-18.413
G3 Y24.337 Z-18.415 I0. J-0.163
G1 X261.613 Z-18.571
G3 Y24.663 Z-18.574 I0. J0.163
G1 X247.22 Z-18.654
X233.634
G3 Y24.337 I0. J-0.163
G1 X261.613
G3 Y24.663 I0. J0.163
G1 X247.22
X233.634 Z-18.73
G3 Y24.337 Z-18.733 I0. J-0.163
G1 X261.613 Z-18.889
G3 Y24.663 Z-18.892 I0. J0.163
G1 X247.457 Z-18.971
X233.634
G3 Y24.337 I0. J-0.163
G1 X261.613
G3 Y24.663 I0. J0.163
G1 X247.457
X233.634 Z-19.048
G3 Y24.337 Z-19.05 I0. J-0.163
G1 X261.613 Z-19.206
G3 Y24.663 Z-19.209 I0. J0.163
G1 X247.695 Z-19.287
X233.634
G3 Y24.337 I0. J-0.163
G1 X261.613
G3 Y24.663 I0. J0.163
G1 X247.695
X233.634 Z-19.365
G3 Y24.337 Z-19.368 I0. J-0.163
G1 X261.613 Z-19.524
G3 Y24.663 Z-19.527 I0. J0.163
G1 X247.932 Z-19.603
X233.634
G3 Y24.337 I0. J-0.163
G1 X261.613
G3 Y24.663 I0. J0.163
G1 X247.932
X233.634 Z-19.683
G3 Y24.337 Z-19.685 I0. J-0.163
G1 X261.613 Z-19.841
G3 Y24.663 Z-19.844 I0. J0.163
G1 X248.17 Z-19.919
X233.634
G3 Y24.337 I0. J-0.163
G1 X261.613
G3 Y24.663 I0. J0.163
G1 X248.17
X233.634 Z-20.
G3 Y24.337 Z-20.003 I0. J-0.163
G1 X261.613 Z-20.159
G3 Y24.663 Z-20.162 I0. J0.163
G1 X248.407 Z-20.235
X233.634
G3 Y24.337 I0. J-0.163
G1 X261.613
G3 Y24.663 I0. J0.163
G1 X248.407
X233.634 Z-20.318
G3 Y24.337 Z-20.32 I0. J-0.163
G1 X261.613 Z-20.476
G3 Y24.663 Z-20.479 I0. J0.163
G1 X248.645 Z-20.551
X233.634
G3 Y24.337 I0. J-0.163
G1 X261.613
G3 Y24.663 I0. J0.163
G1 X248.645
X233.634 Z-20.635
G3 Y24.337 Z-20.638 I0. J-0.163
G1 X261.613 Z-20.794
G3 Y24.663 Z-20.797 I0. J0.163
G1 X248.882 Z-20.868
X233.634
G3 Y24.337 I0. J-0.163
G1 X261.613
G3 Y24.663 I0. J0.163
G1 X248.882
X233.634 Z-20.953
G3 Y24.337 Z-20.955 I0. J-0.163
G1 X261.613 Z-21.111
G3 Y24.663 Z-21.114 I0. J0.163
G1 X249.12 Z-21.184
X233.634
G3 Y24.337 I0. J-0.163
G1 X261.613
G3 Y24.663 I0. J0.163
G1 X249.12
X233.634 Z-21.27
G3 Y24.337 Z-21.273 I0. J-0.163
G1 X261.613 Z-21.429
G3 Y24.663 Z-21.432 I0. J0.163
G1 X249.358 Z-21.5
X233.634
G3 Y24.337 I0. J-0.163
G1 X261.613
G3 Y24.663 I0. J0.163
G1 X249.358
G18 G3 X249.04 Z-21.183 I0. K0.317
G0 Z15.
G17

M9
M5
G28 G91 Z0.
G90
G28 G91 X0. Y0.
G90
M30
