(L-PERNA-CONTORNO)
(T1 D=6. CR=0. - ZMIN=-21.5 - FLAT END MILL)
G90 G94 G91.1 G40 G49 G17
G21
G28 G91 Z0.
G90

(2D CONTOUR3 2)
T1 M6
S10000 M3
G17 G90 G94
G54
M8
G0 X329.813 Y205.735
G43 Z15. H1
G0 Z5.
G1 Z1. F800.
Z-1.4
G18 G2 X330.413 Z-2. I0.6 K0. F3698.
G1 X331.013
G17 G3 X331.613 Y206.335 I0. J0.6
G1 Y251.012
G3 X326.613 Y256.012 I-5. J0.
G1 X237.259
G3 X232.259 Y251.012 I0. J-5.
G1 Y74.988
G3 X237.259 Y69.988 I5. J0.
G1 X326.613
G3 X331.613 Y74.988 I0. J5.
G1 Y206.335
G3 X331.013 Y206.935 I-0.6 J0.
G1 X330.413
G18 G3 X329.813 Z-1.4 I0. K0.6
G0 Z5.
Y205.735
G1 Z-1. F800.
Z-3.4
G2 X330.413 Z-4. I0.6 K0. F3698.
G1 X331.013
G17 G3 X331.613 Y206.335 I0. J0.6
G1 Y251.012
G3 X326.613 Y256.012 I-5. J0.
G1 X237.259
G3 X232.259 Y251.012 I0. J-5.
G1 Y74.988
G3 X237.259 Y69.988 I5. J0.
G1 X326.613
G3 X331.613 Y74.988 I0. J5.
G1 Y206.335
G3 X331.013 Y206.935 I-0.6 J0.
G1 X330.413
G18 G3 X329.813 Z-3.4 I0. K0.6
G0 Z5.
Y205.735
G1 Z-3. F800.
Z-5.4
G2 X330.413 Z-6. I0.6 K0. F3698.
G1 X331.013
G17 G3 X331.613 Y206.335 I0. J0.6
G1 Y251.012
G3 X326.613 Y256.012 I-5. J0.
G1 X237.259
G3 X232.259 Y251.012 I0. J-5.
G1 Y74.988
G3 X237.259 Y69.988 I5. J0.
G1 X326.613
G3 X331.613 Y74.988 I0. J5.
G1 Y206.335
G3 X331.013 Y206.935 I-0.6 J0.
G1 X330.413
G18 G3 X329.813 Z-5.4 I0. K0.6
G0 Z5.
Y205.735
G1 Z-5. F800.
Z-7.4
G2 X330.413 Z-8. I0.6 K0. F3698.
G1 X331.013
G17 G3 X331.613 Y206.335 I0. J0.6
G1 Y251.012
G3 X326.613 Y256.012 I-5. J0.
G1 X237.259
G3 X232.259 Y251.012 I0. J-5.
G1 Y74.988
G3 X237.259 Y69.988 I5. J0.
G1 X326.613
G3 X331.613 Y74.988 I0. J5.
G1 Y206.335
G3 X331.013 Y206.935 I-0.6 J0.
G1 X330.413
G18 G3 X329.813 Z-7.4 I0. K0.6
G0 Z5.
Y205.735
G1 Z-7. F800.
Z-9.4
G2 X330.413 Z-10. I0.6 K0. F3698.
G1 X331.013
G17 G3 X331.613 Y206.335 I0. J0.6
G1 Y251.012
G3 X326.613 Y256.012 I-5. J0.
G1 X237.259
G3 X232.259 Y251.012 I0. J-5.
G1 Y74.988
G3 X237.259 Y69.988 I5. J0.
G1 X326.613
G3 X331.613 Y74.988 I0. J5.
G1 Y206.335
G3 X331.013 Y206.935 I-0.6 J0.
G1 X330.413
G18 G3 X329.813 Z-9.4 I0. K0.6
G0 Z5.
Y205.735
G1 Z-9. F800.
Z-11.4
G2 X330.413 Z-12. I0.6 K0. F3698.
G1 X331.013
G17 G3 X331.613 Y206.335 I0. J0.6
G1 Y251.012
G3 X326.613 Y256.012 I-5. J0.
G1 X237.259
G3 X232.259 Y251.012 I0. J-5.
G1 Y74.988
G3 X237.259 Y69.988 I5. J0.
G1 X326.613
G3 X331.613 Y74.988 I0. J5.
G1 Y206.335
G3 X331.013 Y206.935 I-0.6 J0.
G1 X330.413
G18 G3 X329.813 Z-11.4 I0. K0.6
G0 Z5.
Y205.735
G1 Z-11. F800.
Z-13.4
G2 X330.413 Z-14. I0.6 K0. F3698.
G1 X331.013
G17 G3 X331.613 Y206.335 I0. J0.6
G1 Y251.012
G3 X326.613 Y256.012 I-5. J0.
G1 X237.259
G3 X232.259 Y251.012 I0. J-5.
G1 Y74.988
G3 X237.259 Y69.988 I5. J0.
G1 X326.613
G3 X331.613 Y74.988 I0. J5.
G1 Y206.335
G3 X331.013 Y206.935 I-0.6 J0.
G1 X330.413
G18 G3 X329.813 Z-13.4 I0. K0.6
G0 Z5.
Y205.735
G1 Z-13. F800.
Z-15.4
G2 X330.413 Z-16. I0.6 K0. F3698.
G1 X331.013
G17 G3 X331.613 Y206.335 I0. J0.6
G1 Y251.012
G3 X326.613 Y256.012 I-5. J0.
G1 X237.259
G3 X232.259 Y251.012 I0. J-5.
G1 Y74.988
G3 X237.259 Y69.988 I5. J0.
G1 X326.613
G3 X331.613 Y74.988 I0. J5.
G1 Y206.335
G3 X331.013 Y206.935 I-0.6 J0.
G1 X330.413
G18 G3 X329.813 Z-15.4 I0. K0.6
G0 Z5.
Y205.735
G1 Z-15. F800.
Z-17.4
G2 X330.413 Z-18. I0.6 K0. F3698.
G1 X331.013
G17 G3 X331.613 Y206.335 I0. J0.6
G1 Y251.012
G3 X326.613 Y256.012 I-5. J0.
G1 X237.259
G3 X232.259 Y251.012 I0. J-5.
G1 Y74.988
G3 X237.259 Y69.988 I5. J0.
G1 X326.613
G3 X331.613 Y74.988 I0. J5.
G1 Y206.335
G3 X331.013 Y206.935 I-0.6 J0.
G1 X330.413
G18 G3 X329.813 Z-17.4 I0. K0.6
G0 Z5.
Y205.735
G1 Z-17. F800.
Z-19.4
G2 X330.413 Z-20. I0.6 K0. F3698.
G1 X331.013
G17 G3 X331.613 Y206.335 I0. J0.6
G1 Y251.012
G3 X326.613 Y256.012 I-5. J0.
G1 X237.259
G3 X232.259 Y251.012 I0. J-5.
G1 Y74.988
G3 X237.259 Y69.988 I5. J0.
G1 X326.613
G3 X331.613 Y74.988 I0. J5.
G1 Y206.335
G3 X331.013 Y206.935 I-0.6 J0.
G1 X330.413
G18 G3 X329.813 Z-19.4 I0. K0.6
G0 Z5.
Y205.735
G1 Z-19. F800.
Z-20.9
G2 X330.413 Z-21.5 I0.6 K0. F3698.
G1 X331.013
G17 G3 X331.613 Y206.335 I0. J0.6
G1 Y251.012
G3 X326.613 Y256.012 I-5. J0.
G1 X237.259
G3 X232.259 Y251.012 I0. J-5.
G1 Y74.988
G3 X237.259 Y69.988 I5. J0.
G1 X326.613
G3 X331.613 Y74.988 I0. J5.
G1 Y206.335
G3 X331.013 Y206.935 I-0.6 J0.
G1 X330.413
G18 G3 X329.813 Z-20.9 I0. K0.6
G0 Z5.
X372.179 Y187.844
G1 Z1. F800.
Z-1.4
G2 X372.779 Z-2. I0.6 K0. F3698.
G1 X373.379
G17 G3 X373.979 Y188.444 I0. J0.6
X349.979 I-12. J0.
G1 Y137.556
G3 X373.979 I12. J0.
G1 Y188.444
G3 X373.379 Y189.044 I-0.6 J0.
G1 X372.779
G18 G3 X372.179 Z-1.4 I0. K0.6
G0 Z5.
Y187.844
G1 Z-1. F800.
Z-3.4
G2 X372.779 Z-4. I0.6 K0. F3698.
G1 X373.379
G17 G3 X373.979 Y188.444 I0. J0.6
X349.979 I-12. J0.
G1 Y137.556
G3 X373.979 I12. J0.
G1 Y188.444
G3 X373.379 Y189.044 I-0.6 J0.
G1 X372.779
G18 G3 X372.179 Z-3.4 I0. K0.6
G0 Z5.
Y187.844
G1 Z-3. F800.
Z-5.4
G2 X372.779 Z-6. I0.6 K0. F3698.
G1 X373.379
G17 G3 X373.979 Y188.444 I0. J0.6
X349.979 I-12. J0.
G1 Y137.556
G3 X373.979 I12. J0.
G1 Y188.444
G3 X373.379 Y189.044 I-0.6 J0.
G1 X372.779
G18 G3 X372.179 Z-5.4 I0. K0.6
G0 Z5.
Y187.844
G1 Z-5. F800.
Z-7.4
G2 X372.779 Z-8. I0.6 K0. F3698.
G1 X373.379
G17 G3 X373.979 Y188.444 I0. J0.6
X349.979 I-12. J0.
G1 Y137.556
G3 X373.979 I12. J0.
G1 Y188.444
G3 X373.379 Y189.044 I-0.6 J0.
G1 X372.779
G18 G3 X372.179 Z-7.4 I0. K0.6
G0 Z5.
Y187.844
G1 Z-7. F800.
Z-9.4
G2 X372.779 Z-10. I0.6 K0. F3698.
G1 X373.379
G17 G3 X373.979 Y188.444 I0. J0.6
X349.979 I-12. J0.
G1 Y137.556
G3 X373.979 I12. J0.
G1 Y188.444
G3 X373.379 Y189.044 I-0.6 J0.
G1 X372.779
G18 G3 X372.179 Z-9.4 I0. K0.6
G0 Z5.
Y187.844
G1 Z-9. F800.
Z-11.4
G2 X372.779 Z-12. I0.6 K0. F3698.
G1 X373.379
G17 G3 X373.979 Y188.444 I0. J0.6
X349.979 I-12. J0.
G1 Y137.556
G3 X373.979 I12. J0.
G1 Y188.444
G3 X373.379 Y189.044 I-0.6 J0.
G1 X372.779
G18 G3 X372.179 Z-11.4 I0. K0.6
G0 Z5.
Y187.844
G1 Z-11. F800.
Z-13.4
G2 X372.779 Z-14. I0.6 K0. F3698.
G1 X373.379
G17 G3 X373.979 Y188.444 I0. J0.6
X349.979 I-12. J0.
G1 Y137.556
G3 X373.979 I12. J0.
G1 Y188.444
G3 X373.379 Y189.044 I-0.6 J0.
G1 X372.779
G18 G3 X372.179 Z-13.4 I0. K0.6
G0 Z5.
Y187.844
G1 Z-13. F800.
Z-15.4
G2 X372.779 Z-16. I0.6 K0. F3698.
G1 X373.379
G17 G3 X373.979 Y188.444 I0. J0.6
X349.979 I-12. J0.
G1 Y137.556
G3 X373.979 I12. J0.
G1 Y188.444
G3 X373.379 Y189.044 I-0.6 J0.
G1 X372.779
G18 G3 X372.179 Z-15.4 I0. K0.6
G0 Z5.
Y187.844
G1 Z-15. F800.
Z-17.4
G2 X372.779 Z-18. I0.6 K0. F3698.
G1 X373.379
G17 G3 X373.979 Y188.444 I0. J0.6
X349.979 I-12. J0.
G1 Y137.556
G3 X373.979 I12. J0.
G1 Y188.444
G3 X373.379 Y189.044 I-0.6 J0.
G1 X372.779
G18 G3 X372.179 Z-17.4 I0. K0.6
G0 Z5.
Y187.844
G1 Z-17. F800.
Z-19.4
G2 X372.779 Z-20. I0.6 K0. F3698.
G1 X373.379
G17 G3 X373.979 Y188.444 I0. J0.6
X349.979 I-12. J0.
G1 Y137.556
G3 X373.979 I12. J0.
G1 Y188.444
G3 X373.379 Y189.044 I-0.6 J0.
G1 X372.779
G18 G3 X372.179 Z-19.4 I0. K0.6
G0 Z5.
Y187.844
G1 Z-19. F800.
Z-20.9
G2 X372.779 Z-21.5 I0.6 K0. F3698.
G1 X373.379
G17 G3 X373.979 Y188.444 I0. J0.6
X349.979 I-12. J0.
G1 Y137.556
G3 X373.979 I12. J0.
G1 Y188.444
G3 X373.379 Y189.044 I-0.6 J0.
G1 X372.779
G18 G3 X372.179 Z-20.9 I0. K0.6
G0 Z15.
G17

(2D CONTOUR2 2)
G0 X423.6 Y-1.8
Z15.
Z5.
G1 Z1. F800.
Z-1.4
G19 G3 Y-1.2 Z-2. J0.6 K0. F3698.
G1 Y-0.6
G17 G3 X423. Y0. I-0.6 J0.
G1 X10.
G2 X0. Y10. I0. J10.
G1 Y149.5
G2 X5.5 Y155. I5.5 J0.
G1 X8.5
G3 X11. Y157.5 I0. J2.5
G1 Y168.5
G3 X8.5 Y171. I-2.5 J0.
G1 X5.5
G2 X0. Y176.5 I0. J5.5
G1 Y316.
G2 X10. Y326. I10. J0.
G1 X121.506
G2 X126.006 Y321.518 I0. J-4.5
G1 X126.015 Y319.088
G3 X126.164 Y318.419 I1.6 J0.005
X130.154 Y316. I3.99 J2.081
G1 X142.865
G3 X146.786 Y318.293 I0. J4.5
X147. Y319.346 I-2.487 J1.053
G1 Y321.5
G2 X151.5 Y326. I4.5 J0.
G1 X273.
G2 X276. Y323. I0. J-3.
G1 Y320.
X337.546
Y323.
G2 X340.546 Y326. I3. J0.
G1 X355.454
G2 X358.454 Y323. I0. J-3.
G1 Y320.
X423.
G2 X426. Y317. I0. J-3.
G1 Y219.333
X443.
G2 X446. Y216.333 I0. J-3.
G1 Y109.667
G2 X443. Y106.667 I-3. J0.
G1 X426.
Y3.
G2 X423. Y0. I-3. J0.
G3 X422.4 Y-0.6 I0. J-0.6
G1 Y-1.2
G19 G2 Y-1.8 Z-1.4 J0. K0.6
G0 Z5.
X423.6
G1 Z-1. F800.
Z-3.4
G3 Y-1.2 Z-4. J0.6 K0. F3698.
G1 Y-0.6
G17 G3 X423. Y0. I-0.6 J0.
G1 X10.
G2 X0. Y10. I0. J10.
G1 Y149.5
G2 X5.5 Y155. I5.5 J0.
G1 X8.5
G3 X11. Y157.5 I0. J2.5
G1 Y168.5
G3 X8.5 Y171. I-2.5 J0.
G1 X5.5
G2 X0. Y176.5 I0. J5.5
G1 Y316.
G2 X10. Y326. I10. J0.
G1 X121.506
G2 X126.006 Y321.518 I0. J-4.5
G1 X126.015 Y319.088
G3 X126.164 Y318.419 I1.6 J0.005
X130.154 Y316. I3.99 J2.081
G1 X142.865
G3 X146.786 Y318.293 I0. J4.5
X147. Y319.346 I-2.487 J1.053
G1 Y321.5
G2 X151.5 Y326. I4.5 J0.
G1 X273.
G2 X276. Y323. I0. J-3.
G1 Y320.
X337.546
Y323.
G2 X340.546 Y326. I3. J0.
G1 X355.454
G2 X358.454 Y323. I0. J-3.
G1 Y320.
X423.
G2 X426. Y317. I0. J-3.
G1 Y219.333
X443.
G2 X446. Y216.333 I0. J-3.
G1 Y109.667
G2 X443. Y106.667 I-3. J0.
G1 X426.
Y3.
G2 X423. Y0. I-3. J0.
G3 X422.4 Y-0.6 I0. J-0.6
G1 Y-1.2
G19 G2 Y-1.8 Z-3.4 J0. K0.6
G0 Z5.
X423.6
G1 Z-3. F800.
Z-5.4
G3 Y-1.2 Z-6. J0.6 K0. F3698.
G1 Y-0.6
G17 G3 X423. Y0. I-0.6 J0.
G1 X10.
G2 X0. Y10. I0. J10.
G1 Y149.5
G2 X5.5 Y155. I5.5 J0.
G1 X8.5
G3 X11. Y157.5 I0. J2.5
G1 Y168.5
G3 X8.5 Y171. I-2.5 J0.
G1 X5.5
G2 X0. Y176.5 I0. J5.5
G1 Y316.
G2 X10. Y326. I10. J0.
G1 X121.506
G2 X126.006 Y321.518 I0. J-4.5
G1 X126.015 Y319.088
G3 X126.164 Y318.419 I1.6 J0.005
X130.154 Y316. I3.99 J2.081
G1 X142.865
G3 X146.786 Y318.293 I0. J4.5
X147. Y319.346 I-2.487 J1.053
G1 Y321.5
G2 X151.5 Y326. I4.5 J0.
G1 X273.
G2 X276. Y323. I0. J-3.
G1 Y320.
X337.546
Y323.
G2 X340.546 Y326. I3. J0.
G1 X355.454
G2 X358.454 Y323. I0. J-3.
G1 Y320.
X423.
G2 X426. Y317. I0. J-3.
G1 Y219.333
X443.
G2 X446. Y216.333 I0. J-3.
G1 Y109.667
G2 X443. Y106.667 I-3. J0.
G1 X426.
Y3.
G2 X423. Y0. I-3. J0.
G3 X422.4 Y-0.6 I0. J-0.6
G1 Y-1.2
G19 G2 Y-1.8 Z-5.4 J0. K0.6
G0 Z5.
X423.6
G1 Z-5. F800.
Z-7.4
G3 Y-1.2 Z-8. J0.6 K0. F3698.
G1 Y-0.6
G17 G3 X423. Y0. I-0.6 J0.
G1 X10.
G2 X0. Y10. I0. J10.
G1 Y149.5
G2 X5.5 Y155. I5.5 J0.
G1 X8.5
G3 X11. Y157.5 I0. J2.5
G1 Y168.5
G3 X8.5 Y171. I-2.5 J0.
G1 X5.5
G2 X0. Y176.5 I0. J5.5
G1 Y316.
G2 X10. Y326. I10. J0.
G1 X121.506
G2 X126.006 Y321.518 I0. J-4.5
G1 X126.015 Y319.088
G3 X126.164 Y318.419 I1.6 J0.005
X130.154 Y316. I3.99 J2.081
G1 X142.865
G3 X146.786 Y318.293 I0. J4.5
X147. Y319.346 I-2.487 J1.053
G1 Y321.5
G2 X151.5 Y326. I4.5 J0.
G1 X273.
G2 X276. Y323. I0. J-3.
G1 Y320.
X337.546
Y323.
G2 X340.546 Y326. I3. J0.
G1 X355.454
G2 X358.454 Y323. I0. J-3.
G1 Y320.
X423.
G2 X426. Y317. I0. J-3.
G1 Y219.333
X443.
G2 X446. Y216.333 I0. J-3.
G1 Y109.667
G2 X443. Y106.667 I-3. J0.
G1 X426.
Y3.
G2 X423. Y0. I-3. J0.
G3 X422.4 Y-0.6 I0. J-0.6
G1 Y-1.2
G19 G2 Y-1.8 Z-7.4 J0. K0.6
G0 Z5.
X423.6
G1 Z-7. F800.
Z-9.4
G3 Y-1.2 Z-10. J0.6 K0. F3698.
G1 Y-0.6
G17 G3 X423. Y0. I-0.6 J0.
G1 X10.
G2 X0. Y10. I0. J10.
G1 Y149.5
G2 X5.5 Y155. I5.5 J0.
G1 X8.5
G3 X11. Y157.5 I0. J2.5
G1 Y168.5
G3 X8.5 Y171. I-2.5 J0.
G1 X5.5
G2 X0. Y176.5 I0. J5.5
G1 Y316.
G2 X10. Y326. I10. J0.
G1 X121.506
G2 X126.006 Y321.518 I0. J-4.5
G1 X126.015 Y319.088
G3 X126.164 Y318.419 I1.6 J0.005
X130.154 Y316. I3.99 J2.081
G1 X142.865
G3 X146.786 Y318.293 I0. J4.5
X147. Y319.346 I-2.487 J1.053
G1 Y321.5
G2 X151.5 Y326. I4.5 J0.
G1 X273.
G2 X276. Y323. I0. J-3.
G1 Y320.
X337.546
Y323.
G2 X340.546 Y326. I3. J0.
G1 X355.454
G2 X358.454 Y323. I0. J-3.
G1 Y320.
X423.
G2 X426. Y317. I0. J-3.
G1 Y219.333
X443.
G2 X446. Y216.333 I0. J-3.
G1 Y109.667
G2 X443. Y106.667 I-3. J0.
G1 X426.
Y3.
G2 X423. Y0. I-3. J0.
G3 X422.4 Y-0.6 I0. J-0.6
G1 Y-1.2
G19 G2 Y-1.8 Z-9.4 J0. K0.6
G0 Z5.
X423.6
G1 Z-9. F800.
Z-11.4
G3 Y-1.2 Z-12. J0.6 K0. F3698.
G1 Y-0.6
G17 G3 X423. Y0. I-0.6 J0.
G1 X10.
G2 X0. Y10. I0. J10.
G1 Y149.5
G2 X5.5 Y155. I5.5 J0.
G1 X8.5
G3 X11. Y157.5 I0. J2.5
G1 Y168.5
G3 X8.5 Y171. I-2.5 J0.
G1 X5.5
G2 X0. Y176.5 I0. J5.5
G1 Y316.
G2 X10. Y326. I10. J0.
G1 X121.506
G2 X126.006 Y321.518 I0. J-4.5
G1 X126.015 Y319.088
G3 X126.164 Y318.419 I1.6 J0.005
X130.154 Y316. I3.99 J2.081
G1 X142.865
G3 X146.786 Y318.293 I0. J4.5
X147. Y319.346 I-2.487 J1.053
G1 Y321.5
G2 X151.5 Y326. I4.5 J0.
G1 X273.
G2 X276. Y323. I0. J-3.
G1 Y320.
X337.546
Y323.
G2 X340.546 Y326. I3. J0.
G1 X355.454
G2 X358.454 Y323. I0. J-3.
G1 Y320.
X423.
G2 X426. Y317. I0. J-3.
G1 Y219.333
X443.
G2 X446. Y216.333 I0. J-3.
G1 Y109.667
G2 X443. Y106.667 I-3. J0.
G1 X426.
Y3.
G2 X423. Y0. I-3. J0.
G3 X422.4 Y-0.6 I0. J-0.6
G1 Y-1.2
G19 G2 Y-1.8 Z-11.4 J0. K0.6
G0 Z5.
X423.6
G1 Z-11. F800.
Z-13.4
G3 Y-1.2 Z-14. J0.6 K0. F3698.
G1 Y-0.6
G17 G3 X423. Y0. I-0.6 J0.
G1 X10.
G2 X0. Y10. I0. J10.
G1 Y149.5
G2 X5.5 Y155. I5.5 J0.
G1 X8.5
G3 X11. Y157.5 I0. J2.5
G1 Y168.5
G3 X8.5 Y171. I-2.5 J0.
G1 X5.5
G2 X0. Y176.5 I0. J5.5
G1 Y316.
G2 X10. Y326. I10. J0.
G1 X121.506
G2 X126.006 Y321.518 I0. J-4.5
G1 X126.015 Y319.088
G3 X126.164 Y318.419 I1.6 J0.005
X130.154 Y316. I3.99 J2.081
G1 X142.865
G3 X146.786 Y318.293 I0. J4.5
X147. Y319.346 I-2.487 J1.053
G1 Y321.5
G2 X151.5 Y326. I4.5 J0.
G1 X273.
G2 X276. Y323. I0. J-3.
G1 Y320.
X337.546
Y323.
G2 X340.546 Y326. I3. J0.
G1 X355.454
G2 X358.454 Y323. I0. J-3.
G1 Y320.
X423.
G2 X426. Y317. I0. J-3.
G1 Y219.333
X443.
G2 X446. Y216.333 I0. J-3.
G1 Y109.667
G2 X443. Y106.667 I-3. J0.
G1 X426.
Y3.
G2 X423. Y0. I-3. J0.
G3 X422.4 Y-0.6 I0. J-0.6
G1 Y-1.2
G19 G2 Y-1.8 Z-13.4 J0. K0.6
G0 Z5.
X423.6
G1 Z-13. F800.
Z-15.4
G3 Y-1.2 Z-16. J0.6 K0. F3698.
G1 Y-0.6
G17 G3 X423. Y0. I-0.6 J0.
G1 X10.
G2 X0. Y10. I0. J10.
G1 Y149.5
G2 X5.5 Y155. I5.5 J0.
G1 X8.5
G3 X11. Y157.5 I0. J2.5
G1 Y168.5
G3 X8.5 Y171. I-2.5 J0.
G1 X5.5
G2 X0. Y176.5 I0. J5.5
G1 Y316.
G2 X10. Y326. I10. J0.
G1 X121.506
G2 X126.006 Y321.518 I0. J-4.5
G1 X126.015 Y319.088
G3 X126.164 Y318.419 I1.6 J0.005
X130.154 Y316. I3.99 J2.081
G1 X142.865
G3 X146.786 Y318.293 I0. J4.5
X147. Y319.346 I-2.487 J1.053
G1 Y321.5
G2 X151.5 Y326. I4.5 J0.
G1 X273.
G2 X276. Y323. I0. J-3.
G1 Y320.
X337.546
Y323.
G2 X340.546 Y326. I3. J0.
G1 X355.454
G2 X358.454 Y323. I0. J-3.
G1 Y320.
X423.
G2 X426. Y317. I0. J-3.
G1 Y219.333
X443.
G2 X446. Y216.333 I0. J-3.
G1 Y109.667
G2 X443. Y106.667 I-3. J0.
G1 X426.
Y3.
G2 X423. Y0. I-3. J0.
G3 X422.4 Y-0.6 I0. J-0.6
G1 Y-1.2
G19 G2 Y-1.8 Z-15.4 J0. K0.6
G0 Z5.
X423.6
G1 Z-15. F800.
Z-17.4
G3 Y-1.2 Z-18. J0.6 K0. F3698.
G1 Y-0.6
G17 G3 X423. Y0. I-0.6 J0.
G1 X10.
G2 X0. Y10. I0. J10.
G1 Y149.5
G2 X5.5 Y155. I5.5 J0.
G1 X8.5
G3 X11. Y157.5 I0. J2.5
G1 Y168.5
G3 X8.5 Y171. I-2.5 J0.
G1 X5.5
G2 X0. Y176.5 I0. J5.5
G1 Y316.
G2 X10. Y326. I10. J0.
G1 X121.506
G2 X126.006 Y321.518 I0. J-4.5
G1 X126.015 Y319.088
G3 X126.164 Y318.419 I1.6 J0.005
X130.154 Y316. I3.99 J2.081
G1 X142.865
G3 X146.786 Y318.293 I0. J4.5
X147. Y319.346 I-2.487 J1.053
G1 Y321.5
G2 X151.5 Y326. I4.5 J0.
G1 X273.
G2 X276. Y323. I0. J-3.
G1 Y320.
X337.546
Y323.
G2 X340.546 Y326. I3. J0.
G1 X355.454
G2 X358.454 Y323. I0. J-3.
G1 Y320.
X423.
G2 X426. Y317. I0. J-3.
G1 Y219.333
X443.
G2 X446. Y216.333 I0. J-3.
G1 Y109.667
G2 X443. Y106.667 I-3. J0.
G1 X426.
Y3.
G2 X423. Y0. I-3. J0.
G3 X422.4 Y-0.6 I0. J-0.6
G1 Y-1.2
G19 G2 Y-1.8 Z-17.4 J0. K0.6
G0 Z5.
X423.6
G1 Z-17. F800.
Z-19.4
G3 Y-1.2 Z-20. J0.6 K0. F3698.
G1 Y-0.6
G17 G3 X423. Y0. I-0.6 J0.
G1 X10.
G2 X0. Y10. I0. J10.
G1 Y149.5
G2 X5.5 Y155. I5.5 J0.
G1 X8.5
G3 X11. Y157.5 I0. J2.5
G1 Y168.5
G3 X8.5 Y171. I-2.5 J0.
G1 X5.5
G2 X0. Y176.5 I0. J5.5
G1 Y316.
G2 X10. Y326. I10. J0.
G1 X121.506
G2 X126.006 Y321.518 I0. J-4.5
G1 X126.015 Y319.088
G3 X126.164 Y318.419 I1.6 J0.005
X130.154 Y316. I3.99 J2.081
G1 X142.865
G3 X146.786 Y318.293 I0. J4.5
X147. Y319.346 I-2.487 J1.053
G1 Y321.5
G2 X151.5 Y326. I4.5 J0.
G1 X273.
G2 X276. Y323. I0. J-3.
G1 Y320.
X337.546
Y323.
G2 X340.546 Y326. I3. J0.
G1 X355.454
G2 X358.454 Y323. I0. J-3.
G1 Y320.
X423.
G2 X426. Y317. I0. J-3.
G1 Y219.333
X443.
G2 X446. Y216.333 I0. J-3.
G1 Y109.667
G2 X443. Y106.667 I-3. J0.
G1 X426.
Y3.
G2 X423. Y0. I-3. J0.
G3 X422.4 Y-0.6 I0. J-0.6
G1 Y-1.2
G19 G2 Y-1.8 Z-19.4 J0. K0.6
G0 Z5.
X423.6
G1 Z-19. F800.
Z-20.9
G3 Y-1.2 Z-21.5 J0.6 K0. F3698.
G1 Y-0.6
G17 G3 X423. Y0. I-0.6 J0.
G1 X405.5
Z-20.
X369.5
Z-21.5 F800.
X294.501 F3698.
Z-20.
X258.501
Z-21.5 F800.
X183.503 F3698.
Z-20.
X147.503
Z-21.5 F800.
X72.504 F3698.
Z-20.
X36.504
Z-21.5 F800.
X10. F3698.
G2 X0. Y10. I0. J10.
G1 Y47.499
Z-20.
Y83.499
Z-21.5 F800.
Y149.5 F3698.
G2 X5.5 Y155. I5.5 J0.
G1 X8.465
Z-20.
X8.5
G3 X11. Y157.5 I0. J2.5
G1 Y168.5
G3 X8.5 Y171. I-2.5 J0.
G1 X7.199
Z-21.5 F800.
X5.5 F3698.
G2 X0. Y176.5 I0. J5.5
G1 Y254.364
Z-20.
Y290.364
Z-21.5 F800.
Y316. F3698.
G2 X10. Y326. I10. J0.
G1 X48.367
Z-20.
X84.367
Z-21.5 F800.
X121.506 F3698.
G2 X126.006 Y321.518 I0. J-4.5
G1 X126.015 Y319.088
G3 X126.164 Y318.419 I1.6 J0.005
X130.154 Y316. I3.99 J2.081
G1 X142.865
G3 X146.786 Y318.293 I0. J4.5
X147. Y319.346 I-2.487 J1.053
G1 Y320.
Z-20.
Y321.5
G2 X151.5 Y326. I4.5 J0.
G1 X182.507
Z-21.5 F800.
X270. F3698.
Z-20.
X273.
G2 X276. Y323. I0. J-3.
G1 Y320.
X279.6
Z-21.5 F800.
X337.546 F3698.
Y323.
G2 X340.546 Y326. I3. J0.
G1 X355.454
G2 X358.393 Y323.6 I0. J-3.
G1 Z-20.
G2 X358.454 Y323. I-2.939 J-0.6
G1 Y320.
X386.505
Z-21.5 F800.
X423. F3698.
G2 X426. Y317. I0. J-3.
G1 Y278.496
Z-20.
Y242.496
Z-21.5 F800.
Y219.333 F3698.
X443.
G2 X446. Y216.333 I0. J-3.
G1 Y187.498
Z-20.
Y151.498
Z-21.5 F800.
Y109.667 F3698.
G2 X443. Y106.667 I-3. J0.
G1 X426.
Y96.499
Z-20.
Y60.499
Z-21.5 F800.
Y3. F3698.
G2 X423. Y0. I-3. J0.
G3 X422.4 Y-0.6 I0. J-0.6
G1 Y-1.2
G19 G2 Y-1.8 Z-20.9 J0. K0.6
G0 Z15.
G17

(DRILL1 2)
G0 X273. Y317.
Z15.
Z5.
G98 G83 X273. Y317. Z-21.5 R5. Q1.5 F800.
X340.546
X355.454
X423. Y216.333
Y109.667
G80
Z15.

M9
M5
G28 G91 Z0.
G90
G28 G91 X0. Y0.
G90
M30
