(L-PERNA-FURAO)
(T2 D=3.175 CR=0. - ZMIN=-21.5 - FLAT END MILL)
G90 G94 G91.1 G40 G49 G17
G21
G28 G91 Z0.
G90

(2D POCKET2 2)
T2 M6
S10000 M3
G17 G90 G94
G54
M8
G0 X185.455 Y301.473
G43 Z15. H2
G0 Z5.
G1 Z-0.027 F534.
X185.448 Y301.474 Z-0.09 F1068.
X185.427 Y301.477 Z-0.151
X185.393 Y301.482 Z-0.205
X185.348 Y301.489 Z-0.25
X185.295 Y301.498 Z-0.284
X185.235 Y301.507 Z-0.305
X185.172 Y301.517 Z-0.313
X184.281 Y301.659
X184.231 Y301.663
X160.387
G3 Y301.337 I0. J-0.163
G1 X184.232
X160.387 Z-0.467
G2 Y301.663 Z-0.47 I0. J0.163
G1 X184.231 Z-0.625
X160.387
G3 Y301.337 I0. J-0.163
G1 X184.232
X160.387 Z-0.78
G2 Y301.663 Z-0.783 I0. J0.163
G1 X184.231 Z-0.938
X160.387
G3 Y301.337 I0. J-0.163
G1 X184.232
X160.387 Z-1.092
G2 Y301.663 Z-1.095 I0. J0.163
G1 X184.231 Z-1.25
X160.387
G3 Y301.337 I0. J-0.163
G1 X184.232
X160.387 Z-1.405
G2 Y301.663 Z-1.408 I0. J0.163
G1 X184.231 Z-1.563
X160.387
G3 Y301.337 I0. J-0.163
G1 X184.232
X160.387 Z-1.717
G2 Y301.663 Z-1.72 I0. J0.163
G1 X184.231 Z-1.875
X160.387
G3 Y301.337 I0. J-0.163
G1 X184.232
X160.387 Z-2.03
G2 Y301.663 Z-2.033 I0. J0.163
G1 X184.231 Z-2.188
X160.387
G3 Y301.337 I0. J-0.163
G1 X184.232
X160.387 Z-2.342
G2 Y301.663 Z-2.345 I0. J0.163
G1 X184.231 Z-2.5
X160.387
G3 Y301.337 I0. J-0.163
G1 X184.232
X160.387 Z-2.655
G2 Y301.663 Z-2.658 I0. J0.163
G1 X184.231 Z-2.813
X160.387
G3 Y301.337 I0. J-0.163
G1 X184.232
X160.387 Z-2.967
G2 Y301.663 Z-2.97 I0. J0.163
G1 X184.231 Z-3.125
X160.387
G3 Y301.337 I0. J-0.163
G1 X184.232
X160.387 Z-3.28
G2 Y301.663 Z-3.283 I0. J0.163
G1 X184.231 Z-3.438
X160.387
G3 Y301.337 I0. J-0.163
G1 X184.232
X160.387 Z-3.592
G2 Y301.663 Z-3.595 I0. J0.163
G1 X184.231 Z-3.75
X160.387
G3 Y301.337 I0. J-0.163
G1 X184.232
X160.387 Z-3.905
G2 Y301.663 Z-3.908 I0. J0.163
G1 X184.231 Z-4.063
X160.387
G3 Y301.337 I0. J-0.163
G1 X184.232
X160.387 Z-4.217
G2 Y301.663 Z-4.22 I0. J0.163
G1 X184.231 Z-4.375
X160.387
G3 Y301.337 I0. J-0.163
G1 X184.232
X160.387 Z-4.53
G2 Y301.663 Z-4.533 I0. J0.163
G1 X184.231 Z-4.688
X160.387
G3 Y301.337 I0. J-0.163
G1 X184.232
X160.387 Z-4.842
G2 Y301.663 Z-4.845 I0. J0.163
G1 X184.231 Z-5.
X160.387
G3 Y301.337 I0. J-0.163
G1 X184.232
X160.387 Z-5.155
G2 Y301.663 Z-5.158 I0. J0.163
G1 X184.231 Z-5.313
X160.387
G3 Y301.337 I0. J-0.163
G1 X184.232
X160.387 Z-5.467
G2 Y301.663 Z-5.47 I0. J0.163
G1 X184.231 Z-5.625
X160.387
G3 Y301.337 I0. J-0.163
G1 X184.232
X160.387 Z-5.78
G2 Y301.663 Z-5.783 I0. J0.163
G1 X184.231 Z-5.938
X160.387
G3 Y301.337 I0. J-0.163
G1 X184.232
X160.387 Z-6.092
G2 Y301.663 Z-6.095 I0. J0.163
G1 X184.231 Z-6.25
X160.387
G3 Y301.337 I0. J-0.163
G1 X184.232
X160.387 Z-6.405
G2 Y301.663 Z-6.408 I0. J0.163
G1 X184.231 Z-6.563
X160.387
G3 Y301.337 I0. J-0.163
G1 X184.232
X160.387 Z-6.717
G2 Y301.663 Z-6.72 I0. J0.163
G1 X184.231 Z-6.875
X160.387
G3 Y301.337 I0. J-0.163
G1 X184.232
X160.387 Z-7.03
G2 Y301.663 Z-7.033 I0. J0.163
G1 X184.231 Z-7.188
X160.387
G3 Y301.337 I0. J-0.163
G1 X184.232
X160.387 Z-7.342
G2 Y301.663 Z-7.345 I0. J0.163
G1 X184.231 Z-7.5
X160.387
G3 Y301.337 I0. J-0.163
G1 X184.232
X160.387 Z-7.655
G2 Y301.663 Z-7.658 I0. J0.163
G1 X184.231 Z-7.813
X160.387
G3 Y301.337 I0. J-0.163
G1 X184.232
X160.387 Z-7.967
G2 Y301.663 Z-7.97 I0. J0.163
G1 X184.231 Z-8.125
X160.387
G3 Y301.337 I0. J-0.163
G1 X184.232
X160.387 Z-8.28
G2 Y301.663 Z-8.283 I0. J0.163
G1 X184.231 Z-8.438
X160.387
G3 Y301.337 I0. J-0.163
G1 X184.232
X160.387 Z-8.592
G2 Y301.663 Z-8.595 I0. J0.163
G1 X184.231 Z-8.75
X160.387
G3 Y301.337 I0. J-0.163
G1 X184.232
X160.387 Z-8.905
G2 Y301.663 Z-8.908 I0. J0.163
G1 X184.231 Z-9.063
X160.387
G3 Y301.337 I0. J-0.163
G1 X184.232
X160.387 Z-9.217
G2 Y301.663 Z-9.22 I0. J0.163
G1 X184.231 Z-9.375
X160.387
G3 Y301.337 I0. J-0.163
G1 X184.232
X160.387 Z-9.53
G2 Y301.663 Z-9.533 I0. J0.163
G1 X184.231 Z-9.688
X160.387
G3 Y301.337 I0. J-0.163
G1 X184.232
X160.387 Z-9.842
G2 Y301.663 Z-9.845 I0. J0.163
G1 X184.231 Z-10.
X160.387
G3 Y301.337 I0. J-0.163
G1 X184.232
X160.387 Z-10.155
G2 Y301.663 Z-10.158 I0. J0.163
G1 X184.231 Z-10.313
X160.387
G3 Y301.337 I0. J-0.163
G1 X184.232
X160.387 Z-10.467
G2 Y301.663 Z-10.47 I0. J0.163
G1 X184.231 Z-10.625
X160.387
G3 Y301.337 I0. J-0.163
G1 X184.232
X160.387 Z-10.78
G2 Y301.663 Z-10.783 I0. J0.163
G1 X184.231 Z-10.938
X160.387
G3 Y301.337 I0. J-0.163
G1 X184.232
X160.387 Z-11.092
G2 Y301.663 Z-11.095 I0. J0.163
G1 X184.231 Z-11.25
X160.387
G3 Y301.337 I0. J-0.163
G1 X184.232
X160.387 Z-11.405
G2 Y301.663 Z-11.408 I0. J0.163
G1 X184.231 Z-11.563
X160.387
G3 Y301.337 I0. J-0.163
G1 X184.232
X160.387 Z-11.717
G2 Y301.663 Z-11.72 I0. J0.163
G1 X184.231 Z-11.875
X160.387
G3 Y301.337 I0. J-0.163
G1 X184.232
X160.387 Z-12.03
G2 Y301.663 Z-12.033 I0. J0.163
G1 X184.231 Z-12.188
X160.387
G3 Y301.337 I0. J-0.163
G1 X184.232
X160.387 Z-12.342
G2 Y301.663 Z-12.345 I0. J0.163
G1 X184.231 Z-12.5
X160.387
G3 Y301.337 I0. J-0.163
G1 X184.232
X160.387 Z-12.655
G2 Y301.663 Z-12.658 I0. J0.163
G1 X184.231 Z-12.813
X160.387
G3 Y301.337 I0. J-0.163
G1 X184.232
X160.387 Z-12.967
G2 Y301.663 Z-12.97 I0. J0.163
G1 X184.231 Z-13.125
X160.387
G3 Y301.337 I0. J-0.163
G1 X184.232
X160.387 Z-13.28
G2 Y301.663 Z-13.283 I0. J0.163
G1 X184.231 Z-13.438
X160.387
G3 Y301.337 I0. J-0.163
G1 X184.232
X160.387 Z-13.592
G2 Y301.663 Z-13.595 I0. J0.163
G1 X184.231 Z-13.75
X160.387
G3 Y301.337 I0. J-0.163
G1 X184.232
X160.387 Z-13.905
G2 Y301.663 Z-13.908 I0. J0.163
G1 X184.231 Z-14.063
X160.387
G3 Y301.337 I0. J-0.163
G1 X184.232
X160.387 Z-14.217
G2 Y301.663 Z-14.22 I0. J0.163
G1 X184.231 Z-14.375
X160.387
G3 Y301.337 I0. J-0.163
G1 X184.232
X160.387 Z-14.53
G2 Y301.663 Z-14.533 I0. J0.163
G1 X184.231 Z-14.688
X160.387
G3 Y301.337 I0. J-0.163
G1 X184.232
X160.387 Z-14.842
G2 Y301.663 Z-14.845 I0. J0.163
G1 X184.231 Z-15.
X160.387
G3 Y301.337 I0. J-0.163
G1 X184.232
X160.387 Z-15.155
G2 Y301.663 Z-15.158 I0. J0.163
G1 X184.231 Z-15.313
X160.387
G3 Y301.337 I0. J-0.163
G1 X184.232
X160.387 Z-15.467
G2 Y301.663 Z-15.47 I0. J0.163
G1 X184.231 Z-15.625
X160.387
G3 Y301.337 I0. J-0.163
G1 X184.232
X160.387 Z-15.78
G2 Y301.663 Z-15.783 I0. J0.163
G1 X184.231 Z-15.938
X160.387
G3 Y301.337 I0. J-0.163
G1 X184.232
X160.387 Z-16.092
G2 Y301.663 Z-16.095 I0. J0.163
G1 X184.231 Z-16.25
X160.387
G3 Y301.337 I0. J-0.163
G1 X184.232
X160.387 Z-16.405
G2 Y301.663 Z-16.408 I0. J0.163
G1 X184.231 Z-16.563
X160.387
G3 Y301.337 I0. J-0.163
G1 X184.232
X160.387 Z-16.717
G2 Y301.663 Z-16.72 I0. J0.163
G1 X184.231 Z-16.875
X160.387
G3 Y301.337 I0. J-0.163
G1 X184.232
X160.387 Z-17.03
G2 Y301.663 Z-17.033 I0. J0.163
G1 X184.231 Z-17.188
X160.387
G3 Y301.337 I0. J-0.163
G1 X184.232
X160.387 Z-17.342
G2 Y301.663 Z-17.345 I0. J0.163
G1 X184.231 Z-17.5
X160.387
G3 Y301.337 I0. J-0.163
G1 X184.232
X184.281 Y301.341
X184.551 Y301.384
X184.621 Y301.395 Z-17.492
X184.687 Y301.406 Z-17.469
X184.746 Y301.415 Z-17.431
X184.796 Y301.423 Z-17.38
X184.833 Y301.429 Z-17.32
X184.857 Y301.433 Z-17.253
X184.864 Y301.434 Z-17.183
G0 Z15.
X185.455 Y162.973
Z5.
G1 Z-0.027 F534.
X185.448 Y162.974 Z-0.09 F1068.
X185.427 Y162.977 Z-0.151
X185.393 Y162.982 Z-0.205
X185.348 Y162.989 Z-0.25
X185.295 Y162.998 Z-0.284
X185.235 Y163.007 Z-0.305
X185.172 Y163.017 Z-0.313
X184.281 Y163.159
X184.231 Y163.163
X160.387
G3 Y162.837 I0. J-0.163
G1 X184.232
X160.387 Z-0.467
G2 Y163.163 Z-0.47 I0. J0.163
G1 X184.231 Z-0.625
X160.387
G3 Y162.837 I0. J-0.163
G1 X184.232
X160.387 Z-0.78
G2 Y163.163 Z-0.783 I0. J0.163
G1 X184.231 Z-0.938
X160.387
G3 Y162.837 I0. J-0.163
G1 X184.232
X160.387 Z-1.092
G2 Y163.163 Z-1.095 I0. J0.163
G1 X184.231 Z-1.25
X160.387
G3 Y162.837 I0. J-0.163
G1 X184.232
X160.387 Z-1.405
G2 Y163.163 Z-1.408 I0. J0.163
G1 X184.231 Z-1.563
X160.387
G3 Y162.837 I0. J-0.163
G1 X184.232
X160.387 Z-1.717
G2 Y163.163 Z-1.72 I0. J0.163
G1 X184.231 Z-1.875
X160.387
G3 Y162.837 I0. J-0.163
G1 X184.232
X160.387 Z-2.03
G2 Y163.163 Z-2.033 I0. J0.163
G1 X184.231 Z-2.188
X160.387
G3 Y162.837 I0. J-0.163
G1 X184.232
X160.387 Z-2.342
G2 Y163.163 Z-2.345 I0. J0.163
G1 X184.231 Z-2.5
X160.387
G3 Y162.837 I0. J-0.163
G1 X184.232
X160.387 Z-2.655
G2 Y163.163 Z-2.658 I0. J0.163
G1 X184.231 Z-2.813
X160.387
G3 Y162.837 I0. J-0.163
G1 X184.232
X160.387 Z-2.967
G2 Y163.163 Z-2.97 I0. J0.163
G1 X184.231 Z-3.125
X160.387
G3 Y162.837 I0. J-0.163
G1 X184.232
X160.387 Z-3.28
G2 Y163.163 Z-3.283 I0. J0.163
G1 X184.231 Z-3.438
X160.387
G3 Y162.837 I0. J-0.163
G1 X184.232
X160.387 Z-3.592
G2 Y163.163 Z-3.595 I0. J0.163
G1 X184.231 Z-3.75
X160.387
G3 Y162.837 I0. J-0.163
G1 X184.232
X160.387 Z-3.905
G2 Y163.163 Z-3.908 I0. J0.163
G1 X184.231 Z-4.063
X160.387
G3 Y162.837 I0. J-0.163
G1 X184.232
X160.387 Z-4.217
G2 Y163.163 Z-4.22 I0. J0.163
G1 X184.231 Z-4.375
X160.387
G3 Y162.837 I0. J-0.163
G1 X184.232
X160.387 Z-4.53
G2 Y163.163 Z-4.533 I0. J0.163
G1 X184.231 Z-4.688
X160.387
G3 Y162.837 I0. J-0.163
G1 X184.232
X160.387 Z-4.842
G2 Y163.163 Z-4.845 I0. J0.163
G1 X184.231 Z-5.
X160.387
G3 Y162.837 I0. J-0.163
G1 X184.232
X160.387 Z-5.155
G2 Y163.163 Z-5.158 I0. J0.163
G1 X184.231 Z-5.313
X160.387
G3 Y162.837 I0. J-0.163
G1 X184.232
X160.387 Z-5.467
G2 Y163.163 Z-5.47 I0. J0.163
G1 X184.231 Z-5.625
X160.387
G3 Y162.837 I0. J-0.163
G1 X184.232
X160.387 Z-5.78
G2 Y163.163 Z-5.783 I0. J0.163
G1 X184.231 Z-5.938
X160.387
G3 Y162.837 I0. J-0.163
G1 X184.232
X160.387 Z-6.092
G2 Y163.163 Z-6.095 I0. J0.163
G1 X184.231 Z-6.25
X160.387
G3 Y162.837 I0. J-0.163
G1 X184.232
X160.387 Z-6.405
G2 Y163.163 Z-6.408 I0. J0.163
G1 X184.231 Z-6.563
X160.387
G3 Y162.837 I0. J-0.163
G1 X184.232
X160.387 Z-6.717
G2 Y163.163 Z-6.72 I0. J0.163
G1 X184.231 Z-6.875
X160.387
G3 Y162.837 I0. J-0.163
G1 X184.232
X160.387 Z-7.03
G2 Y163.163 Z-7.033 I0. J0.163
G1 X184.231 Z-7.188
X160.387
G3 Y162.837 I0. J-0.163
G1 X184.232
X160.387 Z-7.342
G2 Y163.163 Z-7.345 I0. J0.163
G1 X184.231 Z-7.5
X160.387
G3 Y162.837 I0. J-0.163
G1 X184.232
X160.387 Z-7.655
G2 Y163.163 Z-7.658 I0. J0.163
G1 X184.231 Z-7.813
X160.387
G3 Y162.837 I0. J-0.163
G1 X184.232
X160.387 Z-7.967
G2 Y163.163 Z-7.97 I0. J0.163
G1 X184.231 Z-8.125
X160.387
G3 Y162.837 I0. J-0.163
G1 X184.232
X160.387 Z-8.28
G2 Y163.163 Z-8.283 I0. J0.163
G1 X184.231 Z-8.438
X160.387
G3 Y162.837 I0. J-0.163
G1 X184.232
X160.387 Z-8.592
G2 Y163.163 Z-8.595 I0. J0.163
G1 X184.231 Z-8.75
X160.387
G3 Y162.837 I0. J-0.163
G1 X184.232
X160.387 Z-8.905
G2 Y163.163 Z-8.908 I0. J0.163
G1 X184.231 Z-9.063
X160.387
G3 Y162.837 I0. J-0.163
G1 X184.232
X160.387 Z-9.217
G2 Y163.163 Z-9.22 I0. J0.163
G1 X184.231 Z-9.375
X160.387
G3 Y162.837 I0. J-0.163
G1 X184.232
X160.387 Z-9.53
G2 Y163.163 Z-9.533 I0. J0.163
G1 X184.231 Z-9.688
X160.387
G3 Y162.837 I0. J-0.163
G1 X184.232
X160.387 Z-9.842
G2 Y163.163 Z-9.845 I0. J0.163
G1 X184.231 Z-10.
X160.387
G3 Y162.837 I0. J-0.163
G1 X184.232
X160.387 Z-10.155
G2 Y163.163 Z-10.158 I0. J0.163
G1 X184.231 Z-10.313
X160.387
G3 Y162.837 I0. J-0.163
G1 X184.232
X160.387 Z-10.467
G2 Y163.163 Z-10.47 I0. J0.163
G1 X184.231 Z-10.625
X160.387
G3 Y162.837 I0. J-0.163
G1 X184.232
X160.387 Z-10.78
G2 Y163.163 Z-10.783 I0. J0.163
G1 X184.231 Z-10.938
X160.387
G3 Y162.837 I0. J-0.163
G1 X184.232
X160.387 Z-11.092
G2 Y163.163 Z-11.095 I0. J0.163
G1 X184.231 Z-11.25
X160.387
G3 Y162.837 I0. J-0.163
G1 X184.232
X160.387 Z-11.405
G2 Y163.163 Z-11.408 I0. J0.163
G1 X184.231 Z-11.563
X160.387
G3 Y162.837 I0. J-0.163
G1 X184.232
X160.387 Z-11.717
G2 Y163.163 Z-11.72 I0. J0.163
G1 X184.231 Z-11.875
X160.387
G3 Y162.837 I0. J-0.163
G1 X184.232
X160.387 Z-12.03
G2 Y163.163 Z-12.033 I0. J0.163
G1 X184.231 Z-12.188
X160.387
G3 Y162.837 I0. J-0.163
G1 X184.232
X160.387 Z-12.342
G2 Y163.163 Z-12.345 I0. J0.163
G1 X184.231 Z-12.5
X160.387
G3 Y162.837 I0. J-0.163
G1 X184.232
X160.387 Z-12.655
G2 Y163.163 Z-12.658 I0. J0.163
G1 X184.231 Z-12.813
X160.387
G3 Y162.837 I0. J-0.163
G1 X184.232
X160.387 Z-12.967
G2 Y163.163 Z-12.97 I0. J0.163
G1 X184.231 Z-13.125
X160.387
G3 Y162.837 I0. J-0.163
G1 X184.232
X160.387 Z-13.28
G2 Y163.163 Z-13.283 I0. J0.163
G1 X184.231 Z-13.438
X160.387
G3 Y162.837 I0. J-0.163
G1 X184.232
X160.387 Z-13.592
G2 Y163.163 Z-13.595 I0. J0.163
G1 X184.231 Z-13.75
X160.387
G3 Y162.837 I0. J-0.163
G1 X184.232
X160.387 Z-13.905
G2 Y163.163 Z-13.908 I0. J0.163
G1 X184.231 Z-14.063
X160.387
G3 Y162.837 I0. J-0.163
G1 X184.232
X160.387 Z-14.217
G2 Y163.163 Z-14.22 I0. J0.163
G1 X184.231 Z-14.375
X160.387
G3 Y162.837 I0. J-0.163
G1 X184.232
X160.387 Z-14.53
G2 Y163.163 Z-14.533 I0. J0.163
G1 X184.231 Z-14.688
X160.387
G3 Y162.837 I0. J-0.163
G1 X184.232
X160.387 Z-14.842
G2 Y163.163 Z-14.845 I0. J0.163
G1 X184.231 Z-15.
X160.387
G3 Y162.837 I0. J-0.163
G1 X184.232
X160.387 Z-15.155
G2 Y163.163 Z-15.158 I0. J0.163
G1 X184.231 Z-15.313
X160.387
G3 Y162.837 I0. J-0.163
G1 X184.232
X160.387 Z-15.467
G2 Y163.163 Z-15.47 I0. J0.163
G1 X184.231 Z-15.625
X160.387
G3 Y162.837 I0. J-0.163
G1 X184.232
X160.387 Z-15.78
G2 Y163.163 Z-15.783 I0. J0.163
G1 X184.231 Z-15.938
X160.387
G3 Y162.837 I0. J-0.163
G1 X184.232
X160.387 Z-16.092
G2 Y163.163 Z-16.095 I0. J0.163
G1 X184.231 Z-16.25
X160.387
G3 Y162.837 I0. J-0.163
G1 X184.232
X160.387 Z-16.405
G2 Y163.163 Z-16.408 I0. J0.163
G1 X184.231 Z-16.563
X160.387
G3 Y162.837 I0. J-0.163
G1 X184.232
X160.387 Z-16.717
G2 Y163.163 Z-16.72 I0. J0.163
G1 X184.231 Z-16.875
X160.387
G3 Y162.837 I0. J-0.163
G1 X184.232
X160.387 Z-17.03
G2 Y163.163 Z-17.033 I0. J0.163
G1 X184.231 Z-17.188
X160.387
G3 Y162.837 I0. J-0.163
G1 X184.232
X160.387 Z-17.342
G2 Y163.163 Z-17.345 I0. J0.163
G1 X184.231 Z-17.5
X160.387
G3 Y162.837 I0. J-0.163
G1 X184.232
X184.281 Y162.841
X184.551 Y162.884
X184.621 Y162.895 Z-17.492
X184.687 Y162.906 Z-17.469
X184.746 Y162.915 Z-17.431
X184.796 Y162.923 Z-17.38
X184.833 Y162.929 Z-17.32
X184.857 Y162.933 Z-17.253
X184.864 Y162.934 Z-17.183
G0 Z15.
X185.455 Y24.473
Z5.
G1 Z-0.027 F534.
X185.448 Y24.474 Z-0.09 F1068.
X185.427 Y24.477 Z-0.151
X185.393 Y24.482 Z-0.205
X185.348 Y24.489 Z-0.25
X185.295 Y24.498 Z-0.284
X185.235 Y24.507 Z-0.305
X185.172 Y24.517 Z-0.313
X184.281 Y24.659
X184.231 Y24.663
X160.387
G3 Y24.337 I0. J-0.163
G1 X184.232
X160.387 Z-0.467
G2 Y24.663 Z-0.47 I0. J0.163
G1 X184.231 Z-0.625
X160.387
G3 Y24.337 I0. J-0.163
G1 X184.232
X160.387 Z-0.78
G2 Y24.663 Z-0.783 I0. J0.163
G1 X184.231 Z-0.938
X160.387
G3 Y24.337 I0. J-0.163
G1 X184.232
X160.387 Z-1.092
G2 Y24.663 Z-1.095 I0. J0.163
G1 X184.231 Z-1.25
X160.387
G3 Y24.337 I0. J-0.163
G1 X184.232
X160.387 Z-1.405
G2 Y24.663 Z-1.408 I0. J0.163
G1 X184.231 Z-1.563
X160.387
G3 Y24.337 I0. J-0.163
G1 X184.232
X160.387 Z-1.717
G2 Y24.663 Z-1.72 I0. J0.163
G1 X184.231 Z-1.875
X160.387
G3 Y24.337 I0. J-0.163
G1 X184.232
X160.387 Z-2.03
G2 Y24.663 Z-2.033 I0. J0.163
G1 X184.231 Z-2.188
X160.387
G3 Y24.337 I0. J-0.163
G1 X184.232
X160.387 Z-2.342
G2 Y24.663 Z-2.345 I0. J0.163
G1 X184.231 Z-2.5
X160.387
G3 Y24.337 I0. J-0.163
G1 X184.232
X160.387 Z-2.655
G2 Y24.663 Z-2.658 I0. J0.163
G1 X184.231 Z-2.813
X160.387
G3 Y24.337 I0. J-0.163
G1 X184.232
X160.387 Z-2.967
G2 Y24.663 Z-2.97 I0. J0.163
G1 X184.231 Z-3.125
X160.387
G3 Y24.337 I0. J-0.163
G1 X184.232
X160.387 Z-3.28
G2 Y24.663 Z-3.283 I0. J0.163
G1 X184.231 Z-3.438
X160.387
G3 Y24.337 I0. J-0.163
G1 X184.232
X160.387 Z-3.592
G2 Y24.663 Z-3.595 I0. J0.163
G1 X184.231 Z-3.75
X160.387
G3 Y24.337 I0. J-0.163
G1 X184.232
X160.387 Z-3.905
G2 Y24.663 Z-3.908 I0. J0.163
G1 X184.231 Z-4.063
X160.387
G3 Y24.337 I0. J-0.163
G1 X184.232
X160.387 Z-4.217
G2 Y24.663 Z-4.22 I0. J0.163
G1 X184.231 Z-4.375
X160.387
G3 Y24.337 I0. J-0.163
G1 X184.232
X160.387 Z-4.53
G2 Y24.663 Z-4.533 I0. J0.163
G1 X184.231 Z-4.688
X160.387
G3 Y24.337 I0. J-0.163
G1 X184.232
X160.387 Z-4.842
G2 Y24.663 Z-4.845 I0. J0.163
G1 X184.231 Z-5.
X160.387
G3 Y24.337 I0. J-0.163
G1 X184.232
X160.387 Z-5.155
G2 Y24.663 Z-5.158 I0. J0.163
G1 X184.231 Z-5.313
X160.387
G3 Y24.337 I0. J-0.163
G1 X184.232
X160.387 Z-5.467
G2 Y24.663 Z-5.47 I0. J0.163
G1 X184.231 Z-5.625
X160.387
G3 Y24.337 I0. J-0.163
G1 X184.232
X160.387 Z-5.78
G2 Y24.663 Z-5.783 I0. J0.163
G1 X184.231 Z-5.938
X160.387
G3 Y24.337 I0. J-0.163
G1 X184.232
X160.387 Z-6.092
G2 Y24.663 Z-6.095 I0. J0.163
G1 X184.231 Z-6.25
X160.387
G3 Y24.337 I0. J-0.163
G1 X184.232
X160.387 Z-6.405
G2 Y24.663 Z-6.408 I0. J0.163
G1 X184.231 Z-6.563
X160.387
G3 Y24.337 I0. J-0.163
G1 X184.232
X160.387 Z-6.717
G2 Y24.663 Z-6.72 I0. J0.163
G1 X184.231 Z-6.875
X160.387
G3 Y24.337 I0. J-0.163
G1 X184.232
X160.387 Z-7.03
G2 Y24.663 Z-7.033 I0. J0.163
G1 X184.231 Z-7.188
X160.387
G3 Y24.337 I0. J-0.163
G1 X184.232
X160.387 Z-7.342
G2 Y24.663 Z-7.345 I0. J0.163
G1 X184.231 Z-7.5
X160.387
G3 Y24.337 I0. J-0.163
G1 X184.232
X160.387 Z-7.655
G2 Y24.663 Z-7.658 I0. J0.163
G1 X184.231 Z-7.813
X160.387
G3 Y24.337 I0. J-0.163
G1 X184.232
X160.387 Z-7.967
G2 Y24.663 Z-7.97 I0. J0.163
G1 X184.231 Z-8.125
X160.387
G3 Y24.337 I0. J-0.163
G1 X184.232
X160.387 Z-8.28
G2 Y24.663 Z-8.283 I0. J0.163
G1 X184.231 Z-8.438
X160.387
G3 Y24.337 I0. J-0.163
G1 X184.232
X160.387 Z-8.592
G2 Y24.663 Z-8.595 I0. J0.163
G1 X184.231 Z-8.75
X160.387
G3 Y24.337 I0. J-0.163
G1 X184.232
X160.387 Z-8.905
G2 Y24.663 Z-8.908 I0. J0.163
G1 X184.231 Z-9.063
X160.387
G3 Y24.337 I0. J-0.163
G1 X184.232
X160.387 Z-9.217
G2 Y24.663 Z-9.22 I0. J0.163
G1 X184.231 Z-9.375
X160.387
G3 Y24.337 I0. J-0.163
G1 X184.232
X160.387 Z-9.53
G2 Y24.663 Z-9.533 I0. J0.163
G1 X184.231 Z-9.688
X160.387
G3 Y24.337 I0. J-0.163
G1 X184.232
X160.387 Z-9.842
G2 Y24.663 Z-9.845 I0. J0.163
G1 X184.231 Z-10.
X160.387
G3 Y24.337 I0. J-0.163
G1 X184.232
X160.387 Z-10.155
G2 Y24.663 Z-10.158 I0. J0.163
G1 X184.231 Z-10.313
X160.387
G3 Y24.337 I0. J-0.163
G1 X184.232
X160.387 Z-10.467
G2 Y24.663 Z-10.47 I0. J0.163
G1 X184.231 Z-10.625
X160.387
G3 Y24.337 I0. J-0.163
G1 X184.232
X160.387 Z-10.78
G2 Y24.663 Z-10.783 I0. J0.163
G1 X184.231 Z-10.938
X160.387
G3 Y24.337 I0. J-0.163
G1 X184.232
X160.387 Z-11.092
G2 Y24.663 Z-11.095 I0. J0.163
G1 X184.231 Z-11.25
X160.387
G3 Y24.337 I0. J-0.163
G1 X184.232
X160.387 Z-11.405
G2 Y24.663 Z-11.408 I0. J0.163
G1 X184.231 Z-11.563
X160.387
G3 Y24.337 I0. J-0.163
G1 X184.232
X160.387 Z-11.717
G2 Y24.663 Z-11.72 I0. J0.163
G1 X184.231 Z-11.875
X160.387
G3 Y24.337 I0. J-0.163
G1 X184.232
X160.387 Z-12.03
G2 Y24.663 Z-12.033 I0. J0.163
G1 X184.231 Z-12.188
X160.387
G3 Y24.337 I0. J-0.163
G1 X184.232
X160.387 Z-12.342
G2 Y24.663 Z-12.345 I0. J0.163
G1 X184.231 Z-12.5
X160.387
G3 Y24.337 I0. J-0.163
G1 X184.232
X160.387 Z-12.655
G2 Y24.663 Z-12.658 I0. J0.163
G1 X184.231 Z-12.813
X160.387
G3 Y24.337 I0. J-0.163
G1 X184.232
X160.387 Z-12.967
G2 Y24.663 Z-12.97 I0. J0.163
G1 X184.231 Z-13.125
X160.387
G3 Y24.337 I0. J-0.163
G1 X184.232
X160.387 Z-13.28
G2 Y24.663 Z-13.283 I0. J0.163
G1 X184.231 Z-13.438
X160.387
G3 Y24.337 I0. J-0.163
G1 X184.232
X160.387 Z-13.592
G2 Y24.663 Z-13.595 I0. J0.163
G1 X184.231 Z-13.75
X160.387
G3 Y24.337 I0. J-0.163
G1 X184.232
X160.387 Z-13.905
G2 Y24.663 Z-13.908 I0. J0.163
G1 X184.231 Z-14.063
X160.387
G3 Y24.337 I0. J-0.163
G1 X184.232
X160.387 Z-14.217
G2 Y24.663 Z-14.22 I0. J0.163
G1 X184.231 Z-14.375
X160.387
G3 Y24.337 I0. J-0.163
G1 X184.232
X160.387 Z-14.53
G2 Y24.663 Z-14.533 I0. J0.163
G1 X184.231 Z-14.688
X160.387
G3 Y24.337 I0. J-0.163
G1 X184.232
X160.387 Z-14.842
G2 Y24.663 Z-14.845 I0. J0.163
G1 X184.231 Z-15.
X160.387
G3 Y24.337 I0. J-0.163
G1 X184.232
X160.387 Z-15.155
G2 Y24.663 Z-15.158 I0. J0.163
G1 X184.231 Z-15.313
X160.387
G3 Y24.337 I0. J-0.163
G1 X184.232
X160.387 Z-15.467
G2 Y24.663 Z-15.47 I0. J0.163
G1 X184.231 Z-15.625
X160.387
G3 Y24.337 I0. J-0.163
G1 X184.232
X160.387 Z-15.78
G2 Y24.663 Z-15.783 I0. J0.163
G1 X184.231 Z-15.938
X160.387
G3 Y24.337 I0. J-0.163
G1 X184.232
X160.387 Z-16.092
G2 Y24.663 Z-16.095 I0. J0.163
G1 X184.231 Z-16.25
X160.387
G3 Y24.337 I0. J-0.163
G1 X184.232
X160.387 Z-16.405
G2 Y24.663 Z-16.408 I0. J0.163
G1 X184.231 Z-16.563
X160.387
G3 Y24.337 I0. J-0.163
G1 X184.232
X160.387 Z-16.717
G2 Y24.663 Z-16.72 I0. J0.163
G1 X184.231 Z-16.875
X160.387
G3 Y24.337 I0. J-0.163
G1 X184.232
X160.387 Z-17.03
G2 Y24.663 Z-17.033 I0. J0.163
G1 X184.231 Z-17.188
X160.387
G3 Y24.337 I0. J-0.163
G1 X184.232
X160.387 Z-17.342
G2 Y24.663 Z-17.345 I0. J0.163
G1 X184.231 Z-17.5
X160.387
G3 Y24.337 I0. J-0.163
G1 X184.232
X184.281 Y24.341
X184.551 Y24.384
X184.621 Y24.395 Z-17.492
X184.687 Y24.406 Z-17.469
X184.746 Y24.415 Z-17.431
X184.796 Y24.423 Z-17.38
X184.833 Y24.429 Z-17.32
X184.857 Y24.433 Z-17.253
X184.864 Y24.434 Z-17.183
G0 Z15.
X191.167 Y162.837
Z5.
G1 Z2.817 F534.
G18 G2 X191.483 Z2.5 I0.318 K0. F1068.
G1 X212.366 Z2.384
G17 G3 Y163.163 Z2.381 I0. J0.163
G1 X184.387 Z2.225
G3 Y162.837 Z2.222 I0. J-0.163
G1 X212.366 Z2.066
G3 Y163.163 Z2.063 I0. J0.163
G1 X184.387 Z1.907
G3 Y162.837 Z1.905 I0. J-0.163
G1 X212.366 Z1.749
G3 Y163.163 Z1.746 I0. J0.163
G1 X184.387 Z1.59
G3 Y162.837 Z1.587 I0. J-0.163
G1 X212.366 Z1.431
G3 Y163.163 Z1.428 I0. J0.163
G1 X184.387 Z1.272
G3 Y162.837 Z1.27 I0. J-0.163
G1 X212.366 Z1.114
G3 Y163.163 Z1.111 I0. J0.163
G1 X184.387 Z0.955
G3 Y162.837 Z0.952 I0. J-0.163
G1 X212.366 Z0.796
G3 Y163.163 Z0.793 I0. J0.163
G1 X184.387 Z0.637
G3 Y162.837 Z0.635 I0. J-0.163
G1 X212.366 Z0.479
G3 Y163.163 Z0.476 I0. J0.163
G1 X184.387 Z0.32
G3 Y162.837 Z0.317 I0. J-0.163
G1 X212.366 Z0.161
G3 Y163.163 Z0.158 I0. J0.163
G1 X184.387 Z0.002
G3 Y162.837 Z0. I0. J-0.163
G1 X212.366 Z-0.156
G3 Y163.163 Z-0.159 I0. J0.163
G1 X184.387 Z-0.315
X184.34 Y163.156
X184.297 Y163.135 Z-0.316
X184.262 Y163.104
X184.237 Y163.063
G3 X184.387 Y162.837 I0.15 J-0.063
G1 X212.366
G3 Y163.163 I0. J0.163
G1 X184.387
X184.34 Y163.156
X184.297 Y163.135
X184.262 Y163.104
X184.237 Y163.063
G3 X184.387 Y162.837 Z-0.318 I0.15 J-0.063
G1 X212.366 Z-0.474
G3 Y163.163 Z-0.477 I0. J0.163
G1 X184.434 Z-0.632
X184.387
G3 Y162.837 I0. J-0.163
G1 X212.366
G3 Y163.163 I0. J0.163
G1 X184.434
X184.387 Z-0.633
G3 Y162.837 Z-0.635 I0. J-0.163
G1 X212.366 Z-0.791
G3 Y163.163 Z-0.794 I0. J0.163
G1 X184.672 Z-0.949
X184.434
X184.387
G3 Y162.837 I0. J-0.163
G1 X212.366
G3 Y163.163 I0. J0.163
G1 X184.672
X184.387 Z-0.95
G3 Y162.837 Z-0.953 I0. J-0.163
G1 X212.366 Z-1.109
G3 Y163.163 Z-1.112 I0. J0.163
G1 X184.909 Z-1.265
X184.387
G3 Y162.837 I0. J-0.163
G1 X212.366
G3 Y163.163 I0. J0.163
G1 X184.909
X184.387 Z-1.268
G3 Y162.837 Z-1.27 I0. J-0.163
G1 X212.366 Z-1.426
G3 Y163.163 Z-1.429 I0. J0.163
G1 X185.147 Z-1.581
X184.387
G3 Y162.837 I0. J-0.163
G1 X212.366
G3 Y163.163 I0. J0.163
G1 X185.147
X184.387 Z-1.585
G3 Y162.837 Z-1.588 I0. J-0.163
G1 X212.366 Z-1.744
G3 Y163.163 Z-1.747 I0. J0.163
G1 X185.384 Z-1.897
X184.387
G3 Y162.837 I0. J-0.163
G1 X212.366
G3 Y163.163 I0. J0.163
G1 X185.384
X184.387 Z-1.903
G3 Y162.837 Z-1.905 I0. J-0.163
G1 X212.366 Z-2.061
G3 Y163.163 Z-2.064 I0. J0.163
G1 X185.622 Z-2.213
X184.387
G3 Y162.837 I0. J-0.163
G1 X212.366
G3 Y163.163 I0. J0.163
G1 X185.622
X184.387 Z-2.22
G3 Y162.837 Z-2.223 I0. J-0.163
G1 X212.366 Z-2.379
G3 Y163.163 Z-2.382 I0. J0.163
G1 X185.859 Z-2.529
X184.387
G3 Y162.837 I0. J-0.163
G1 X212.366
G3 Y163.163 I0. J0.163
G1 X185.859
X184.387 Z-2.538
G3 Y162.837 Z-2.54 I0. J-0.163
G1 X212.366 Z-2.696
G3 Y163.163 Z-2.699 I0. J0.163
G1 X186.097 Z-2.846
X184.387
G3 Y162.837 I0. J-0.163
G1 X212.366
G3 Y163.163 I0. J0.163
G1 X186.097
X184.387 Z-2.855
G3 Y162.837 Z-2.858 I0. J-0.163
G1 X212.366 Z-3.014
G3 Y163.163 Z-3.017 I0. J0.163
G1 X186.334 Z-3.162
X184.387
G3 Y162.837 I0. J-0.163
G1 X212.366
G3 Y163.163 I0. J0.163
G1 X186.334
X184.387 Z-3.173
G3 Y162.837 Z-3.175 I0. J-0.163
G1 X212.366 Z-3.331
G3 Y163.163 Z-3.334 I0. J0.163
G1 X186.572 Z-3.478
X184.387
G3 Y162.837 I0. J-0.163
G1 X212.366
G3 Y163.163 I0. J0.163
G1 X186.572
X184.387 Z-3.49
G3 Y162.837 Z-3.493 I0. J-0.163
G1 X212.366 Z-3.649
G3 Y163.163 Z-3.652 I0. J0.163
G1 X186.809 Z-3.794
X184.387
G3 Y162.837 I0. J-0.163
G1 X212.366
G3 Y163.163 I0. J0.163
G1 X186.809
X184.387 Z-3.808
G3 Y162.837 Z-3.81 I0. J-0.163
G1 X212.366 Z-3.966
G3 Y163.163 Z-3.969 I0. J0.163
G1 X187.047 Z-4.11
X184.387
G3 Y162.837 I0. J-0.163
G1 X212.366
G3 Y163.163 I0. J0.163
G1 X187.047
X184.387 Z-4.125
G3 Y162.837 Z-4.128 I0. J-0.163
G1 X212.366 Z-4.284
G3 Y163.163 Z-4.287 I0. J0.163
G1 X187.284 Z-4.426
X184.387
G3 Y162.837 I0. J-0.163
G1 X212.366
G3 Y163.163 I0. J0.163
G1 X187.284
X184.387 Z-4.443
G3 Y162.837 Z-4.445 I0. J-0.163
G1 X212.366 Z-4.601
G3 Y163.163 Z-4.604 I0. J0.163
G1 X187.522 Z-4.743
X184.387
G3 Y162.837 I0. J-0.163
G1 X212.366
G3 Y163.163 I0. J0.163
G1 X187.522
X184.387 Z-4.76
G3 Y162.837 Z-4.763 I0. J-0.163
G1 X212.366 Z-4.919
G3 Y163.163 Z-4.922 I0. J0.163
G1 X187.759 Z-5.059
X184.387
G3 Y162.837 I0. J-0.163
G1 X212.366
G3 Y163.163 I0. J0.163
G1 X187.759
X184.387 Z-5.078
G3 Y162.837 Z-5.08 I0. J-0.163
G1 X212.366 Z-5.236
G3 Y163.163 Z-5.239 I0. J0.163
G1 X187.997 Z-5.375
X184.387
G3 Y162.837 I0. J-0.163
G1 X212.366
G3 Y163.163 I0. J0.163
G1 X187.997
X184.387 Z-5.395
G3 Y162.837 Z-5.398 I0. J-0.163
G1 X212.366 Z-5.554
G3 Y163.163 Z-5.557 I0. J0.163
G1 X188.234 Z-5.691
X184.387
G3 Y162.837 I0. J-0.163
G1 X212.366
G3 Y163.163 I0. J0.163
G1 X188.234
X184.387 Z-5.713
G3 Y162.837 Z-5.715 I0. J-0.163
G1 X212.366 Z-5.871
G3 Y163.163 Z-5.874 I0. J0.163
G1 X188.472 Z-6.007
X184.387
G3 Y162.837 I0. J-0.163
G1 X212.366
G3 Y163.163 I0. J0.163
G1 X188.472
X184.387 Z-6.03
G3 Y162.837 Z-6.033 I0. J-0.163
G1 X212.366 Z-6.189
G3 Y163.163 Z-6.192 I0. J0.163
G1 X188.709 Z-6.324
X184.387
G3 Y162.837 I0. J-0.163
G1 X212.366
G3 Y163.163 I0. J0.163
G1 X188.709
X184.387 Z-6.348
G3 Y162.837 Z-6.35 I0. J-0.163
G1 X212.366 Z-6.506
G3 Y163.163 Z-6.509 I0. J0.163
G1 X188.947 Z-6.64
X184.387
G3 Y162.837 I0. J-0.163
G1 X212.366
G3 Y163.163 I0. J0.163
G1 X188.947
X184.387 Z-6.665
G3 Y162.837 Z-6.668 I0. J-0.163
G1 X212.366 Z-6.824
G3 Y163.163 Z-6.827 I0. J0.163
G1 X189.184 Z-6.956
X184.387
G3 Y162.837 I0. J-0.163
G1 X212.366
G3 Y163.163 I0. J0.163
G1 X189.184
X184.387 Z-6.983
G3 Y162.837 Z-6.985 I0. J-0.163
G1 X212.366 Z-7.141
G3 Y163.163 Z-7.144 I0. J0.163
G1 X189.422 Z-7.272
X184.387
G3 Y162.837 I0. J-0.163
G1 X212.366
G3 Y163.163 I0. J0.163
G1 X189.422
X184.387 Z-7.3
G3 Y162.837 Z-7.303 I0. J-0.163
G1 X212.366 Z-7.459
G3 Y163.163 Z-7.462 I0. J0.163
G1 X189.66 Z-7.588
X184.387
G3 Y162.837 I0. J-0.163
G1 X212.366
G3 Y163.163 I0. J0.163
G1 X189.66
X184.387 Z-7.618
G3 Y162.837 Z-7.62 I0. J-0.163
G1 X212.366 Z-7.776
G3 Y163.163 Z-7.779 I0. J0.163
G1 X189.897 Z-7.904
X184.387
G3 Y162.837 I0. J-0.163
G1 X212.366
G3 Y163.163 I0. J0.163
G1 X189.897
X184.387 Z-7.935
G3 Y162.837 Z-7.938 I0. J-0.163
G1 X212.366 Z-8.094
G3 Y163.163 Z-8.097 I0. J0.163
G1 X190.135 Z-8.221
X184.387
G3 Y162.837 I0. J-0.163
G1 X212.366
G3 Y163.163 I0. J0.163
G1 X190.135
X184.387 Z-8.253
G3 Y162.837 Z-8.255 I0. J-0.163
G1 X212.366 Z-8.411
G3 Y163.163 Z-8.414 I0. J0.163
G1 X190.372 Z-8.537
X184.387
G3 Y162.837 I0. J-0.163
G1 X212.366
G3 Y163.163 I0. J0.163
G1 X190.372
X184.387 Z-8.57
G3 Y162.837 Z-8.573 I0. J-0.163
G1 X212.366 Z-8.729
G3 Y163.163 Z-8.732 I0. J0.163
G1 X190.61 Z-8.853
X184.387
G3 Y162.837 I0. J-0.163
G1 X212.366
G3 Y163.163 I0. J0.163
G1 X190.61
X184.387 Z-8.888
G3 Y162.837 Z-8.89 I0. J-0.163
G1 X212.366 Z-9.046
G3 Y163.163 Z-9.049 I0. J0.163
G1 X190.847 Z-9.169
X184.387
G3 Y162.837 I0. J-0.163
G1 X212.366
G3 Y163.163 I0. J0.163
G1 X190.847
X184.387 Z-9.205
G3 Y162.837 Z-9.208 I0. J-0.163
G1 X212.366 Z-9.364
G3 Y163.163 Z-9.367 I0. J0.163
G1 X191.085 Z-9.485
X184.387
G3 Y162.837 I0. J-0.163
G1 X212.366
G3 Y163.163 I0. J0.163
G1 X191.085
X184.387 Z-9.523
G3 Y162.837 Z-9.525 I0. J-0.163
G1 X212.366 Z-9.681
G3 Y163.163 Z-9.684 I0. J0.163
G1 X191.322 Z-9.801
X184.387
G3 Y162.837 I0. J-0.163
G1 X212.366
G3 Y163.163 I0. J0.163
G1 X191.322
X184.387 Z-9.84
G3 Y162.837 Z-9.843 I0. J-0.163
G1 X212.366 Z-9.999
G3 Y163.163 Z-10.002 I0. J0.163
G1 X191.56 Z-10.118
X184.387
G3 Y162.837 I0. J-0.163
G1 X212.366
G3 Y163.163 I0. J0.163
G1 X191.56
X184.387 Z-10.158
G3 Y162.837 Z-10.16 I0. J-0.163
G1 X212.366 Z-10.316
G3 Y163.163 Z-10.319 I0. J0.163
G1 X191.797 Z-10.434
X184.387
G3 Y162.837 I0. J-0.163
G1 X212.366
G3 Y163.163 I0. J0.163
G1 X191.797
X184.387 Z-10.475
G3 Y162.837 Z-10.478 I0. J-0.163
G1 X212.366 Z-10.634
G3 Y163.163 Z-10.637 I0. J0.163
G1 X192.035 Z-10.75
X184.387
G3 Y162.837 I0. J-0.163
G1 X212.366
G3 Y163.163 I0. J0.163
G1 X192.035
X184.387 Z-10.793
G3 Y162.837 Z-10.795 I0. J-0.163
G1 X212.366 Z-10.951
G3 Y163.163 Z-10.954 I0. J0.163
G1 X192.272 Z-11.066
X184.387
G3 Y162.837 I0. J-0.163
G1 X212.366
G3 Y163.163 I0. J0.163
G1 X192.272
X184.387 Z-11.11
G3 Y162.837 Z-11.113 I0. J-0.163
G1 X212.366 Z-11.269
G3 Y163.163 Z-11.272 I0. J0.163
G1 X192.51 Z-11.382
X184.387
G3 Y162.837 I0. J-0.163
G1 X212.366
G3 Y163.163 I0. J0.163
G1 X192.51
X184.387 Z-11.428
G3 Y162.837 Z-11.43 I0. J-0.163
G1 X212.366 Z-11.586
G3 Y163.163 Z-11.589 I0. J0.163
G1 X192.747 Z-11.699
X184.387
G3 Y162.837 I0. J-0.163
G1 X212.366
G3 Y163.163 I0. J0.163
G1 X192.747
X184.387 Z-11.745
G3 Y162.837 Z-11.748 I0. J-0.163
G1 X212.366 Z-11.904
G3 Y163.163 Z-11.907 I0. J0.163
G1 X192.985 Z-12.015
X184.387
G3 Y162.837 I0. J-0.163
G1 X212.366
G3 Y163.163 I0. J0.163
G1 X192.985
X184.387 Z-12.063
G3 Y162.837 Z-12.065 I0. J-0.163
G1 X212.366 Z-12.221
G3 Y163.163 Z-12.224 I0. J0.163
G1 X193.222 Z-12.331
X184.387
G3 Y162.837 I0. J-0.163
G1 X212.366
G3 Y163.163 I0. J0.163
G1 X193.222
X184.387 Z-12.38
G3 Y162.837 Z-12.383 I0. J-0.163
G1 X212.366 Z-12.539
G3 Y163.163 Z-12.542 I0. J0.163
G1 X193.46 Z-12.647
X184.387
G3 Y162.837 I0. J-0.163
G1 X212.366
G3 Y163.163 I0. J0.163
G1 X193.46
X184.387 Z-12.698
G3 Y162.837 Z-12.7 I0. J-0.163
G1 X212.366 Z-12.856
G3 Y163.163 Z-12.859 I0. J0.163
G1 X193.697 Z-12.963
X184.387
G3 Y162.837 I0. J-0.163
G1 X212.366
G3 Y163.163 I0. J0.163
G1 X193.697
X184.387 Z-13.015
G3 Y162.837 Z-13.018 I0. J-0.163
G1 X212.366 Z-13.174
G3 Y163.163 Z-13.177 I0. J0.163
G1 X193.935 Z-13.279
X184.387
G3 Y162.837 I0. J-0.163
G1 X212.366
G3 Y163.163 I0. J0.163
G1 X193.935
X184.387 Z-13.333
G3 Y162.837 Z-13.335 I0. J-0.163
G1 X212.366 Z-13.491
G3 Y163.163 Z-13.494 I0. J0.163
G1 X194.172 Z-13.596
X184.387
G3 Y162.837 I0. J-0.163
G1 X212.366
G3 Y163.163 I0. J0.163
G1 X194.172
X184.387 Z-13.65
G3 Y162.837 Z-13.653 I0. J-0.163
G1 X212.366 Z-13.809
G3 Y163.163 Z-13.812 I0. J0.163
G1 X194.41 Z-13.912
X184.387
G3 Y162.837 I0. J-0.163
G1 X212.366
G3 Y163.163 I0. J0.163
G1 X194.41
X184.387 Z-13.968
G3 Y162.837 Z-13.97 I0. J-0.163
G1 X212.366 Z-14.126
G3 Y163.163 Z-14.129 I0. J0.163
G1 X194.647 Z-14.228
X184.387
G3 Y162.837 I0. J-0.163
G1 X212.366
G3 Y163.163 I0. J0.163
G1 X194.647
X184.387 Z-14.285
G3 Y162.837 Z-14.288 I0. J-0.163
G1 X212.366 Z-14.444
G3 Y163.163 Z-14.447 I0. J0.163
G1 X194.885 Z-14.544
X184.387
G3 Y162.837 I0. J-0.163
G1 X212.366
G3 Y163.163 I0. J0.163
G1 X194.885
X184.387 Z-14.603
G3 Y162.837 Z-14.605 I0. J-0.163
G1 X212.366 Z-14.761
G3 Y163.163 Z-14.764 I0. J0.163
G1 X195.123 Z-14.86
X184.387
G3 Y162.837 I0. J-0.163
G1 X212.366
G3 Y163.163 I0. J0.163
G1 X195.123
X184.387 Z-14.92
G3 Y162.837 Z-14.923 I0. J-0.163
G1 X212.366 Z-15.079
G3 Y163.163 Z-15.082 I0. J0.163
G1 X195.36 Z-15.176
X184.387
G3 Y162.837 I0. J-0.163
G1 X212.366
G3 Y163.163 I0. J0.163
G1 X195.36
X184.387 Z-15.238
G3 Y162.837 Z-15.24 I0. J-0.163
G1 X212.366 Z-15.396
G3 Y163.163 Z-15.399 I0. J0.163
G1 X195.598 Z-15.493
X184.387
G3 Y162.837 I0. J-0.163
G1 X212.366
G3 Y163.163 I0. J0.163
G1 X195.598
X184.387 Z-15.555
G3 Y162.837 Z-15.558 I0. J-0.163
G1 X212.366 Z-15.714
G3 Y163.163 Z-15.717 I0. J0.163
G1 X195.835 Z-15.809
X184.387
G3 Y162.837 I0. J-0.163
G1 X212.366
G3 Y163.163 I0. J0.163
G1 X195.835
X184.387 Z-15.873
G3 Y162.837 Z-15.875 I0. J-0.163
G1 X212.366 Z-16.031
G3 Y163.163 Z-16.034 I0. J0.163
G1 X196.073 Z-16.125
X184.387
G3 Y162.837 I0. J-0.163
G1 X212.366
G3 Y163.163 I0. J0.163
G1 X196.073
X184.387 Z-16.19
G3 Y162.837 Z-16.193 I0. J-0.163
G1 X212.366 Z-16.349
G3 Y163.163 Z-16.352 I0. J0.163
G1 X196.31 Z-16.441
X184.387
G3 Y162.837 I0. J-0.163
G1 X212.366
G3 Y163.163 I0. J0.163
G1 X196.31
X184.387 Z-16.508
G3 Y162.837 Z-16.51 I0. J-0.163
G1 X212.366 Z-16.666
G3 Y163.163 Z-16.669 I0. J0.163
G1 X196.548 Z-16.757
X184.387
G3 Y162.837 I0. J-0.163
G1 X212.366
G3 Y163.163 I0. J0.163
G1 X196.548
X184.387 Z-16.825
G3 Y162.837 Z-16.828 I0. J-0.163
G1 X212.366 Z-16.984
G3 Y163.163 Z-16.987 I0. J0.163
G1 X196.785 Z-17.074
X184.387
G3 Y162.837 I0. J-0.163
G1 X212.366
G3 Y163.163 I0. J0.163
G1 X196.785
X184.387 Z-17.143
G3 Y162.837 Z-17.145 I0. J-0.163
G1 X212.366 Z-17.301
G3 Y163.163 Z-17.304 I0. J0.163
G1 X197.023 Z-17.39
X184.387
G3 Y162.837 I0. J-0.163
G1 X212.366
G3 Y163.163 I0. J0.163
G1 X197.023
X184.387 Z-17.46
G3 Y162.837 Z-17.463 I0. J-0.163
G1 X212.366 Z-17.619
G3 Y163.163 Z-17.622 I0. J0.163
G1 X197.26 Z-17.706
X184.387
G3 Y162.837 I0. J-0.163
G1 X212.366
G3 Y163.163 I0. J0.163
G1 X197.26
X184.387 Z-17.778
G3 Y162.837 Z-17.78 I0. J-0.163
G1 X212.366 Z-17.936
G3 Y163.163 Z-17.939 I0. J0.163
G1 X197.498 Z-18.022
X184.387
G3 Y162.837 I0. J-0.163
G1 X212.366
G3 Y163.163 I0. J0.163
G1 X197.498
X184.387 Z-18.095
G3 Y162.837 Z-18.098 I0. J-0.163
G1 X212.366 Z-18.254
G3 Y163.163 Z-18.257 I0. J0.163
G1 X197.735 Z-18.338
X184.387
G3 Y162.837 I0. J-0.163
G1 X212.366
G3 Y163.163 I0. J0.163
G1 X197.735
X184.387 Z-18.413
G3 Y162.837 Z-18.415 I0. J-0.163
G1 X212.366 Z-18.571
G3 Y163.163 Z-18.574 I0. J0.163
G1 X197.973 Z-18.654
X184.387
G3 Y162.837 I0. J-0.163
G1 X212.366
G3 Y163.163 I0. J0.163
G1 X197.973
X184.387 Z-18.73
G3 Y162.837 Z-18.733 I0. J-0.163
G1 X212.366 Z-18.889
G3 Y163.163 Z-18.892 I0. J0.163
G1 X198.21 Z-18.971
X184.387
G3 Y162.837 I0. J-0.163
G1 X212.366
G3 Y163.163 I0. J0.163
G1 X198.21
X184.387 Z-19.048
G3 Y162.837 Z-19.05 I0. J-0.163
G1 X212.366 Z-19.206
G3 Y163.163 Z-19.209 I0. J0.163
G1 X198.448 Z-19.287
X184.387
G3 Y162.837 I0. J-0.163
G1 X212.366
G3 Y163.163 I0. J0.163
G1 X198.448
X184.387 Z-19.365
G3 Y162.837 Z-19.368 I0. J-0.163
G1 X212.366 Z-19.524
G3 Y163.163 Z-19.527 I0. J0.163
G1 X198.685 Z-19.603
X184.387
G3 Y162.837 I0. J-0.163
G1 X212.366
G3 Y163.163 I0. J0.163
G1 X198.685
X184.387 Z-19.683
G3 Y162.837 Z-19.685 I0. J-0.163
G1 X212.366 Z-19.841
G3 Y163.163 Z-19.844 I0. J0.163
G1 X198.923 Z-19.919
X184.387
G3 Y162.837 I0. J-0.163
G1 X212.366
G3 Y163.163 I0. J0.163
G1 X198.923
X184.387 Z-20.
G3 Y162.837 Z-20.003 I0. J-0.163
G1 X212.366 Z-20.159
G3 Y163.163 Z-20.162 I0. J0.163
G1 X199.16 Z-20.235
X184.387
G3 Y162.837 I0. J-0.163
G1 X212.366
G3 Y163.163 I0. J0.163
G1 X199.16
X184.387 Z-20.318
G3 Y162.837 Z-20.32 I0. J-0.163
G1 X212.366 Z-20.476
G3 Y163.163 Z-20.479 I0. J0.163
G1 X199.398 Z-20.551
X184.387
G3 Y162.837 I0. J-0.163
G1 X212.366
G3 Y163.163 I0. J0.163
G1 X199.398
X184.387 Z-20.635
G3 Y162.837 Z-20.638 I0. J-0.163
G1 X212.366 Z-20.794
G3 Y163.163 Z-20.797 I0. J0.163
G1 X199.635 Z-20.868
X184.387
G3 Y162.837 I0. J-0.163
G1 X212.366
G3 Y163.163 I0. J0.163
G1 X199.635
X184.387 Z-20.953
G3 Y162.837 Z-20.955 I0. J-0.163
G1 X212.366 Z-21.111
G3 Y163.163 Z-21.114 I0. J0.163
G1 X199.873 Z-21.184
X184.387
G3 Y162.837 I0. J-0.163
G1 X212.366
G3 Y163.163 I0. J0.163
G1 X199.873
X184.387 Z-21.27
G3 Y162.837 Z-21.273 I0. J-0.163
G1 X212.366 Z-21.429
G3 Y163.163 Z-21.432 I0. J0.163
G1 X200.111 Z-21.5
X184.387
G3 Y162.837 I0. J-0.163
G1 X212.366
G3 Y163.163 I0. J0.163
G1 X200.111
G18 G3 X199.793 Z-21.183 I0. K0.317
G0 Z5.
X191.167 Y301.337
G1 Z2.817 F534.
G2 X191.483 Z2.5 I0.318 K0. F1068.
G1 X212.366 Z2.384
G17 G3 Y301.663 Z2.381 I0. J0.163
G1 X184.387 Z2.225
G3 Y301.337 Z2.222 I0. J-0.163
G1 X212.366 Z2.066
G3 Y301.663 Z2.063 I0. J0.163
G1 X184.387 Z1.907
G3 Y301.337 Z1.905 I0. J-0.163
G1 X212.366 Z1.749
G3 Y301.663 Z1.746 I0. J0.163
G1 X184.387 Z1.59
G3 Y301.337 Z1.587 I0. J-0.163
G1 X212.366 Z1.431
G3 Y301.663 Z1.428 I0. J0.163
G1 X184.387 Z1.272
G3 Y301.337 Z1.27 I0. J-0.163
G1 X212.366 Z1.114
G3 Y301.663 Z1.111 I0. J0.163
G1 X184.387 Z0.955
G3 Y301.337 Z0.952 I0. J-0.163
G1 X212.366 Z0.796
G3 Y301.663 Z0.793 I0. J0.163
G1 X184.387 Z0.637
G3 Y301.337 Z0.635 I0. J-0.163
G1 X212.366 Z0.479
G3 Y301.663 Z0.476 I0. J0.163
G1 X184.387 Z0.32
G3 Y301.337 Z0.317 I0. J-0.163
G1 X212.366 Z0.161
G3 Y301.663 Z0.158 I0. J0.163
G1 X184.387 Z0.002
G3 Y301.337 Z0. I0. J-0.163
G1 X212.366 Z-0.156
G3 Y301.663 Z-0.159 I0. J0.163
G1 X184.387 Z-0.315
X184.34 Y301.656
X184.297 Y301.635 Z-0.316
X184.262 Y301.604
X184.237 Y301.563
G3 X184.387 Y301.337 I0.15 J-0.063
G1 X212.366
G3 Y301.663 I0. J0.163
G1 X184.387
X184.34 Y301.656
X184.297 Y301.635
X184.262 Y301.604
X184.237 Y301.563
G3 X184.387 Y301.337 Z-0.318 I0.15 J-0.063
G1 X212.366 Z-0.474
G3 Y301.663 Z-0.477 I0. J0.163
G1 X184.434 Z-0.632
X184.387
G3 Y301.337 I0. J-0.163
G1 X212.366
G3 Y301.663 I0. J0.163
G1 X184.434
X184.387 Z-0.633
G3 Y301.337 Z-0.635 I0. J-0.163
G1 X212.366 Z-0.791
G3 Y301.663 Z-0.794 I0. J0.163
G1 X184.672 Z-0.949
X184.434
X184.387
G3 Y301.337 I0. J-0.163
G1 X212.366
G3 Y301.663 I0. J0.163
G1 X184.672
X184.387 Z-0.95
G3 Y301.337 Z-0.953 I0. J-0.163
G1 X212.366 Z-1.109
G3 Y301.663 Z-1.112 I0. J0.163
G1 X184.909 Z-1.265
X184.387
G3 Y301.337 I0. J-0.163
G1 X212.366
G3 Y301.663 I0. J0.163
G1 X184.909
X184.387 Z-1.268
G3 Y301.337 Z-1.27 I0. J-0.163
G1 X212.366 Z-1.426
G3 Y301.663 Z-1.429 I0. J0.163
G1 X185.147 Z-1.581
X184.387
G3 Y301.337 I0. J-0.163
G1 X212.366
G3 Y301.663 I0. J0.163
G1 X185.147
X184.387 Z-1.585
G3 Y301.337 Z-1.588 I0. J-0.163
G1 X212.366 Z-1.744
G3 Y301.663 Z-1.747 I0. J0.163
G1 X185.384 Z-1.897
X184.387
G3 Y301.337 I0. J-0.163
G1 X212.366
G3 Y301.663 I0. J0.163
G1 X185.384
X184.387 Z-1.903
G3 Y301.337 Z-1.905 I0. J-0.163
G1 X212.366 Z-2.061
G3 Y301.663 Z-2.064 I0. J0.163
G1 X185.622 Z-2.213
X184.387
G3 Y301.337 I0. J-0.163
G1 X212.366
G3 Y301.663 I0. J0.163
G1 X185.622
X184.387 Z-2.22
G3 Y301.337 Z-2.223 I0. J-0.163
G1 X212.366 Z-2.379
G3 Y301.663 Z-2.382 I0. J0.163
G1 X185.859 Z-2.529
X184.387
G3 Y301.337 I0. J-0.163
G1 X212.366
G3 Y301.663 I0. J0.163
G1 X185.859
X184.387 Z-2.538
G3 Y301.337 Z-2.54 I0. J-0.163
G1 X212.366 Z-2.696
G3 Y301.663 Z-2.699 I0. J0.163
G1 X186.097 Z-2.846
X184.387
G3 Y301.337 I0. J-0.163
G1 X212.366
G3 Y301.663 I0. J0.163
G1 X186.097
X184.387 Z-2.855
G3 Y301.337 Z-2.858 I0. J-0.163
G1 X212.366 Z-3.014
G3 Y301.663 Z-3.017 I0. J0.163
G1 X186.334 Z-3.162
X184.387
G3 Y301.337 I0. J-0.163
G1 X212.366
G3 Y301.663 I0. J0.163
G1 X186.334
X184.387 Z-3.173
G3 Y301.337 Z-3.175 I0. J-0.163
G1 X212.366 Z-3.331
G3 Y301.663 Z-3.334 I0. J0.163
G1 X186.572 Z-3.478
X184.387
G3 Y301.337 I0. J-0.163
G1 X212.366
G3 Y301.663 I0. J0.163
G1 X186.572
X184.387 Z-3.49
G3 Y301.337 Z-3.493 I0. J-0.163
G1 X212.366 Z-3.649
G3 Y301.663 Z-3.652 I0. J0.163
G1 X186.809 Z-3.794
X184.387
G3 Y301.337 I0. J-0.163
G1 X212.366
G3 Y301.663 I0. J0.163
G1 X186.809
X184.387 Z-3.808
G3 Y301.337 Z-3.81 I0. J-0.163
G1 X212.366 Z-3.966
G3 Y301.663 Z-3.969 I0. J0.163
G1 X187.047 Z-4.11
X184.387
G3 Y301.337 I0. J-0.163
G1 X212.366
G3 Y301.663 I0. J0.163
G1 X187.047
X184.387 Z-4.125
G3 Y301.337 Z-4.128 I0. J-0.163
G1 X212.366 Z-4.284
G3 Y301.663 Z-4.287 I0. J0.163
G1 X187.284 Z-4.426
X184.387
G3 Y301.337 I0. J-0.163
G1 X212.366
G3 Y301.663 I0. J0.163
G1 X187.284
X184.387 Z-4.443
G3 Y301.337 Z-4.445 I0. J-0.163
G1 X212.366 Z-4.601
G3 Y301.663 Z-4.604 I0. J0.163
G1 X187.522 Z-4.743
X184.387
G3 Y301.337 I0. J-0.163
G1 X212.366
G3 Y301.663 I0. J0.163
G1 X187.522
X184.387 Z-4.76
G3 Y301.337 Z-4.763 I0. J-0.163
G1 X212.366 Z-4.919
G3 Y301.663 Z-4.922 I0. J0.163
G1 X187.759 Z-5.059
X184.387
G3 Y301.337 I0. J-0.163
G1 X212.366
G3 Y301.663 I0. J0.163
G1 X187.759
X184.387 Z-5.078
G3 Y301.337 Z-5.08 I0. J-0.163
G1 X212.366 Z-5.236
G3 Y301.663 Z-5.239 I0. J0.163
G1 X187.997 Z-5.375
X184.387
G3 Y301.337 I0. J-0.163
G1 X212.366
G3 Y301.663 I0. J0.163
G1 X187.997
X184.387 Z-5.395
G3 Y301.337 Z-5.398 I0. J-0.163
G1 X212.366 Z-5.554
G3 Y301.663 Z-5.557 I0. J0.163
G1 X188.234 Z-5.691
X184.387
G3 Y301.337 I0. J-0.163
G1 X212.366
G3 Y301.663 I0. J0.163
G1 X188.234
X184.387 Z-5.713
G3 Y301.337 Z-5.715 I0. J-0.163
G1 X212.366 Z-5.871
G3 Y301.663 Z-5.874 I0. J0.163
G1 X188.472 Z-6.007
X184.387
G3 Y301.337 I0. J-0.163
G1 X212.366
G3 Y301.663 I0. J0.163
G1 X188.472
X184.387 Z-6.03
G3 Y301.337 Z-6.033 I0. J-0.163
G1 X212.366 Z-6.189
G3 Y301.663 Z-6.192 I0. J0.163
G1 X188.709 Z-6.324
X184.387
G3 Y301.337 I0. J-0.163
G1 X212.366
G3 Y301.663 I0. J0.163
G1 X188.709
X184.387 Z-6.348
G3 Y301.337 Z-6.35 I0. J-0.163
G1 X212.366 Z-6.506
G3 Y301.663 Z-6.509 I0. J0.163
G1 X188.947 Z-6.64
X184.387
G3 Y301.337 I0. J-0.163
G1 X212.366
G3 Y301.663 I0. J0.163
G1 X188.947
X184.387 Z-6.665
G3 Y301.337 Z-6.668 I0. J-0.163
G1 X212.366 Z-6.824
G3 Y301.663 Z-6.827 I0. J0.163
G1 X189.184 Z-6.956
X184.387
G3 Y301.337 I0. J-0.163
G1 X212.366
G3 Y301.663 I0. J0.163
G1 X189.184
X184.387 Z-6.983
G3 Y301.337 Z-6.985 I0. J-0.163
G1 X212.366 Z-7.141
G3 Y301.663 Z-7.144 I0. J0.163
G1 X189.422 Z-7.272
X184.387
G3 Y301.337 I0. J-0.163
G1 X212.366
G3 Y301.663 I0. J0.163
G1 X189.422
X184.387 Z-7.3
G3 Y301.337 Z-7.303 I0. J-0.163
G1 X212.366 Z-7.459
G3 Y301.663 Z-7.462 I0. J0.163
G1 X189.66 Z-7.588
X184.387
G3 Y301.337 I0. J-0.163
G1 X212.366
G3 Y301.663 I0. J0.163
G1 X189.66
X184.387 Z-7.618
G3 Y301.337 Z-7.62 I0. J-0.163
G1 X212.366 Z-7.776
G3 Y301.663 Z-7.779 I0. J0.163
G1 X189.897 Z-7.904
X184.387
G3 Y301.337 I0. J-0.163
G1 X212.366
G3 Y301.663 I0. J0.163
G1 X189.897
X184.387 Z-7.935
G3 Y301.337 Z-7.938 I0. J-0.163
G1 X212.366 Z-8.094
G3 Y301.663 Z-8.097 I0. J0.163
G1 X190.135 Z-8.221
X184.387
G3 Y301.337 I0. J-0.163
G1 X212.366
G3 Y301.663 I0. J0.163
G1 X190.135
X184.387 Z-8.253
G3 Y301.337 Z-8.255 I0. J-0.163
G1 X212.366 Z-8.411
G3 Y301.663 Z-8.414 I0. J0.163
G1 X190.372 Z-8.537
X184.387
G3 Y301.337 I0. J-0.163
G1 X212.366
G3 Y301.663 I0. J0.163
G1 X190.372
X184.387 Z-8.57
G3 Y301.337 Z-8.573 I0. J-0.163
G1 X212.366 Z-8.729
G3 Y301.663 Z-8.732 I0. J0.163
G1 X190.61 Z-8.853
X184.387
G3 Y301.337 I0. J-0.163
G1 X212.366
G3 Y301.663 I0. J0.163
G1 X190.61
X184.387 Z-8.888
G3 Y301.337 Z-8.89 I0. J-0.163
G1 X212.366 Z-9.046
G3 Y301.663 Z-9.049 I0. J0.163
G1 X190.847 Z-9.169
X184.387
G3 Y301.337 I0. J-0.163
G1 X212.366
G3 Y301.663 I0. J0.163
G1 X190.847
X184.387 Z-9.205
G3 Y301.337 Z-9.208 I0. J-0.163
G1 X212.366 Z-9.364
G3 Y301.663 Z-9.367 I0. J0.163
G1 X191.085 Z-9.485
X184.387
G3 Y301.337 I0. J-0.163
G1 X212.366
G3 Y301.663 I0. J0.163
G1 X191.085
X184.387 Z-9.523
G3 Y301.337 Z-9.525 I0. J-0.163
G1 X212.366 Z-9.681
G3 Y301.663 Z-9.684 I0. J0.163
G1 X191.322 Z-9.801
X184.387
G3 Y301.337 I0. J-0.163
G1 X212.366
G3 Y301.663 I0. J0.163
G1 X191.322
X184.387 Z-9.84
G3 Y301.337 Z-9.843 I0. J-0.163
G1 X212.366 Z-9.999
G3 Y301.663 Z-10.002 I0. J0.163
G1 X191.56 Z-10.118
X184.387
G3 Y301.337 I0. J-0.163
G1 X212.366
G3 Y301.663 I0. J0.163
G1 X191.56
X184.387 Z-10.158
G3 Y301.337 Z-10.16 I0. J-0.163
G1 X212.366 Z-10.316
G3 Y301.663 Z-10.319 I0. J0.163
G1 X191.797 Z-10.434
X184.387
G3 Y301.337 I0. J-0.163
G1 X212.366
G3 Y301.663 I0. J0.163
G1 X191.797
X184.387 Z-10.475
G3 Y301.337 Z-10.478 I0. J-0.163
G1 X212.366 Z-10.634
G3 Y301.663 Z-10.637 I0. J0.163
G1 X192.035 Z-10.75
X184.387
G3 Y301.337 I0. J-0.163
G1 X212.366
G3 Y301.663 I0. J0.163
G1 X192.035
X184.387 Z-10.793
G3 Y301.337 Z-10.795 I0. J-0.163
G1 X212.366 Z-10.951
G3 Y301.663 Z-10.954 I0. J0.163
G1 X192.272 Z-11.066
X184.387
G3 Y301.337 I0. J-0.163
G1 X212.366
G3 Y301.663 I0. J0.163
G1 X192.272
X184.387 Z-11.11
G3 Y301.337 Z-11.113 I0. J-0.163
G1 X212.366 Z-11.269
G3 Y301.663 Z-11.272 I0. J0.163
G1 X192.51 Z-11.382
X184.387
G3 Y301.337 I0. J-0.163
G1 X212.366
G3 Y301.663 I0. J0.163
G1 X192.51
X184.387 Z-11.428
G3 Y301.337 Z-11.43 I0. J-0.163
G1 X212.366 Z-11.586
G3 Y301.663 Z-11.589 I0. J0.163
G1 X192.747 Z-11.699
X184.387
G3 Y301.337 I0. J-0.163
G1 X212.366
G3 Y301.663 I0. J0.163
G1 X192.747
X184.387 Z-11.745
G3 Y301.337 Z-11.748 I0. J-0.163
G1 X212.366 Z-11.904
G3 Y301.663 Z-11.907 I0. J0.163
G1 X192.985 Z-12.015
X184.387
G3 Y301.337 I0. J-0.163
G1 X212.366
G3 Y301.663 I0. J0.163
G1 X192.985
X184.387 Z-12.063
G3 Y301.337 Z-12.065 I0. J-0.163
G1 X212.366 Z-12.221
G3 Y301.663 Z-12.224 I0. J0.163
G1 X193.222 Z-12.331
X184.387
G3 Y301.337 I0. J-0.163
G1 X212.366
G3 Y301.663 I0. J0.163
G1 X193.222
X184.387 Z-12.38
G3 Y301.337 Z-12.383 I0. J-0.163
G1 X212.366 Z-12.539
G3 Y301.663 Z-12.542 I0. J0.163
G1 X193.46 Z-12.647
X184.387
G3 Y301.337 I0. J-0.163
G1 X212.366
G3 Y301.663 I0. J0.163
G1 X193.46
X184.387 Z-12.698
G3 Y301.337 Z-12.7 I0. J-0.163
G1 X212.366 Z-12.856
G3 Y301.663 Z-12.859 I0. J0.163
G1 X193.697 Z-12.963
X184.387
G3 Y301.337 I0. J-0.163
G1 X212.366
G3 Y301.663 I0. J0.163
G1 X193.697
X184.387 Z-13.015
G3 Y301.337 Z-13.018 I0. J-0.163
G1 X212.366 Z-13.174
G3 Y301.663 Z-13.177 I0. J0.163
G1 X193.935 Z-13.279
X184.387
G3 Y301.337 I0. J-0.163
G1 X212.366
G3 Y301.663 I0. J0.163
G1 X193.935
X184.387 Z-13.333
G3 Y301.337 Z-13.335 I0. J-0.163
G1 X212.366 Z-13.491
G3 Y301.663 Z-13.494 I0. J0.163
G1 X194.172 Z-13.596
X184.387
G3 Y301.337 I0. J-0.163
G1 X212.366
G3 Y301.663 I0. J0.163
G1 X194.172
X184.387 Z-13.65
G3 Y301.337 Z-13.653 I0. J-0.163
G1 X212.366 Z-13.809
G3 Y301.663 Z-13.812 I0. J0.163
G1 X194.41 Z-13.912
X184.387
G3 Y301.337 I0. J-0.163
G1 X212.366
G3 Y301.663 I0. J0.163
G1 X194.41
X184.387 Z-13.968
G3 Y301.337 Z-13.97 I0. J-0.163
G1 X212.366 Z-14.126
G3 Y301.663 Z-14.129 I0. J0.163
G1 X194.647 Z-14.228
X184.387
G3 Y301.337 I0. J-0.163
G1 X212.366
G3 Y301.663 I0. J0.163
G1 X194.647
X184.387 Z-14.285
G3 Y301.337 Z-14.288 I0. J-0.163
G1 X212.366 Z-14.444
G3 Y301.663 Z-14.447 I0. J0.163
G1 X194.885 Z-14.544
X184.387
G3 Y301.337 I0. J-0.163
G1 X212.366
G3 Y301.663 I0. J0.163
G1 X194.885
X184.387 Z-14.603
G3 Y301.337 Z-14.605 I0. J-0.163
G1 X212.366 Z-14.761
G3 Y301.663 Z-14.764 I0. J0.163
G1 X195.123 Z-14.86
X184.387
G3 Y301.337 I0. J-0.163
G1 X212.366
G3 Y301.663 I0. J0.163
G1 X195.123
X184.387 Z-14.92
G3 Y301.337 Z-14.923 I0. J-0.163
G1 X212.366 Z-15.079
G3 Y301.663 Z-15.082 I0. J0.163
G1 X195.36 Z-15.176
X184.387
G3 Y301.337 I0. J-0.163
G1 X212.366
G3 Y301.663 I0. J0.163
G1 X195.36
X184.387 Z-15.238
G3 Y301.337 Z-15.24 I0. J-0.163
G1 X212.366 Z-15.396
G3 Y301.663 Z-15.399 I0. J0.163
G1 X195.598 Z-15.493
X184.387
G3 Y301.337 I0. J-0.163
G1 X212.366
G3 Y301.663 I0. J0.163
G1 X195.598
X184.387 Z-15.555
G3 Y301.337 Z-15.558 I0. J-0.163
G1 X212.366 Z-15.714
G3 Y301.663 Z-15.717 I0. J0.163
G1 X195.835 Z-15.809
X184.387
G3 Y301.337 I0. J-0.163
G1 X212.366
G3 Y301.663 I0. J0.163
G1 X195.835
X184.387 Z-15.873
G3 Y301.337 Z-15.875 I0. J-0.163
G1 X212.366 Z-16.031
G3 Y301.663 Z-16.034 I0. J0.163
G1 X196.073 Z-16.125
X184.387
G3 Y301.337 I0. J-0.163
G1 X212.366
G3 Y301.663 I0. J0.163
G1 X196.073
X184.387 Z-16.19
G3 Y301.337 Z-16.193 I0. J-0.163
G1 X212.366 Z-16.349
G3 Y301.663 Z-16.352 I0. J0.163
G1 X196.31 Z-16.441
X184.387
G3 Y301.337 I0. J-0.163
G1 X212.366
G3 Y301.663 I0. J0.163
G1 X196.31
X184.387 Z-16.508
G3 Y301.337 Z-16.51 I0. J-0.163
G1 X212.366 Z-16.666
G3 Y301.663 Z-16.669 I0. J0.163
G1 X196.548 Z-16.757
X184.387
G3 Y301.337 I0. J-0.163
G1 X212.366
G3 Y301.663 I0. J0.163
G1 X196.548
X184.387 Z-16.825
G3 Y301.337 Z-16.828 I0. J-0.163
G1 X212.366 Z-16.984
G3 Y301.663 Z-16.987 I0. J0.163
G1 X196.785 Z-17.074
X184.387
G3 Y301.337 I0. J-0.163
G1 X212.366
G3 Y301.663 I0. J0.163
G1 X196.785
X184.387 Z-17.143
G3 Y301.337 Z-17.145 I0. J-0.163
G1 X212.366 Z-17.301
G3 Y301.663 Z-17.304 I0. J0.163
G1 X197.023 Z-17.39
X184.387
G3 Y301.337 I0. J-0.163
G1 X212.366
G3 Y301.663 I0. J0.163
G1 X197.023
X184.387 Z-17.46
G3 Y301.337 Z-17.463 I0. J-0.163
G1 X212.366 Z-17.619
G3 Y301.663 Z-17.622 I0. J0.163
G1 X197.26 Z-17.706
X184.387
G3 Y301.337 I0. J-0.163
G1 X212.366
G3 Y301.663 I0. J0.163
G1 X197.26
X184.387 Z-17.778
G3 Y301.337 Z-17.78 I0. J-0.163
G1 X212.366 Z-17.936
G3 Y301.663 Z-17.939 I0. J0.163
G1 X197.498 Z-18.022
X184.387
G3 Y301.337 I0. J-0.163
G1 X212.366
G3 Y301.663 I0. J0.163
G1 X197.498
X184.387 Z-18.095
G3 Y301.337 Z-18.098 I0. J-0.163
G1 X212.366 Z-18.254
G3 Y301.663 Z-18.257 I0. J0.163
G1 X197.735 Z-18.338
X184.387
G3 Y301.337 I0. J-0.163
G1 X212.366
G3 Y301.663 I0. J0.163
G1 X197.735
X184.387 Z-18.413
G3 Y301.337 Z-18.415 I0. J-0.163
G1 X212.366 Z-18.571
G3 Y301.663 Z-18.574 I0. J0.163
G1 X197.973 Z-18.654
X184.387
G3 Y301.337 I0. J-0.163
G1 X212.366
G3 Y301.663 I0. J0.163
G1 X197.973
X184.387 Z-18.73
G3 Y301.337 Z-18.733 I0. J-0.163
G1 X212.366 Z-18.889
G3 Y301.663 Z-18.892 I0. J0.163
G1 X198.21 Z-18.971
X184.387
G3 Y301.337 I0. J-0.163
G1 X212.366
G3 Y301.663 I0. J0.163
G1 X198.21
X184.387 Z-19.048
G3 Y301.337 Z-19.05 I0. J-0.163
G1 X212.366 Z-19.206
G3 Y301.663 Z-19.209 I0. J0.163
G1 X198.448 Z-19.287
X184.387
G3 Y301.337 I0. J-0.163
G1 X212.366
G3 Y301.663 I0. J0.163
G1 X198.448
X184.387 Z-19.365
G3 Y301.337 Z-19.368 I0. J-0.163
G1 X212.366 Z-19.524
G3 Y301.663 Z-19.527 I0. J0.163
G1 X198.685 Z-19.603
X184.387
G3 Y301.337 I0. J-0.163
G1 X212.366
G3 Y301.663 I0. J0.163
G1 X198.685
X184.387 Z-19.683
G3 Y301.337 Z-19.685 I0. J-0.163
G1 X212.366 Z-19.841
G3 Y301.663 Z-19.844 I0. J0.163
G1 X198.923 Z-19.919
X184.387
G3 Y301.337 I0. J-0.163
G1 X212.366
G3 Y301.663 I0. J0.163
G1 X198.923
X184.387 Z-20.
G3 Y301.337 Z-20.003 I0. J-0.163
G1 X212.366 Z-20.159
G3 Y301.663 Z-20.162 I0. J0.163
G1 X199.16 Z-20.235
X184.387
G3 Y301.337 I0. J-0.163
G1 X212.366
G3 Y301.663 I0. J0.163
G1 X199.16
X184.387 Z-20.318
G3 Y301.337 Z-20.32 I0. J-0.163
G1 X212.366 Z-20.476
G3 Y301.663 Z-20.479 I0. J0.163
G1 X199.398 Z-20.551
X184.387
G3 Y301.337 I0. J-0.163
G1 X212.366
G3 Y301.663 I0. J0.163
G1 X199.398
X184.387 Z-20.635
G3 Y301.337 Z-20.638 I0. J-0.163
G1 X212.366 Z-20.794
G3 Y301.663 Z-20.797 I0. J0.163
G1 X199.635 Z-20.868
X184.387
G3 Y301.337 I0. J-0.163
G1 X212.366
G3 Y301.663 I0. J0.163
G1 X199.635
X184.387 Z-20.953
G3 Y301.337 Z-20.955 I0. J-0.163
G1 X212.366 Z-21.111
G3 Y301.663 Z-21.114 I0. J0.163
G1 X199.873 Z-21.184
X184.387
G3 Y301.337 I0. J-0.163
G1 X212.366
G3 Y301.663 I0. J0.163
G1 X199.873
X184.387 Z-21.27
G3 Y301.337 Z-21.273 I0. J-0.163
G1 X212.366 Z-21.429
G3 Y301.663 Z-21.432 I0. J0.163
G1 X200.111 Z-21.5
X184.387
G3 Y301.337 I0. J-0.163
G1 X212.366
G3 Y301.663 I0. J0.163
G1 X200.111
G18 G3 X199.793 Z-21.183 I0. K0.317
G0 Z5.
X191.167 Y24.337
G1 Z2.817 F534.
G2 X191.483 Z2.5 I0.318 K0. F1068.
G1 X212.366 Z2.384
G17 G3 Y24.663 Z2.381 I0. J0.163
G1 X184.387 Z2.225
G3 Y24.337 Z2.222 I0. J-0.163
G1 X212.366 Z2.066
G3 Y24.663 Z2.063 I0. J0.163
G1 X184.387 Z1.907
G3 Y24.337 Z1.905 I0. J-0.163
G1 X212.366 Z1.749
G3 Y24.663 Z1.746 I0. J0.163
G1 X184.387 Z1.59
G3 Y24.337 Z1.587 I0. J-0.163
G1 X212.366 Z1.431
G3 Y24.663 Z1.428 I0. J0.163
G1 X184.387 Z1.272
G3 Y24.337 Z1.27 I0. J-0.163
G1 X212.366 Z1.114
G3 Y24.663 Z1.111 I0. J0.163
G1 X184.387 Z0.955
G3 Y24.337 Z0.952 I0. J-0.163
G1 X212.366 Z0.796
G3 Y24.663 Z0.793 I0. J0.163
G1 X184.387 Z0.637
G3 Y24.337 Z0.635 I0. J-0.163
G1 X212.366 Z0.479
G3 Y24.663 Z0.476 I0. J0.163
G1 X184.387 Z0.32
G3 Y24.337 Z0.317 I0. J-0.163
G1 X212.366 Z0.161
G3 Y24.663 Z0.158 I0. J0.163
G1 X184.387 Z0.002
G3 Y24.337 Z0. I0. J-0.163
G1 X212.366 Z-0.156
G3 Y24.663 Z-0.159 I0. J0.163
G1 X184.387 Z-0.315
X184.34 Y24.656
X184.297 Y24.635 Z-0.316
X184.262 Y24.604
X184.237 Y24.563
G3 X184.387 Y24.337 I0.15 J-0.063
G1 X212.366
G3 Y24.663 I0. J0.163
G1 X184.387
X184.34 Y24.656
X184.297 Y24.635
X184.262 Y24.604
X184.237 Y24.563
G3 X184.387 Y24.337 Z-0.318 I0.15 J-0.063
G1 X212.366 Z-0.474
G3 Y24.663 Z-0.477 I0. J0.163
G1 X184.434 Z-0.632
X184.387
G3 Y24.337 I0. J-0.163
G1 X212.366
G3 Y24.663 I0. J0.163
G1 X184.434
X184.387 Z-0.633
G3 Y24.337 Z-0.635 I0. J-0.163
G1 X212.366 Z-0.791
G3 Y24.663 Z-0.794 I0. J0.163
G1 X184.672 Z-0.949
X184.434
X184.387
G3 Y24.337 I0. J-0.163
G1 X212.366
G3 Y24.663 I0. J0.163
G1 X184.672
X184.387 Z-0.95
G3 Y24.337 Z-0.953 I0. J-0.163
G1 X212.366 Z-1.109
G3 Y24.663 Z-1.112 I0. J0.163
G1 X184.909 Z-1.265
X184.387
G3 Y24.337 I0. J-0.163
G1 X212.366
G3 Y24.663 I0. J0.163
G1 X184.909
X184.387 Z-1.268
G3 Y24.337 Z-1.27 I0. J-0.163
G1 X212.366 Z-1.426
G3 Y24.663 Z-1.429 I0. J0.163
G1 X185.147 Z-1.581
X184.387
G3 Y24.337 I0. J-0.163
G1 X212.366
G3 Y24.663 I0. J0.163
G1 X185.147
X184.387 Z-1.585
G3 Y24.337 Z-1.588 I0. J-0.163
G1 X212.366 Z-1.744
G3 Y24.663 Z-1.747 I0. J0.163
G1 X185.384 Z-1.897
X184.387
G3 Y24.337 I0. J-0.163
G1 X212.366
G3 Y24.663 I0. J0.163
G1 X185.384
X184.387 Z-1.903
G3 Y24.337 Z-1.905 I0. J-0.163
G1 X212.366 Z-2.061
G3 Y24.663 Z-2.064 I0. J0.163
G1 X185.622 Z-2.213
X184.387
G3 Y24.337 I0. J-0.163
G1 X212.366
G3 Y24.663 I0. J0.163
G1 X185.622
X184.387 Z-2.22
G3 Y24.337 Z-2.223 I0. J-0.163
G1 X212.366 Z-2.379
G3 Y24.663 Z-2.382 I0. J0.163
G1 X185.859 Z-2.529
X184.387
G3 Y24.337 I0. J-0.163
G1 X212.366
G3 Y24.663 I0. J0.163
G1 X185.859
X184.387 Z-2.538
G3 Y24.337 Z-2.54 I0. J-0.163
G1 X212.366 Z-2.696
G3 Y24.663 Z-2.699 I0. J0.163
G1 X186.097 Z-2.846
X184.387
G3 Y24.337 I0. J-0.163
G1 X212.366
G3 Y24.663 I0. J0.163
G1 X186.097
X184.387 Z-2.855
G3 Y24.337 Z-2.858 I0. J-0.163
G1 X212.366 Z-3.014
G3 Y24.663 Z-3.017 I0. J0.163
G1 X186.334 Z-3.162
X184.387
G3 Y24.337 I0. J-0.163
G1 X212.366
G3 Y24.663 I0. J0.163
G1 X186.334
X184.387 Z-3.173
G3 Y24.337 Z-3.175 I0. J-0.163
G1 X212.366 Z-3.331
G3 Y24.663 Z-3.334 I0. J0.163
G1 X186.572 Z-3.478
X184.387
G3 Y24.337 I0. J-0.163
G1 X212.366
G3 Y24.663 I0. J0.163
G1 X186.572
X184.387 Z-3.49
G3 Y24.337 Z-3.493 I0. J-0.163
G1 X212.366 Z-3.649
G3 Y24.663 Z-3.652 I0. J0.163
G1 X186.809 Z-3.794
X184.387
G3 Y24.337 I0. J-0.163
G1 X212.366
G3 Y24.663 I0. J0.163
G1 X186.809
X184.387 Z-3.808
G3 Y24.337 Z-3.81 I0. J-0.163
G1 X212.366 Z-3.966
G3 Y24.663 Z-3.969 I0. J0.163
G1 X187.047 Z-4.11
X184.387
G3 Y24.337 I0. J-0.163
G1 X212.366
G3 Y24.663 I0. J0.163
G1 X187.047
X184.387 Z-4.125
G3 Y24.337 Z-4.128 I0. J-0.163
G1 X212.366 Z-4.284
G3 Y24.663 Z-4.287 I0. J0.163
G1 X187.284 Z-4.426
X184.387
G3 Y24.337 I0. J-0.163
G1 X212.366
G3 Y24.663 I0. J0.163
G1 X187.284
X184.387 Z-4.443
G3 Y24.337 Z-4.445 I0. J-0.163
G1 X212.366 Z-4.601
G3 Y24.663 Z-4.604 I0. J0.163
G1 X187.522 Z-4.743
X184.387
G3 Y24.337 I0. J-0.163
G1 X212.366
G3 Y24.663 I0. J0.163
G1 X187.522
X184.387 Z-4.76
G3 Y24.337 Z-4.763 I0. J-0.163
G1 X212.366 Z-4.919
G3 Y24.663 Z-4.922 I0. J0.163
G1 X187.759 Z-5.059
X184.387
G3 Y24.337 I0. J-0.163
G1 X212.366
G3 Y24.663 I0. J0.163
G1 X187.759
X184.387 Z-5.078
G3 Y24.337 Z-5.08 I0. J-0.163
G1 X212.366 Z-5.236
G3 Y24.663 Z-5.239 I0. J0.163
G1 X187.997 Z-5.375
X184.387
G3 Y24.337 I0. J-0.163
G1 X212.366
G3 Y24.663 I0. J0.163
G1 X187.997
X184.387 Z-5.395
G3 Y24.337 Z-5.398 I0. J-0.163
G1 X212.366 Z-5.554
G3 Y24.663 Z-5.557 I0. J0.163
G1 X188.234 Z-5.691
X184.387
G3 Y24.337 I0. J-0.163
G1 X212.366
G3 Y24.663 I0. J0.163
G1 X188.234
X184.387 Z-5.713
G3 Y24.337 Z-5.715 I0. J-0.163
G1 X212.366 Z-5.871
G3 Y24.663 Z-5.874 I0. J0.163
G1 X188.472 Z-6.007
X184.387
G3 Y24.337 I0. J-0.163
G1 X212.366
G3 Y24.663 I0. J0.163
G1 X188.472
X184.387 Z-6.03
G3 Y24.337 Z-6.033 I0. J-0.163
G1 X212.366 Z-6.189
G3 Y24.663 Z-6.192 I0. J0.163
G1 X188.709 Z-6.324
X184.387
G3 Y24.337 I0. J-0.163
G1 X212.366
G3 Y24.663 I0. J0.163
G1 X188.709
X184.387 Z-6.348
G3 Y24.337 Z-6.35 I0. J-0.163
G1 X212.366 Z-6.506
G3 Y24.663 Z-6.509 I0. J0.163
G1 X188.947 Z-6.64
X184.387
G3 Y24.337 I0. J-0.163
G1 X212.366
G3 Y24.663 I0. J0.163
G1 X188.947
X184.387 Z-6.665
G3 Y24.337 Z-6.668 I0. J-0.163
G1 X212.366 Z-6.824
G3 Y24.663 Z-6.827 I0. J0.163
G1 X189.184 Z-6.956
X184.387
G3 Y24.337 I0. J-0.163
G1 X212.366
G3 Y24.663 I0. J0.163
G1 X189.184
X184.387 Z-6.983
G3 Y24.337 Z-6.985 I0. J-0.163
G1 X212.366 Z-7.141
G3 Y24.663 Z-7.144 I0. J0.163
G1 X189.422 Z-7.272
X184.387
G3 Y24.337 I0. J-0.163
G1 X212.366
G3 Y24.663 I0. J0.163
G1 X189.422
X184.387 Z-7.3
G3 Y24.337 Z-7.303 I0. J-0.163
G1 X212.366 Z-7.459
G3 Y24.663 Z-7.462 I0. J0.163
G1 X189.66 Z-7.588
X184.387
G3 Y24.337 I0. J-0.163
G1 X212.366
G3 Y24.663 I0. J0.163
G1 X189.66
X184.387 Z-7.618
G3 Y24.337 Z-7.62 I0. J-0.163
G1 X212.366 Z-7.776
G3 Y24.663 Z-7.779 I0. J0.163
G1 X189.897 Z-7.904
X184.387
G3 Y24.337 I0. J-0.163
G1 X212.366
G3 Y24.663 I0. J0.163
G1 X189.897
X184.387 Z-7.935
G3 Y24.337 Z-7.938 I0. J-0.163
G1 X212.366 Z-8.094
G3 Y24.663 Z-8.097 I0. J0.163
G1 X190.135 Z-8.221
X184.387
G3 Y24.337 I0. J-0.163
G1 X212.366
G3 Y24.663 I0. J0.163
G1 X190.135
X184.387 Z-8.253
G3 Y24.337 Z-8.255 I0. J-0.163
G1 X212.366 Z-8.411
G3 Y24.663 Z-8.414 I0. J0.163
G1 X190.372 Z-8.537
X184.387
G3 Y24.337 I0. J-0.163
G1 X212.366
G3 Y24.663 I0. J0.163
G1 X190.372
X184.387 Z-8.57
G3 Y24.337 Z-8.573 I0. J-0.163
G1 X212.366 Z-8.729
G3 Y24.663 Z-8.732 I0. J0.163
G1 X190.61 Z-8.853
X184.387
G3 Y24.337 I0. J-0.163
G1 X212.366
G3 Y24.663 I0. J0.163
G1 X190.61
X184.387 Z-8.888
G3 Y24.337 Z-8.89 I0. J-0.163
G1 X212.366 Z-9.046
G3 Y24.663 Z-9.049 I0. J0.163
G1 X190.847 Z-9.169
X184.387
G3 Y24.337 I0. J-0.163
G1 X212.366
G3 Y24.663 I0. J0.163
G1 X190.847
X184.387 Z-9.205
G3 Y24.337 Z-9.208 I0. J-0.163
G1 X212.366 Z-9.364
G3 Y24.663 Z-9.367 I0. J0.163
G1 X191.085 Z-9.485
X184.387
G3 Y24.337 I0. J-0.163
G1 X212.366
G3 Y24.663 I0. J0.163
G1 X191.085
X184.387 Z-9.523
G3 Y24.337 Z-9.525 I0. J-0.163
G1 X212.366 Z-9.681
G3 Y24.663 Z-9.684 I0. J0.163
G1 X191.322 Z-9.801
X184.387
G3 Y24.337 I0. J-0.163
G1 X212.366
G3 Y24.663 I0. J0.163
G1 X191.322
X184.387 Z-9.84
G3 Y24.337 Z-9.843 I0. J-0.163
G1 X212.366 Z-9.999
G3 Y24.663 Z-10.002 I0. J0.163
G1 X191.56 Z-10.118
X184.387
G3 Y24.337 I0. J-0.163
G1 X212.366
G3 Y24.663 I0. J0.163
G1 X191.56
X184.387 Z-10.158
G3 Y24.337 Z-10.16 I0. J-0.163
G1 X212.366 Z-10.316
G3 Y24.663 Z-10.319 I0. J0.163
G1 X191.797 Z-10.434
X184.387
G3 Y24.337 I0. J-0.163
G1 X212.366
G3 Y24.663 I0. J0.163
G1 X191.797
X184.387 Z-10.475
G3 Y24.337 Z-10.478 I0. J-0.163
G1 X212.366 Z-10.634
G3 Y24.663 Z-10.637 I0. J0.163
G1 X192.035 Z-10.75
X184.387
G3 Y24.337 I0. J-0.163
G1 X212.366
G3 Y24.663 I0. J0.163
G1 X192.035
X184.387 Z-10.793
G3 Y24.337 Z-10.795 I0. J-0.163
G1 X212.366 Z-10.951
G3 Y24.663 Z-10.954 I0. J0.163
G1 X192.272 Z-11.066
X184.387
G3 Y24.337 I0. J-0.163
G1 X212.366
G3 Y24.663 I0. J0.163
G1 X192.272
X184.387 Z-11.11
G3 Y24.337 Z-11.113 I0. J-0.163
G1 X212.366 Z-11.269
G3 Y24.663 Z-11.272 I0. J0.163
G1 X192.51 Z-11.382
X184.387
G3 Y24.337 I0. J-0.163
G1 X212.366
G3 Y24.663 I0. J0.163
G1 X192.51
X184.387 Z-11.428
G3 Y24.337 Z-11.43 I0. J-0.163
G1 X212.366 Z-11.586
G3 Y24.663 Z-11.589 I0. J0.163
G1 X192.747 Z-11.699
X184.387
G3 Y24.337 I0. J-0.163
G1 X212.366
G3 Y24.663 I0. J0.163
G1 X192.747
X184.387 Z-11.745
G3 Y24.337 Z-11.748 I0. J-0.163
G1 X212.366 Z-11.904
G3 Y24.663 Z-11.907 I0. J0.163
G1 X192.985 Z-12.015
X184.387
G3 Y24.337 I0. J-0.163
G1 X212.366
G3 Y24.663 I0. J0.163
G1 X192.985
X184.387 Z-12.063
G3 Y24.337 Z-12.065 I0. J-0.163
G1 X212.366 Z-12.221
G3 Y24.663 Z-12.224 I0. J0.163
G1 X193.222 Z-12.331
X184.387
G3 Y24.337 I0. J-0.163
G1 X212.366
G3 Y24.663 I0. J0.163
G1 X193.222
X184.387 Z-12.38
G3 Y24.337 Z-12.383 I0. J-0.163
G1 X212.366 Z-12.539
G3 Y24.663 Z-12.542 I0. J0.163
G1 X193.46 Z-12.647
X184.387
G3 Y24.337 I0. J-0.163
G1 X212.366
G3 Y24.663 I0. J0.163
G1 X193.46
X184.387 Z-12.698
G3 Y24.337 Z-12.7 I0. J-0.163
G1 X212.366 Z-12.856
G3 Y24.663 Z-12.859 I0. J0.163
G1 X193.697 Z-12.963
X184.387
G3 Y24.337 I0. J-0.163
G1 X212.366
G3 Y24.663 I0. J0.163
G1 X193.697
X184.387 Z-13.015
G3 Y24.337 Z-13.018 I0. J-0.163
G1 X212.366 Z-13.174
G3 Y24.663 Z-13.177 I0. J0.163
G1 X193.935 Z-13.279
X184.387
G3 Y24.337 I0. J-0.163
G1 X212.366
G3 Y24.663 I0. J0.163
G1 X193.935
X184.387 Z-13.333
G3 Y24.337 Z-13.335 I0. J-0.163
G1 X212.366 Z-13.491
G3 Y24.663 Z-13.494 I0. J0.163
G1 X194.172 Z-13.596
X184.387
G3 Y24.337 I0. J-0.163
G1 X212.366
G3 Y24.663 I0. J0.163
G1 X194.172
X184.387 Z-13.65
G3 Y24.337 Z-13.653 I0. J-0.163
G1 X212.366 Z-13.809
G3 Y24.663 Z-13.812 I0. J0.163
G1 X194.41 Z-13.912
X184.387
G3 Y24.337 I0. J-0.163
G1 X212.366
G3 Y24.663 I0. J0.163
G1 X194.41
X184.387 Z-13.968
G3 Y24.337 Z-13.97 I0. J-0.163
G1 X212.366 Z-14.126
G3 Y24.663 Z-14.129 I0. J0.163
G1 X194.647 Z-14.228
X184.387
G3 Y24.337 I0. J-0.163
G1 X212.366
G3 Y24.663 I0. J0.163
G1 X194.647
X184.387 Z-14.285
G3 Y24.337 Z-14.288 I0. J-0.163
G1 X212.366 Z-14.444
G3 Y24.663 Z-14.447 I0. J0.163
G1 X194.885 Z-14.544
X184.387
G3 Y24.337 I0. J-0.163
G1 X212.366
G3 Y24.663 I0. J0.163
G1 X194.885
X184.387 Z-14.603
G3 Y24.337 Z-14.605 I0. J-0.163
G1 X212.366 Z-14.761
G3 Y24.663 Z-14.764 I0. J0.163
G1 X195.123 Z-14.86
X184.387
G3 Y24.337 I0. J-0.163
G1 X212.366
G3 Y24.663 I0. J0.163
G1 X195.123
X184.387 Z-14.92
G3 Y24.337 Z-14.923 I0. J-0.163
G1 X212.366 Z-15.079
G3 Y24.663 Z-15.082 I0. J0.163
G1 X195.36 Z-15.176
X184.387
G3 Y24.337 I0. J-0.163
G1 X212.366
G3 Y24.663 I0. J0.163
G1 X195.36
X184.387 Z-15.238
G3 Y24.337 Z-15.24 I0. J-0.163
G1 X212.366 Z-15.396
G3 Y24.663 Z-15.399 I0. J0.163
G1 X195.598 Z-15.493
X184.387
G3 Y24.337 I0. J-0.163
G1 X212.366
G3 Y24.663 I0. J0.163
G1 X195.598
X184.387 Z-15.555
G3 Y24.337 Z-15.558 I0. J-0.163
G1 X212.366 Z-15.714
G3 Y24.663 Z-15.717 I0. J0.163
G1 X195.835 Z-15.809
X184.387
G3 Y24.337 I0. J-0.163
G1 X212.366
G3 Y24.663 I0. J0.163
G1 X195.835
X184.387 Z-15.873
G3 Y24.337 Z-15.875 I0. J-0.163
G1 X212.366 Z-16.031
G3 Y24.663 Z-16.034 I0. J0.163
G1 X196.073 Z-16.125
X184.387
G3 Y24.337 I0. J-0.163
G1 X212.366
G3 Y24.663 I0. J0.163
G1 X196.073
X184.387 Z-16.19
G3 Y24.337 Z-16.193 I0. J-0.163
G1 X212.366 Z-16.349
G3 Y24.663 Z-16.352 I0. J0.163
G1 X196.31 Z-16.441
X184.387
G3 Y24.337 I0. J-0.163
G1 X212.366
G3 Y24.663 I0. J0.163
G1 X196.31
X184.387 Z-16.508
G3 Y24.337 Z-16.51 I0. J-0.163
G1 X212.366 Z-16.666
G3 Y24.663 Z-16.669 I0. J0.163
G1 X196.548 Z-16.757
X184.387
G3 Y24.337 I0. J-0.163
G1 X212.366
G3 Y24.663 I0. J0.163
G1 X196.548
X184.387 Z-16.825
G3 Y24.337 Z-16.828 I0. J-0.163
G1 X212.366 Z-16.984
G3 Y24.663 Z-16.987 I0. J0.163
G1 X196.785 Z-17.074
X184.387
G3 Y24.337 I0. J-0.163
G1 X212.366
G3 Y24.663 I0. J0.163
G1 X196.785
X184.387 Z-17.143
G3 Y24.337 Z-17.145 I0. J-0.163
G1 X212.366 Z-17.301
G3 Y24.663 Z-17.304 I0. J0.163
G1 X197.023 Z-17.39
X184.387
G3 Y24.337 I0. J-0.163
G1 X212.366
G3 Y24.663 I0. J0.163
G1 X197.023
X184.387 Z-17.46
G3 Y24.337 Z-17.463 I0. J-0.163
G1 X212.366 Z-17.619
G3 Y24.663 Z-17.622 I0. J0.163
G1 X197.26 Z-17.706
X184.387
G3 Y24.337 I0. J-0.163
G1 X212.366
G3 Y24.663 I0. J0.163
G1 X197.26
X184.387 Z-17.778
G3 Y24.337 Z-17.78 I0. J-0.163
G1 X212.366 Z-17.936
G3 Y24.663 Z-17.939 I0. J0.163
G1 X197.498 Z-18.022
X184.387
G3 Y24.337 I0. J-0.163
G1 X212.366
G3 Y24.663 I0. J0.163
G1 X197.498
X184.387 Z-18.095
G3 Y24.337 Z-18.098 I0. J-0.163
G1 X212.366 Z-18.254
G3 Y24.663 Z-18.257 I0. J0.163
G1 X197.735 Z-18.338
X184.387
G3 Y24.337 I0. J-0.163
G1 X212.366
G3 Y24.663 I0. J0.163
G1 X197.735
X184.387 Z-18.413
G3 Y24.337 Z-18.415 I0. J-0.163
G1 X212.366 Z-18.571
G3 Y24.663 Z-18.574 I0. J0.163
G1 X197.973 Z-18.654
X184.387
G3 Y24.337 I0. J-0.163
G1 X212.366
G3 Y24.663 I0. J0.163
G1 X197.973
X184.387 Z-18.73
G3 Y24.337 Z-18.733 I0. J-0.163
G1 X212.366 Z-18.889
G3 Y24.663 Z-18.892 I0. J0.163
G1 X198.21 Z-18.971
X184.387
G3 Y24.337 I0. J-0.163
G1 X212.366
G3 Y24.663 I0. J0.163
G1 X198.21
X184.387 Z-19.048
G3 Y24.337 Z-19.05 I0. J-0.163
G1 X212.366 Z-19.206
G3 Y24.663 Z-19.209 I0. J0.163
G1 X198.448 Z-19.287
X184.387
G3 Y24.337 I0. J-0.163
G1 X212.366
G3 Y24.663 I0. J0.163
G1 X198.448
X184.387 Z-19.365
G3 Y24.337 Z-19.368 I0. J-0.163
G1 X212.366 Z-19.524
G3 Y24.663 Z-19.527 I0. J0.163
G1 X198.685 Z-19.603
X184.387
G3 Y24.337 I0. J-0.163
G1 X212.366
G3 Y24.663 I0. J0.163
G1 X198.685
X184.387 Z-19.683
G3 Y24.337 Z-19.685 I0. J-0.163
G1 X212.366 Z-19.841
G3 Y24.663 Z-19.844 I0. J0.163
G1 X198.923 Z-19.919
X184.387
G3 Y24.337 I0. J-0.163
G1 X212.366
G3 Y24.663 I0. J0.163
G1 X198.923
X184.387 Z-20.
G3 Y24.337 Z-20.003 I0. J-0.163
G1 X212.366 Z-20.159
G3 Y24.663 Z-20.162 I0. J0.163
G1 X199.16 Z-20.235
X184.387
G3 Y24.337 I0. J-0.163
G1 X212.366
G3 Y24.663 I0. J0.163
G1 X199.16
X184.387 Z-20.318
G3 Y24.337 Z-20.32 I0. J-0.163
G1 X212.366 Z-20.476
G3 Y24.663 Z-20.479 I0. J0.163
G1 X199.398 Z-20.551
X184.387
G3 Y24.337 I0. J-0.163
G1 X212.366
G3 Y24.663 I0. J0.163
G1 X199.398
X184.387 Z-20.635
G3 Y24.337 Z-20.638 I0. J-0.163
G1 X212.366 Z-20.794
G3 Y24.663 Z-20.797 I0. J0.163
G1 X199.635 Z-20.868
X184.387
G3 Y24.337 I0. J-0.163
G1 X212.366
G3 Y24.663 I0. J0.163
G1 X199.635
X184.387 Z-20.953
G3 Y24.337 Z-20.955 I0. J-0.163
G1 X212.366 Z-21.111
G3 Y24.663 Z-21.114 I0. J0.163
G1 X199.873 Z-21.184
X184.387
G3 Y24.337 I0. J-0.163
G1 X212.366
G3 Y24.663 I0. J0.163
G1 X199.873
X184.387 Z-21.27
G3 Y24.337 Z-21.273 I0. J-0.163
G1 X212.366 Z-21.429
G3 Y24.663 Z-21.432 I0. J0.163
G1 X200.111 Z-21.5
X184.387
G3 Y24.337 I0. J-0.163
G1 X212.366
G3 Y24.663 I0. J0.163
G1 X200.111
G18 G3 X199.793 Z-21.183 I0. K0.317
G0 Z15.
G17

M9
M5
G28 G91 Z0.
G90
G28 G91 X0. Y0.
G90
M30
