(PERNA-R-BANCADA)
(T1 D=6. CR=0. - ZMIN=-21.5 - FLAT END MILL)
G90 G94 G91.1 G40 G49 G17
G21
G28 G91 Z0.
G90

(2D CONTOUR3)
T1 M6
S10000 M3
G17 G90 G94
G54
M8
G0 X211.941 Y205.735
G43 Z15. H1
G0 Z5.
G1 Z1. F800.
Z-1.4
G18 G2 X212.541 Z-2. I0.6 K0. F3698.
G1 X213.141
G17 G3 X213.741 Y206.335 I0. J0.6
G1 Y251.012
G3 X208.741 Y256.012 I-5. J0.
G1 X119.387
G3 X114.387 Y251.012 I0. J-5.
G1 Y74.988
G3 X119.387 Y69.988 I5. J0.
G1 X208.741
G3 X213.741 Y74.988 I0. J5.
G1 Y206.335
G3 X213.141 Y206.935 I-0.6 J0.
G1 X212.541
G18 G3 X211.941 Z-1.4 I0. K0.6
G0 Z5.
Y205.735
G1 Z-1. F800.
Z-3.4
G2 X212.541 Z-4. I0.6 K0. F3698.
G1 X213.141
G17 G3 X213.741 Y206.335 I0. J0.6
G1 Y251.012
G3 X208.741 Y256.012 I-5. J0.
G1 X119.387
G3 X114.387 Y251.012 I0. J-5.
G1 Y74.988
G3 X119.387 Y69.988 I5. J0.
G1 X208.741
G3 X213.741 Y74.988 I0. J5.
G1 Y206.335
G3 X213.141 Y206.935 I-0.6 J0.
G1 X212.541
G18 G3 X211.941 Z-3.4 I0. K0.6
G0 Z5.
Y205.735
G1 Z-3. F800.
Z-5.4
G2 X212.541 Z-6. I0.6 K0. F3698.
G1 X213.141
G17 G3 X213.741 Y206.335 I0. J0.6
G1 Y251.012
G3 X208.741 Y256.012 I-5. J0.
G1 X119.387
G3 X114.387 Y251.012 I0. J-5.
G1 Y74.988
G3 X119.387 Y69.988 I5. J0.
G1 X208.741
G3 X213.741 Y74.988 I0. J5.
G1 Y206.335
G3 X213.141 Y206.935 I-0.6 J0.
G1 X212.541
G18 G3 X211.941 Z-5.4 I0. K0.6
G0 Z5.
Y205.735
G1 Z-5. F800.
Z-7.4
G2 X212.541 Z-8. I0.6 K0. F3698.
G1 X213.141
G17 G3 X213.741 Y206.335 I0. J0.6
G1 Y251.012
G3 X208.741 Y256.012 I-5. J0.
G1 X119.387
G3 X114.387 Y251.012 I0. J-5.
G1 Y74.988
G3 X119.387 Y69.988 I5. J0.
G1 X208.741
G3 X213.741 Y74.988 I0. J5.
G1 Y206.335
G3 X213.141 Y206.935 I-0.6 J0.
G1 X212.541
G18 G3 X211.941 Z-7.4 I0. K0.6
G0 Z5.
Y205.735
G1 Z-7. F800.
Z-9.4
G2 X212.541 Z-10. I0.6 K0. F3698.
G1 X213.141
G17 G3 X213.741 Y206.335 I0. J0.6
G1 Y251.012
G3 X208.741 Y256.012 I-5. J0.
G1 X119.387
G3 X114.387 Y251.012 I0. J-5.
G1 Y74.988
G3 X119.387 Y69.988 I5. J0.
G1 X208.741
G3 X213.741 Y74.988 I0. J5.
G1 Y206.335
G3 X213.141 Y206.935 I-0.6 J0.
G1 X212.541
G18 G3 X211.941 Z-9.4 I0. K0.6
G0 Z5.
Y205.735
G1 Z-9. F800.
Z-11.4
G2 X212.541 Z-12. I0.6 K0. F3698.
G1 X213.141
G17 G3 X213.741 Y206.335 I0. J0.6
G1 Y251.012
G3 X208.741 Y256.012 I-5. J0.
G1 X119.387
G3 X114.387 Y251.012 I0. J-5.
G1 Y74.988
G3 X119.387 Y69.988 I5. J0.
G1 X208.741
G3 X213.741 Y74.988 I0. J5.
G1 Y206.335
G3 X213.141 Y206.935 I-0.6 J0.
G1 X212.541
G18 G3 X211.941 Z-11.4 I0. K0.6
G0 Z5.
Y205.735
G1 Z-11. F800.
Z-13.4
G2 X212.541 Z-14. I0.6 K0. F3698.
G1 X213.141
G17 G3 X213.741 Y206.335 I0. J0.6
G1 Y251.012
G3 X208.741 Y256.012 I-5. J0.
G1 X119.387
G3 X114.387 Y251.012 I0. J-5.
G1 Y74.988
G3 X119.387 Y69.988 I5. J0.
G1 X208.741
G3 X213.741 Y74.988 I0. J5.
G1 Y206.335
G3 X213.141 Y206.935 I-0.6 J0.
G1 X212.541
G18 G3 X211.941 Z-13.4 I0. K0.6
G0 Z5.
Y205.735
G1 Z-13. F800.
Z-15.4
G2 X212.541 Z-16. I0.6 K0. F3698.
G1 X213.141
G17 G3 X213.741 Y206.335 I0. J0.6
G1 Y251.012
G3 X208.741 Y256.012 I-5. J0.
G1 X119.387
G3 X114.387 Y251.012 I0. J-5.
G1 Y74.988
G3 X119.387 Y69.988 I5. J0.
G1 X208.741
G3 X213.741 Y74.988 I0. J5.
G1 Y206.335
G3 X213.141 Y206.935 I-0.6 J0.
G1 X212.541
G18 G3 X211.941 Z-15.4 I0. K0.6
G0 Z5.
Y205.735
G1 Z-15. F800.
Z-17.4
G2 X212.541 Z-18. I0.6 K0. F3698.
G1 X213.141
G17 G3 X213.741 Y206.335 I0. J0.6
G1 Y251.012
G3 X208.741 Y256.012 I-5. J0.
G1 X119.387
G3 X114.387 Y251.012 I0. J-5.
G1 Y74.988
G3 X119.387 Y69.988 I5. J0.
G1 X208.741
G3 X213.741 Y74.988 I0. J5.
G1 Y206.335
G3 X213.141 Y206.935 I-0.6 J0.
G1 X212.541
G18 G3 X211.941 Z-17.4 I0. K0.6
G0 Z5.
Y205.735
G1 Z-17. F800.
Z-19.4
G2 X212.541 Z-20. I0.6 K0. F3698.
G1 X213.141
G17 G3 X213.741 Y206.335 I0. J0.6
G1 Y251.012
G3 X208.741 Y256.012 I-5. J0.
G1 X119.387
G3 X114.387 Y251.012 I0. J-5.
G1 Y74.988
G3 X119.387 Y69.988 I5. J0.
G1 X208.741
G3 X213.741 Y74.988 I0. J5.
G1 Y206.335
G3 X213.141 Y206.935 I-0.6 J0.
G1 X212.541
G18 G3 X211.941 Z-19.4 I0. K0.6
G0 Z5.
Y205.735
G1 Z-19. F800.
Z-20.9
G2 X212.541 Z-21.5 I0.6 K0. F3698.
G1 X213.141
G17 G3 X213.741 Y206.335 I0. J0.6
G1 Y251.012
G3 X208.741 Y256.012 I-5. J0.
G1 X119.387
G3 X114.387 Y251.012 I0. J-5.
G1 Y74.988
G3 X119.387 Y69.988 I5. J0.
G1 X208.741
G3 X213.741 Y74.988 I0. J5.
G1 Y206.335
G3 X213.141 Y206.935 I-0.6 J0.
G1 X212.541
G18 G3 X211.941 Z-20.9 I0. K0.6
G0 Z5.
X94.221 Y136.956
G1 Z1. F800.
Z-1.4
G2 X94.821 Z-2. I0.6 K0. F3698.
G1 X95.421
G17 G3 X96.021 Y137.556 I0. J0.6
G1 Y188.444
G3 X72.021 I-12. J0.
G1 Y137.556
G3 X96.021 I12. J0.
X95.421 Y138.156 I-0.6 J0.
G1 X94.821
G18 G3 X94.221 Z-1.4 I0. K0.6
G0 Z5.
Y136.956
G1 Z-1. F800.
Z-3.4
G2 X94.821 Z-4. I0.6 K0. F3698.
G1 X95.421
G17 G3 X96.021 Y137.556 I0. J0.6
G1 Y188.444
G3 X72.021 I-12. J0.
G1 Y137.556
G3 X96.021 I12. J0.
X95.421 Y138.156 I-0.6 J0.
G1 X94.821
G18 G3 X94.221 Z-3.4 I0. K0.6
G0 Z5.
Y136.956
G1 Z-3. F800.
Z-5.4
G2 X94.821 Z-6. I0.6 K0. F3698.
G1 X95.421
G17 G3 X96.021 Y137.556 I0. J0.6
G1 Y188.444
G3 X72.021 I-12. J0.
G1 Y137.556
G3 X96.021 I12. J0.
X95.421 Y138.156 I-0.6 J0.
G1 X94.821
G18 G3 X94.221 Z-5.4 I0. K0.6
G0 Z5.
Y136.956
G1 Z-5. F800.
Z-7.4
G2 X94.821 Z-8. I0.6 K0. F3698.
G1 X95.421
G17 G3 X96.021 Y137.556 I0. J0.6
G1 Y188.444
G3 X72.021 I-12. J0.
G1 Y137.556
G3 X96.021 I12. J0.
X95.421 Y138.156 I-0.6 J0.
G1 X94.821
G18 G3 X94.221 Z-7.4 I0. K0.6
G0 Z5.
Y136.956
G1 Z-7. F800.
Z-9.4
G2 X94.821 Z-10. I0.6 K0. F3698.
G1 X95.421
G17 G3 X96.021 Y137.556 I0. J0.6
G1 Y188.444
G3 X72.021 I-12. J0.
G1 Y137.556
G3 X96.021 I12. J0.
X95.421 Y138.156 I-0.6 J0.
G1 X94.821
G18 G3 X94.221 Z-9.4 I0. K0.6
G0 Z5.
Y136.956
G1 Z-9. F800.
Z-11.4
G2 X94.821 Z-12. I0.6 K0. F3698.
G1 X95.421
G17 G3 X96.021 Y137.556 I0. J0.6
G1 Y188.444
G3 X72.021 I-12. J0.
G1 Y137.556
G3 X96.021 I12. J0.
X95.421 Y138.156 I-0.6 J0.
G1 X94.821
G18 G3 X94.221 Z-11.4 I0. K0.6
G0 Z5.
Y136.956
G1 Z-11. F800.
Z-13.4
G2 X94.821 Z-14. I0.6 K0. F3698.
G1 X95.421
G17 G3 X96.021 Y137.556 I0. J0.6
G1 Y188.444
G3 X72.021 I-12. J0.
G1 Y137.556
G3 X96.021 I12. J0.
X95.421 Y138.156 I-0.6 J0.
G1 X94.821
G18 G3 X94.221 Z-13.4 I0. K0.6
G0 Z5.
Y136.956
G1 Z-13. F800.
Z-15.4
G2 X94.821 Z-16. I0.6 K0. F3698.
G1 X95.421
G17 G3 X96.021 Y137.556 I0. J0.6
G1 Y188.444
G3 X72.021 I-12. J0.
G1 Y137.556
G3 X96.021 I12. J0.
X95.421 Y138.156 I-0.6 J0.
G1 X94.821
G18 G3 X94.221 Z-15.4 I0. K0.6
G0 Z5.
Y136.956
G1 Z-15. F800.
Z-17.4
G2 X94.821 Z-18. I0.6 K0. F3698.
G1 X95.421
G17 G3 X96.021 Y137.556 I0. J0.6
G1 Y188.444
G3 X72.021 I-12. J0.
G1 Y137.556
G3 X96.021 I12. J0.
X95.421 Y138.156 I-0.6 J0.
G1 X94.821
G18 G3 X94.221 Z-17.4 I0. K0.6
G0 Z5.
Y136.956
G1 Z-17. F800.
Z-19.4
G2 X94.821 Z-20. I0.6 K0. F3698.
G1 X95.421
G17 G3 X96.021 Y137.556 I0. J0.6
G1 Y188.444
G3 X72.021 I-12. J0.
G1 Y137.556
G3 X96.021 I12. J0.
X95.421 Y138.156 I-0.6 J0.
G1 X94.821
G18 G3 X94.221 Z-19.4 I0. K0.6
G0 Z5.
Y136.956
G1 Z-19. F800.
Z-20.9
G2 X94.821 Z-21.5 I0.6 K0. F3698.
G1 X95.421
G17 G3 X96.021 Y137.556 I0. J0.6
G1 Y188.444
G3 X72.021 I-12. J0.
G1 Y137.556
G3 X96.021 I12. J0.
X95.421 Y138.156 I-0.6 J0.
G1 X94.821
G18 G3 X94.221 Z-20.9 I0. K0.6
G0 Z15.
G17

(2D CONTOUR2)
G0 X447.814 Y176.898
Z15.
Z5.
G1 Z1. F800.
Z-1.4
X447.806 Z-1.494 F3698.
X447.784 Z-1.585
X447.748 Y176.899 Z-1.672
X447.699 Y176.901 Z-1.753
X447.638 Y176.902 Z-1.824
X447.567 Y176.904 Z-1.885
X447.486 Y176.907 Z-1.935
X447.399 Y176.909 Z-1.971
X447.308 Y176.912 Z-1.993
X447.214 Y176.914 Z-2.
X446.614 Y176.931
G3 X445.998 Y176.348 I-0.017 J-0.6
G2 X440.5 Y171. I-5.498 J0.152
G1 X437.5
G3 X435. Y168.5 I0. J-2.5
G1 Y157.5
G3 X437.5 Y155. I2.5 J0.
G1 X440.5
G2 X446. Y149.5 I0. J-5.5
G1 Y10.
G2 X436. Y0. I-10. J0.
G1 X23.
G2 X20. Y3. I0. J3.
G1 Y106.667
X3.
G2 X0. Y109.667 I0. J3.
G1 Y216.333
G2 X3. Y219.333 I3. J0.
G1 X20.
Y317.
G2 X23. Y320. I3. J0.
G1 X87.546
Y323.
G2 X90.546 Y326. I3. J0.
G1 X105.454
G2 X108.454 Y323. I0. J-3.
G1 Y320.
X170.
Y323.
G2 X173. Y326. I3. J0.
G1 X294.5
G2 X299. Y321.5 I0. J-4.5
G1 Y319.346
G3 X299.214 Y318.293 I2.7 J-0.001
X303.135 Y316. I3.921 J2.207
G1 X315.846
G3 X319.836 Y318.419 I0. J4.5
X319.985 Y319.088 I-1.451 J0.675
G1 X319.994 Y321.517
G2 X324.494 Y326. I4.5 J-0.017
G1 X436.
G2 X446. Y316. I0. J-10.
G1 Y176.5
X445.998 Y176.348
G3 X446.581 Y175.731 I0.6 J-0.017
G1 X447.181 Y175.715
X447.275 Y175.712 Z-1.993
X447.366 Y175.71 Z-1.971
X447.453 Y175.707 Z-1.935
X447.533 Y175.705 Z-1.885
X447.605 Y175.703 Z-1.824
X447.666 Y175.701 Z-1.753
X447.715 Y175.7 Z-1.672
X447.751 Y175.699 Z-1.585
X447.773 Y175.698 Z-1.494
X447.781 Z-1.4
G0 Z5.
X447.814 Y176.898
G1 Z-1. F800.
Z-3.4
X447.806 Z-3.494 F3698.
X447.784 Z-3.585
X447.748 Y176.899 Z-3.672
X447.699 Y176.901 Z-3.753
X447.638 Y176.902 Z-3.824
X447.567 Y176.904 Z-3.885
X447.486 Y176.907 Z-3.935
X447.399 Y176.909 Z-3.971
X447.308 Y176.912 Z-3.993
X447.214 Y176.914 Z-4.
X446.614 Y176.931
G3 X445.998 Y176.348 I-0.017 J-0.6
G2 X440.5 Y171. I-5.498 J0.152
G1 X437.5
G3 X435. Y168.5 I0. J-2.5
G1 Y157.5
G3 X437.5 Y155. I2.5 J0.
G1 X440.5
G2 X446. Y149.5 I0. J-5.5
G1 Y10.
G2 X436. Y0. I-10. J0.
G1 X23.
G2 X20. Y3. I0. J3.
G1 Y106.667
X3.
G2 X0. Y109.667 I0. J3.
G1 Y216.333
G2 X3. Y219.333 I3. J0.
G1 X20.
Y317.
G2 X23. Y320. I3. J0.
G1 X87.546
Y323.
G2 X90.546 Y326. I3. J0.
G1 X105.454
G2 X108.454 Y323. I0. J-3.
G1 Y320.
X170.
Y323.
G2 X173. Y326. I3. J0.
G1 X294.5
G2 X299. Y321.5 I0. J-4.5
G1 Y319.346
G3 X299.214 Y318.293 I2.7 J-0.001
X303.135 Y316. I3.921 J2.207
G1 X315.846
G3 X319.836 Y318.419 I0. J4.5
X319.985 Y319.088 I-1.451 J0.675
G1 X319.994 Y321.517
G2 X324.494 Y326. I4.5 J-0.017
G1 X436.
G2 X446. Y316. I0. J-10.
G1 Y176.5
X445.998 Y176.348
G3 X446.581 Y175.731 I0.6 J-0.017
G1 X447.181 Y175.715
X447.275 Y175.712 Z-3.993
X447.366 Y175.71 Z-3.971
X447.453 Y175.707 Z-3.935
X447.533 Y175.705 Z-3.885
X447.605 Y175.703 Z-3.824
X447.666 Y175.701 Z-3.753
X447.715 Y175.7 Z-3.672
X447.751 Y175.699 Z-3.585
X447.773 Y175.698 Z-3.494
X447.781 Z-3.4
G0 Z5.
X447.814 Y176.898
G1 Z-3. F800.
Z-5.4
X447.806 Z-5.494 F3698.
X447.784 Z-5.585
X447.748 Y176.899 Z-5.672
X447.699 Y176.901 Z-5.753
X447.638 Y176.902 Z-5.824
X447.567 Y176.904 Z-5.885
X447.486 Y176.907 Z-5.935
X447.399 Y176.909 Z-5.971
X447.308 Y176.912 Z-5.993
X447.214 Y176.914 Z-6.
X446.614 Y176.931
G3 X445.998 Y176.348 I-0.017 J-0.6
G2 X440.5 Y171. I-5.498 J0.152
G1 X437.5
G3 X435. Y168.5 I0. J-2.5
G1 Y157.5
G3 X437.5 Y155. I2.5 J0.
G1 X440.5
G2 X446. Y149.5 I0. J-5.5
G1 Y10.
G2 X436. Y0. I-10. J0.
G1 X23.
G2 X20. Y3. I0. J3.
G1 Y106.667
X3.
G2 X0. Y109.667 I0. J3.
G1 Y216.333
G2 X3. Y219.333 I3. J0.
G1 X20.
Y317.
G2 X23. Y320. I3. J0.
G1 X87.546
Y323.
G2 X90.546 Y326. I3. J0.
G1 X105.454
G2 X108.454 Y323. I0. J-3.
G1 Y320.
X170.
Y323.
G2 X173. Y326. I3. J0.
G1 X294.5
G2 X299. Y321.5 I0. J-4.5
G1 Y319.346
G3 X299.214 Y318.293 I2.7 J-0.001
X303.135 Y316. I3.921 J2.207
G1 X315.846
G3 X319.836 Y318.419 I0. J4.5
X319.985 Y319.088 I-1.451 J0.675
G1 X319.994 Y321.517
G2 X324.494 Y326. I4.5 J-0.017
G1 X436.
G2 X446. Y316. I0. J-10.
G1 Y176.5
X445.998 Y176.348
G3 X446.581 Y175.731 I0.6 J-0.017
G1 X447.181 Y175.715
X447.275 Y175.712 Z-5.993
X447.366 Y175.71 Z-5.971
X447.453 Y175.707 Z-5.935
X447.533 Y175.705 Z-5.885
X447.605 Y175.703 Z-5.824
X447.666 Y175.701 Z-5.753
X447.715 Y175.7 Z-5.672
X447.751 Y175.699 Z-5.585
X447.773 Y175.698 Z-5.494
X447.781 Z-5.4
G0 Z5.
X447.814 Y176.898
G1 Z-5. F800.
Z-7.4
X447.806 Z-7.494 F3698.
X447.784 Z-7.585
X447.748 Y176.899 Z-7.672
X447.699 Y176.901 Z-7.753
X447.638 Y176.902 Z-7.824
X447.567 Y176.904 Z-7.885
X447.486 Y176.907 Z-7.935
X447.399 Y176.909 Z-7.971
X447.308 Y176.912 Z-7.993
X447.214 Y176.914 Z-8.
X446.614 Y176.931
G3 X445.998 Y176.348 I-0.017 J-0.6
G2 X440.5 Y171. I-5.498 J0.152
G1 X437.5
G3 X435. Y168.5 I0. J-2.5
G1 Y157.5
G3 X437.5 Y155. I2.5 J0.
G1 X440.5
G2 X446. Y149.5 I0. J-5.5
G1 Y10.
G2 X436. Y0. I-10. J0.
G1 X23.
G2 X20. Y3. I0. J3.
G1 Y106.667
X3.
G2 X0. Y109.667 I0. J3.
G1 Y216.333
G2 X3. Y219.333 I3. J0.
G1 X20.
Y317.
G2 X23. Y320. I3. J0.
G1 X87.546
Y323.
G2 X90.546 Y326. I3. J0.
G1 X105.454
G2 X108.454 Y323. I0. J-3.
G1 Y320.
X170.
Y323.
G2 X173. Y326. I3. J0.
G1 X294.5
G2 X299. Y321.5 I0. J-4.5
G1 Y319.346
G3 X299.214 Y318.293 I2.7 J-0.001
X303.135 Y316. I3.921 J2.207
G1 X315.846
G3 X319.836 Y318.419 I0. J4.5
X319.985 Y319.088 I-1.451 J0.675
G1 X319.994 Y321.517
G2 X324.494 Y326. I4.5 J-0.017
G1 X436.
G2 X446. Y316. I0. J-10.
G1 Y176.5
X445.998 Y176.348
G3 X446.581 Y175.731 I0.6 J-0.017
G1 X447.181 Y175.715
X447.275 Y175.712 Z-7.993
X447.366 Y175.71 Z-7.971
X447.453 Y175.707 Z-7.935
X447.533 Y175.705 Z-7.885
X447.605 Y175.703 Z-7.824
X447.666 Y175.701 Z-7.753
X447.715 Y175.7 Z-7.672
X447.751 Y175.699 Z-7.585
X447.773 Y175.698 Z-7.494
X447.781 Z-7.4
G0 Z5.
X447.814 Y176.898
G1 Z-7. F800.
Z-9.4
X447.806 Z-9.494 F3698.
X447.784 Z-9.585
X447.748 Y176.899 Z-9.672
X447.699 Y176.901 Z-9.753
X447.638 Y176.902 Z-9.824
X447.567 Y176.904 Z-9.885
X447.486 Y176.907 Z-9.935
X447.399 Y176.909 Z-9.971
X447.308 Y176.912 Z-9.993
X447.214 Y176.914 Z-10.
X446.614 Y176.931
G3 X445.998 Y176.348 I-0.017 J-0.6
G2 X440.5 Y171. I-5.498 J0.152
G1 X437.5
G3 X435. Y168.5 I0. J-2.5
G1 Y157.5
G3 X437.5 Y155. I2.5 J0.
G1 X440.5
G2 X446. Y149.5 I0. J-5.5
G1 Y10.
G2 X436. Y0. I-10. J0.
G1 X23.
G2 X20. Y3. I0. J3.
G1 Y106.667
X3.
G2 X0. Y109.667 I0. J3.
G1 Y216.333
G2 X3. Y219.333 I3. J0.
G1 X20.
Y317.
G2 X23. Y320. I3. J0.
G1 X87.546
Y323.
G2 X90.546 Y326. I3. J0.
G1 X105.454
G2 X108.454 Y323. I0. J-3.
G1 Y320.
X170.
Y323.
G2 X173. Y326. I3. J0.
G1 X294.5
G2 X299. Y321.5 I0. J-4.5
G1 Y319.346
G3 X299.214 Y318.293 I2.7 J-0.001
X303.135 Y316. I3.921 J2.207
G1 X315.846
G3 X319.836 Y318.419 I0. J4.5
X319.985 Y319.088 I-1.451 J0.675
G1 X319.994 Y321.517
G2 X324.494 Y326. I4.5 J-0.017
G1 X436.
G2 X446. Y316. I0. J-10.
G1 Y176.5
X445.998 Y176.348
G3 X446.581 Y175.731 I0.6 J-0.017
G1 X447.181 Y175.715
X447.275 Y175.712 Z-9.993
X447.366 Y175.71 Z-9.971
X447.453 Y175.707 Z-9.935
X447.533 Y175.705 Z-9.885
X447.605 Y175.703 Z-9.824
X447.666 Y175.701 Z-9.753
X447.715 Y175.7 Z-9.672
X447.751 Y175.699 Z-9.585
X447.773 Y175.698 Z-9.494
X447.781 Z-9.4
G0 Z5.
X447.814 Y176.898
G1 Z-9. F800.
Z-11.4
X447.806 Z-11.494 F3698.
X447.784 Z-11.585
X447.748 Y176.899 Z-11.672
X447.699 Y176.901 Z-11.753
X447.638 Y176.902 Z-11.824
X447.567 Y176.904 Z-11.885
X447.486 Y176.907 Z-11.935
X447.399 Y176.909 Z-11.971
X447.308 Y176.912 Z-11.993
X447.214 Y176.914 Z-12.
X446.614 Y176.931
G3 X445.998 Y176.348 I-0.017 J-0.6
G2 X440.5 Y171. I-5.498 J0.152
G1 X437.5
G3 X435. Y168.5 I0. J-2.5
G1 Y157.5
G3 X437.5 Y155. I2.5 J0.
G1 X440.5
G2 X446. Y149.5 I0. J-5.5
G1 Y10.
G2 X436. Y0. I-10. J0.
G1 X23.
G2 X20. Y3. I0. J3.
G1 Y106.667
X3.
G2 X0. Y109.667 I0. J3.
G1 Y216.333
G2 X3. Y219.333 I3. J0.
G1 X20.
Y317.
G2 X23. Y320. I3. J0.
G1 X87.546
Y323.
G2 X90.546 Y326. I3. J0.
G1 X105.454
G2 X108.454 Y323. I0. J-3.
G1 Y320.
X170.
Y323.
G2 X173. Y326. I3. J0.
G1 X294.5
G2 X299. Y321.5 I0. J-4.5
G1 Y319.346
G3 X299.214 Y318.293 I2.7 J-0.001
X303.135 Y316. I3.921 J2.207
G1 X315.846
G3 X319.836 Y318.419 I0. J4.5
X319.985 Y319.088 I-1.451 J0.675
G1 X319.994 Y321.517
G2 X324.494 Y326. I4.5 J-0.017
G1 X436.
G2 X446. Y316. I0. J-10.
G1 Y176.5
X445.998 Y176.348
G3 X446.581 Y175.731 I0.6 J-0.017
G1 X447.181 Y175.715
X447.275 Y175.712 Z-11.993
X447.366 Y175.71 Z-11.971
X447.453 Y175.707 Z-11.935
X447.533 Y175.705 Z-11.885
X447.605 Y175.703 Z-11.824
X447.666 Y175.701 Z-11.753
X447.715 Y175.7 Z-11.672
X447.751 Y175.699 Z-11.585
X447.773 Y175.698 Z-11.494
X447.781 Z-11.4
G0 Z5.
X447.814 Y176.898
G1 Z-11. F800.
Z-13.4
X447.806 Z-13.494 F3698.
X447.784 Z-13.585
X447.748 Y176.899 Z-13.672
X447.699 Y176.901 Z-13.753
X447.638 Y176.902 Z-13.824
X447.567 Y176.904 Z-13.885
X447.486 Y176.907 Z-13.935
X447.399 Y176.909 Z-13.971
X447.308 Y176.912 Z-13.993
X447.214 Y176.914 Z-14.
X446.614 Y176.931
G3 X445.998 Y176.348 I-0.017 J-0.6
G2 X440.5 Y171. I-5.498 J0.152
G1 X437.5
G3 X435. Y168.5 I0. J-2.5
G1 Y157.5
G3 X437.5 Y155. I2.5 J0.
G1 X440.5
G2 X446. Y149.5 I0. J-5.5
G1 Y10.
G2 X436. Y0. I-10. J0.
G1 X23.
G2 X20. Y3. I0. J3.
G1 Y106.667
X3.
G2 X0. Y109.667 I0. J3.
G1 Y216.333
G2 X3. Y219.333 I3. J0.
G1 X20.
Y317.
G2 X23. Y320. I3. J0.
G1 X87.546
Y323.
G2 X90.546 Y326. I3. J0.
G1 X105.454
G2 X108.454 Y323. I0. J-3.
G1 Y320.
X170.
Y323.
G2 X173. Y326. I3. J0.
G1 X294.5
G2 X299. Y321.5 I0. J-4.5
G1 Y319.346
G3 X299.214 Y318.293 I2.7 J-0.001
X303.135 Y316. I3.921 J2.207
G1 X315.846
G3 X319.836 Y318.419 I0. J4.5
X319.985 Y319.088 I-1.451 J0.675
G1 X319.994 Y321.517
G2 X324.494 Y326. I4.5 J-0.017
G1 X436.
G2 X446. Y316. I0. J-10.
G1 Y176.5
X445.998 Y176.348
G3 X446.581 Y175.731 I0.6 J-0.017
G1 X447.181 Y175.715
X447.275 Y175.712 Z-13.993
X447.366 Y175.71 Z-13.971
X447.453 Y175.707 Z-13.935
X447.533 Y175.705 Z-13.885
X447.605 Y175.703 Z-13.824
X447.666 Y175.701 Z-13.753
X447.715 Y175.7 Z-13.672
X447.751 Y175.699 Z-13.585
X447.773 Y175.698 Z-13.494
X447.781 Z-13.4
G0 Z5.
X447.814 Y176.898
G1 Z-13. F800.
Z-15.4
X447.806 Z-15.494 F3698.
X447.784 Z-15.585
X447.748 Y176.899 Z-15.672
X447.699 Y176.901 Z-15.753
X447.638 Y176.902 Z-15.824
X447.567 Y176.904 Z-15.885
X447.486 Y176.907 Z-15.935
X447.399 Y176.909 Z-15.971
X447.308 Y176.912 Z-15.993
X447.214 Y176.914 Z-16.
X446.614 Y176.931
G3 X445.998 Y176.348 I-0.017 J-0.6
G2 X440.5 Y171. I-5.498 J0.152
G1 X437.5
G3 X435. Y168.5 I0. J-2.5
G1 Y157.5
G3 X437.5 Y155. I2.5 J0.
G1 X440.5
G2 X446. Y149.5 I0. J-5.5
G1 Y10.
G2 X436. Y0. I-10. J0.
G1 X23.
G2 X20. Y3. I0. J3.
G1 Y106.667
X3.
G2 X0. Y109.667 I0. J3.
G1 Y216.333
G2 X3. Y219.333 I3. J0.
G1 X20.
Y317.
G2 X23. Y320. I3. J0.
G1 X87.546
Y323.
G2 X90.546 Y326. I3. J0.
G1 X105.454
G2 X108.454 Y323. I0. J-3.
G1 Y320.
X170.
Y323.
G2 X173. Y326. I3. J0.
G1 X294.5
G2 X299. Y321.5 I0. J-4.5
G1 Y319.346
G3 X299.214 Y318.293 I2.7 J-0.001
X303.135 Y316. I3.921 J2.207
G1 X315.846
G3 X319.836 Y318.419 I0. J4.5
X319.985 Y319.088 I-1.451 J0.675
G1 X319.994 Y321.517
G2 X324.494 Y326. I4.5 J-0.017
G1 X436.
G2 X446. Y316. I0. J-10.
G1 Y176.5
X445.998 Y176.348
G3 X446.581 Y175.731 I0.6 J-0.017
G1 X447.181 Y175.715
X447.275 Y175.712 Z-15.993
X447.366 Y175.71 Z-15.971
X447.453 Y175.707 Z-15.935
X447.533 Y175.705 Z-15.885
X447.605 Y175.703 Z-15.824
X447.666 Y175.701 Z-15.753
X447.715 Y175.7 Z-15.672
X447.751 Y175.699 Z-15.585
X447.773 Y175.698 Z-15.494
X447.781 Z-15.4
G0 Z5.
X447.814 Y176.898
G1 Z-15. F800.
Z-17.4
X447.806 Z-17.494 F3698.
X447.784 Z-17.585
X447.748 Y176.899 Z-17.672
X447.699 Y176.901 Z-17.753
X447.638 Y176.902 Z-17.824
X447.567 Y176.904 Z-17.885
X447.486 Y176.907 Z-17.935
X447.399 Y176.909 Z-17.971
X447.308 Y176.912 Z-17.993
X447.214 Y176.914 Z-18.
X446.614 Y176.931
G3 X445.998 Y176.348 I-0.017 J-0.6
G2 X440.5 Y171. I-5.498 J0.152
G1 X437.5
G3 X435. Y168.5 I0. J-2.5
G1 Y157.5
G3 X437.5 Y155. I2.5 J0.
G1 X440.5
G2 X446. Y149.5 I0. J-5.5
G1 Y10.
G2 X436. Y0. I-10. J0.
G1 X23.
G2 X20. Y3. I0. J3.
G1 Y106.667
X3.
G2 X0. Y109.667 I0. J3.
G1 Y216.333
G2 X3. Y219.333 I3. J0.
G1 X20.
Y317.
G2 X23. Y320. I3. J0.
G1 X87.546
Y323.
G2 X90.546 Y326. I3. J0.
G1 X105.454
G2 X108.454 Y323. I0. J-3.
G1 Y320.
X170.
Y323.
G2 X173. Y326. I3. J0.
G1 X294.5
G2 X299. Y321.5 I0. J-4.5
G1 Y319.346
G3 X299.214 Y318.293 I2.7 J-0.001
X303.135 Y316. I3.921 J2.207
G1 X315.846
G3 X319.836 Y318.419 I0. J4.5
X319.985 Y319.088 I-1.451 J0.675
G1 X319.994 Y321.517
G2 X324.494 Y326. I4.5 J-0.017
G1 X436.
G2 X446. Y316. I0. J-10.
G1 Y176.5
X445.998 Y176.348
G3 X446.581 Y175.731 I0.6 J-0.017
G1 X447.181 Y175.715
X447.275 Y175.712 Z-17.993
X447.366 Y175.71 Z-17.971
X447.453 Y175.707 Z-17.935
X447.533 Y175.705 Z-17.885
X447.605 Y175.703 Z-17.824
X447.666 Y175.701 Z-17.753
X447.715 Y175.7 Z-17.672
X447.751 Y175.699 Z-17.585
X447.773 Y175.698 Z-17.494
X447.781 Z-17.4
G0 Z5.
X447.814 Y176.898
G1 Z-17. F800.
Z-19.4
X447.806 Z-19.494 F3698.
X447.784 Z-19.585
X447.748 Y176.899 Z-19.672
X447.699 Y176.901 Z-19.753
X447.638 Y176.902 Z-19.824
X447.567 Y176.904 Z-19.885
X447.486 Y176.907 Z-19.935
X447.399 Y176.909 Z-19.971
X447.308 Y176.912 Z-19.993
X447.214 Y176.914 Z-20.
X446.614 Y176.931
G3 X445.998 Y176.348 I-0.017 J-0.6
G2 X440.5 Y171. I-5.498 J0.152
G1 X437.5
G3 X435. Y168.5 I0. J-2.5
G1 Y157.5
G3 X437.5 Y155. I2.5 J0.
G1 X440.5
G2 X446. Y149.5 I0. J-5.5
G1 Y10.
G2 X436. Y0. I-10. J0.
G1 X23.
G2 X20. Y3. I0. J3.
G1 Y106.667
X3.
G2 X0. Y109.667 I0. J3.
G1 Y216.333
G2 X3. Y219.333 I3. J0.
G1 X20.
Y317.
G2 X23. Y320. I3. J0.
G1 X87.546
Y323.
G2 X90.546 Y326. I3. J0.
G1 X105.454
G2 X108.454 Y323. I0. J-3.
G1 Y320.
X170.
Y323.
G2 X173. Y326. I3. J0.
G1 X294.5
G2 X299. Y321.5 I0. J-4.5
G1 Y319.346
G3 X299.214 Y318.293 I2.7 J-0.001
X303.135 Y316. I3.921 J2.207
G1 X315.846
G3 X319.836 Y318.419 I0. J4.5
X319.985 Y319.088 I-1.451 J0.675
G1 X319.994 Y321.517
G2 X324.494 Y326. I4.5 J-0.017
G1 X436.
G2 X446. Y316. I0. J-10.
G1 Y176.5
X445.998 Y176.348
G3 X446.581 Y175.731 I0.6 J-0.017
G1 X447.181 Y175.715
X447.275 Y175.712 Z-19.993
X447.366 Y175.71 Z-19.971
X447.453 Y175.707 Z-19.935
X447.533 Y175.705 Z-19.885
X447.605 Y175.703 Z-19.824
X447.666 Y175.701 Z-19.753
X447.715 Y175.7 Z-19.672
X447.751 Y175.699 Z-19.585
X447.773 Y175.698 Z-19.494
X447.781 Z-19.4
G0 Z5.
X447.814 Y176.898
G1 Z-19. F800.
Z-20.
X447.214 Y176.914 F3698.
X446.614 Y176.931
G3 X445.998 Y176.348 I-0.017 J-0.6
G2 X440.5 Y171. I-5.498 J0.152
G1 X440.
Z-21.5 F800.
X437.5 F3698.
G3 X435. Y168.5 I0. J-2.5
G1 Y157.5
G3 X437.5 Y155. I2.5 J0.
G1 X440.5
G2 X446. Y149.5 I0. J-5.5
G1 Y107.831
Z-20.
Y71.831
Z-21.5 F800.
Y10. F3698.
G2 X436. Y0. I-10. J0.
G1 X433.828
Z-20.
X397.828
Z-21.5 F800.
X322.829 F3698.
Z-20.
X286.829
Z-21.5 F800.
X211.83 F3698.
Z-20.
X175.83
Z-21.5 F800.
X100.831 F3698.
Z-20.
X64.831
Z-21.5 F800.
X23. F3698.
G2 X20. Y3. I0. J3.
G1 Y36.167
Z-20.
Y72.167
Z-21.5 F800.
Y106.667 F3698.
X3.
G2 X0. Y109.667 I0. J3.
G1 Y127.166
Z-20.
Y163.166
Z-21.5 F800.
Y216.333 F3698.
G2 X3. Y219.333 I3. J0.
G1 X16.4
Z-20.
X20.
Y254.165
Z-21.5 F800.
Y317. F3698.
G2 X23. Y320. I3. J0.
G1 X35.164
Z-20.
X71.164
Z-21.5 F800.
X87.546 F3698.
Y323.
G2 X90.546 Y326. I3. J0.
G1 X105.454
G2 X108.454 Y323. I0. J-3.
G1 Y320.
X134.162
Z-20.
X170.
Y323.
G2 X170.061 Y323.6 I3. J0.
G1 Z-21.5 F800.
G2 X173. Y326. I2.939 J-0.6 F3698.
G1 X239.161
Z-20.
X275.161
Z-21.5 F800.
X294.5 F3698.
G2 X299. Y321.5 I0. J-4.5
G1 Y319.346
G3 X299.214 Y318.293 I2.7 J-0.001
X303.135 Y316. I3.921 J2.207
G1 X315.846
G3 X319.836 Y318.419 I0. J4.5
X319.985 Y319.088 I-1.451 J0.675
G1 X319.994 Y321.517
G2 X324.494 Y326. I4.5 J-0.017
G1 X337.301
Z-20.
X373.301
Z-21.5 F800.
X436. F3698.
G2 X446. Y316. I0. J-10.
G1 Y314.696
Z-20.
Y278.696
Z-21.5 F800.
Y203.697 F3698.
Z-20.
Y176.5
X445.998 Y176.348
G3 X446.581 Y175.731 I0.6 J-0.017
G1 X447.781 Y175.698
G0 Z15.

(DRILL1)
G0 X173. Y317.
Z15.
Z5.
G98 G83 X173. Y317. Z-21.5 R5. Q1.5 F800.
X105.454
X90.546
X23. Y216.333
Y109.667
G80
Z15.

M9
M5
G28 G91 Z0.
G90
G28 G91 X0. Y0.
G90
M30
