(FURAO-TAMPO)
(T3 D=2. CR=0. TAPER=118DEG - ZMIN=-13. - DRILL)
G90 G94 G91.1 G40 G49 G17
G21
G28 G91 Z0.
G90

(DRILL6)
T3 M6
S10000 M3
G17 G90 G94
G54
M8
G0 X314.5 Y172.
G43 Z15. H3
G0 Z5.
G98 G81 X314.5 Y172. Z-13. R5. F1530.
X293.5
Y534.
X314.5
Y616.098
X293.5
X279.5 Y630.098
Y651.098
X91.036
Y630.098
G80
Z15.

M9
M5
G28 G91 Z0.
G90
G28 G91 X0. Y0.
G90
M30
