(TAMPO)
(T1 D=6. CR=0. - ZMIN=-21.5 - FLAT END MILL)
G90 G94 G91.1 G40 G49 G17
G21
G28 G91 Z0.
G90

(2D CONTOUR1)
T1 M6
S10000 M3
G17 G90 G94
G54
M8
G0 X703.6 Y-1.8
G43 Z15. H1
G0 Z5.
G1 Z1. F800.
Z-1.4
G19 G3 Y-1.2 Z-2. J0.6 K0. F3698.
G1 Y-0.6
G17 G3 X703. Y0. I-0.6 J0.
G1 X3.
G2 X0. Y3. I0. J3.
G1 Y109.367
G2 X3. Y112.367 I3. J0.
G1 X20.3
Y213.633
X3.
G2 X0. Y216.633 I0. J3.
G1 Y383.
G2 X3. Y386. I3. J0.
G1 X90.5
G2 X95. Y381.5 I0. J-4.5
G1 Y375.
X111.
Y381.5
G2 X115.5 Y386. I4.5 J0.
G1 X340.5
G2 X345. Y381.5 I0. J-4.5
G1 Y375.
X361.
Y381.5
G2 X365.5 Y386. I4.5 J0.
G1 X590.5
G2 X595. Y381.5 I0. J-4.5
G1 Y375.
X611.
Y381.5
G2 X615.5 Y386. I4.5 J0.
G1 X703.
G2 X706. Y383. I0. J-3.
G1 Y216.633
G2 X703. Y213.633 I-3. J0.
G1 X685.7
Y112.367
X703.
G2 X706. Y109.367 I0. J-3.
G1 Y3.
G2 X703. Y0. I-3. J0.
G3 X702.4 Y-0.6 I0. J-0.6
G1 Y-1.2
G19 G2 Y-1.8 Z-1.4 J0. K0.6
G0 Z5.
X703.6
G1 Z-1. F800.
Z-3.4
G3 Y-1.2 Z-4. J0.6 K0. F3698.
G1 Y-0.6
G17 G3 X703. Y0. I-0.6 J0.
G1 X3.
G2 X0. Y3. I0. J3.
G1 Y109.367
G2 X3. Y112.367 I3. J0.
G1 X20.3
Y213.633
X3.
G2 X0. Y216.633 I0. J3.
G1 Y383.
G2 X3. Y386. I3. J0.
G1 X90.5
G2 X95. Y381.5 I0. J-4.5
G1 Y375.
X111.
Y381.5
G2 X115.5 Y386. I4.5 J0.
G1 X340.5
G2 X345. Y381.5 I0. J-4.5
G1 Y375.
X361.
Y381.5
G2 X365.5 Y386. I4.5 J0.
G1 X590.5
G2 X595. Y381.5 I0. J-4.5
G1 Y375.
X611.
Y381.5
G2 X615.5 Y386. I4.5 J0.
G1 X703.
G2 X706. Y383. I0. J-3.
G1 Y216.633
G2 X703. Y213.633 I-3. J0.
G1 X685.7
Y112.367
X703.
G2 X706. Y109.367 I0. J-3.
G1 Y3.
G2 X703. Y0. I-3. J0.
G3 X702.4 Y-0.6 I0. J-0.6
G1 Y-1.2
G19 G2 Y-1.8 Z-3.4 J0. K0.6
G0 Z5.
X703.6
G1 Z-3. F800.
Z-5.4
G3 Y-1.2 Z-6. J0.6 K0. F3698.
G1 Y-0.6
G17 G3 X703. Y0. I-0.6 J0.
G1 X3.
G2 X0. Y3. I0. J3.
G1 Y109.367
G2 X3. Y112.367 I3. J0.
G1 X20.3
Y213.633
X3.
G2 X0. Y216.633 I0. J3.
G1 Y383.
G2 X3. Y386. I3. J0.
G1 X90.5
G2 X95. Y381.5 I0. J-4.5
G1 Y375.
X111.
Y381.5
G2 X115.5 Y386. I4.5 J0.
G1 X340.5
G2 X345. Y381.5 I0. J-4.5
G1 Y375.
X361.
Y381.5
G2 X365.5 Y386. I4.5 J0.
G1 X590.5
G2 X595. Y381.5 I0. J-4.5
G1 Y375.
X611.
Y381.5
G2 X615.5 Y386. I4.5 J0.
G1 X703.
G2 X706. Y383. I0. J-3.
G1 Y216.633
G2 X703. Y213.633 I-3. J0.
G1 X685.7
Y112.367
X703.
G2 X706. Y109.367 I0. J-3.
G1 Y3.
G2 X703. Y0. I-3. J0.
G3 X702.4 Y-0.6 I0. J-0.6
G1 Y-1.2
G19 G2 Y-1.8 Z-5.4 J0. K0.6
G0 Z5.
X703.6
G1 Z-5. F800.
Z-7.4
G3 Y-1.2 Z-8. J0.6 K0. F3698.
G1 Y-0.6
G17 G3 X703. Y0. I-0.6 J0.
G1 X3.
G2 X0. Y3. I0. J3.
G1 Y109.367
G2 X3. Y112.367 I3. J0.
G1 X20.3
Y213.633
X3.
G2 X0. Y216.633 I0. J3.
G1 Y383.
G2 X3. Y386. I3. J0.
G1 X90.5
G2 X95. Y381.5 I0. J-4.5
G1 Y375.
X111.
Y381.5
G2 X115.5 Y386. I4.5 J0.
G1 X340.5
G2 X345. Y381.5 I0. J-4.5
G1 Y375.
X361.
Y381.5
G2 X365.5 Y386. I4.5 J0.
G1 X590.5
G2 X595. Y381.5 I0. J-4.5
G1 Y375.
X611.
Y381.5
G2 X615.5 Y386. I4.5 J0.
G1 X703.
G2 X706. Y383. I0. J-3.
G1 Y216.633
G2 X703. Y213.633 I-3. J0.
G1 X685.7
Y112.367
X703.
G2 X706. Y109.367 I0. J-3.
G1 Y3.
G2 X703. Y0. I-3. J0.
G3 X702.4 Y-0.6 I0. J-0.6
G1 Y-1.2
G19 G2 Y-1.8 Z-7.4 J0. K0.6
G0 Z5.
X703.6
G1 Z-7. F800.
Z-9.4
G3 Y-1.2 Z-10. J0.6 K0. F3698.
G1 Y-0.6
G17 G3 X703. Y0. I-0.6 J0.
G1 X3.
G2 X0. Y3. I0. J3.
G1 Y109.367
G2 X3. Y112.367 I3. J0.
G1 X20.3
Y213.633
X3.
G2 X0. Y216.633 I0. J3.
G1 Y383.
G2 X3. Y386. I3. J0.
G1 X90.5
G2 X95. Y381.5 I0. J-4.5
G1 Y375.
X111.
Y381.5
G2 X115.5 Y386. I4.5 J0.
G1 X340.5
G2 X345. Y381.5 I0. J-4.5
G1 Y375.
X361.
Y381.5
G2 X365.5 Y386. I4.5 J0.
G1 X590.5
G2 X595. Y381.5 I0. J-4.5
G1 Y375.
X611.
Y381.5
G2 X615.5 Y386. I4.5 J0.
G1 X703.
G2 X706. Y383. I0. J-3.
G1 Y216.633
G2 X703. Y213.633 I-3. J0.
G1 X685.7
Y112.367
X703.
G2 X706. Y109.367 I0. J-3.
G1 Y3.
G2 X703. Y0. I-3. J0.
G3 X702.4 Y-0.6 I0. J-0.6
G1 Y-1.2
G19 G2 Y-1.8 Z-9.4 J0. K0.6
G0 Z5.
X703.6
G1 Z-9. F800.
Z-11.4
G3 Y-1.2 Z-12. J0.6 K0. F3698.
G1 Y-0.6
G17 G3 X703. Y0. I-0.6 J0.
G1 X3.
G2 X0. Y3. I0. J3.
G1 Y109.367
G2 X3. Y112.367 I3. J0.
G1 X20.3
Y213.633
X3.
G2 X0. Y216.633 I0. J3.
G1 Y383.
G2 X3. Y386. I3. J0.
G1 X90.5
G2 X95. Y381.5 I0. J-4.5
G1 Y375.
X111.
Y381.5
G2 X115.5 Y386. I4.5 J0.
G1 X340.5
G2 X345. Y381.5 I0. J-4.5
G1 Y375.
X361.
Y381.5
G2 X365.5 Y386. I4.5 J0.
G1 X590.5
G2 X595. Y381.5 I0. J-4.5
G1 Y375.
X611.
Y381.5
G2 X615.5 Y386. I4.5 J0.
G1 X703.
G2 X706. Y383. I0. J-3.
G1 Y216.633
G2 X703. Y213.633 I-3. J0.
G1 X685.7
Y112.367
X703.
G2 X706. Y109.367 I0. J-3.
G1 Y3.
G2 X703. Y0. I-3. J0.
G3 X702.4 Y-0.6 I0. J-0.6
G1 Y-1.2
G19 G2 Y-1.8 Z-11.4 J0. K0.6
G0 Z5.
X703.6
G1 Z-11. F800.
Z-13.4
G3 Y-1.2 Z-14. J0.6 K0. F3698.
G1 Y-0.6
G17 G3 X703. Y0. I-0.6 J0.
G1 X3.
G2 X0. Y3. I0. J3.
G1 Y109.367
G2 X3. Y112.367 I3. J0.
G1 X20.3
Y213.633
X3.
G2 X0. Y216.633 I0. J3.
G1 Y383.
G2 X3. Y386. I3. J0.
G1 X90.5
G2 X95. Y381.5 I0. J-4.5
G1 Y375.
X111.
Y381.5
G2 X115.5 Y386. I4.5 J0.
G1 X340.5
G2 X345. Y381.5 I0. J-4.5
G1 Y375.
X361.
Y381.5
G2 X365.5 Y386. I4.5 J0.
G1 X590.5
G2 X595. Y381.5 I0. J-4.5
G1 Y375.
X611.
Y381.5
G2 X615.5 Y386. I4.5 J0.
G1 X703.
G2 X706. Y383. I0. J-3.
G1 Y216.633
G2 X703. Y213.633 I-3. J0.
G1 X685.7
Y112.367
X703.
G2 X706. Y109.367 I0. J-3.
G1 Y3.
G2 X703. Y0. I-3. J0.
G3 X702.4 Y-0.6 I0. J-0.6
G1 Y-1.2
G19 G2 Y-1.8 Z-13.4 J0. K0.6
G0 Z5.
X703.6
G1 Z-13. F800.
Z-15.4
G3 Y-1.2 Z-16. J0.6 K0. F3698.
G1 Y-0.6
G17 G3 X703. Y0. I-0.6 J0.
G1 X3.
G2 X0. Y3. I0. J3.
G1 Y109.367
G2 X3. Y112.367 I3. J0.
G1 X20.3
Y213.633
X3.
G2 X0. Y216.633 I0. J3.
G1 Y383.
G2 X3. Y386. I3. J0.
G1 X90.5
G2 X95. Y381.5 I0. J-4.5
G1 Y375.
X111.
Y381.5
G2 X115.5 Y386. I4.5 J0.
G1 X340.5
G2 X345. Y381.5 I0. J-4.5
G1 Y375.
X361.
Y381.5
G2 X365.5 Y386. I4.5 J0.
G1 X590.5
G2 X595. Y381.5 I0. J-4.5
G1 Y375.
X611.
Y381.5
G2 X615.5 Y386. I4.5 J0.
G1 X703.
G2 X706. Y383. I0. J-3.
G1 Y216.633
G2 X703. Y213.633 I-3. J0.
G1 X685.7
Y112.367
X703.
G2 X706. Y109.367 I0. J-3.
G1 Y3.
G2 X703. Y0. I-3. J0.
G3 X702.4 Y-0.6 I0. J-0.6
G1 Y-1.2
G19 G2 Y-1.8 Z-15.4 J0. K0.6
G0 Z5.
X703.6
G1 Z-15. F800.
Z-17.4
G3 Y-1.2 Z-18. J0.6 K0. F3698.
G1 Y-0.6
G17 G3 X703. Y0. I-0.6 J0.
G1 X3.
G2 X0. Y3. I0. J3.
G1 Y109.367
G2 X3. Y112.367 I3. J0.
G1 X20.3
Y213.633
X3.
G2 X0. Y216.633 I0. J3.
G1 Y383.
G2 X3. Y386. I3. J0.
G1 X90.5
G2 X95. Y381.5 I0. J-4.5
G1 Y375.
X111.
Y381.5
G2 X115.5 Y386. I4.5 J0.
G1 X340.5
G2 X345. Y381.5 I0. J-4.5
G1 Y375.
X361.
Y381.5
G2 X365.5 Y386. I4.5 J0.
G1 X590.5
G2 X595. Y381.5 I0. J-4.5
G1 Y375.
X611.
Y381.5
G2 X615.5 Y386. I4.5 J0.
G1 X703.
G2 X706. Y383. I0. J-3.
G1 Y216.633
G2 X703. Y213.633 I-3. J0.
G1 X685.7
Y112.367
X703.
G2 X706. Y109.367 I0. J-3.
G1 Y3.
G2 X703. Y0. I-3. J0.
G3 X702.4 Y-0.6 I0. J-0.6
G1 Y-1.2
G19 G2 Y-1.8 Z-17.4 J0. K0.6
G0 Z5.
X703.6
G1 Z-17. F800.
Z-19.4
G3 Y-1.2 Z-20. J0.6 K0. F3698.
G1 Y-0.6
G17 G3 X703. Y0. I-0.6 J0.
G1 X3.
G2 X0. Y3. I0. J3.
G1 Y109.367
G2 X3. Y112.367 I3. J0.
G1 X20.3
Y213.633
X3.
G2 X0. Y216.633 I0. J3.
G1 Y383.
G2 X3. Y386. I3. J0.
G1 X90.5
G2 X95. Y381.5 I0. J-4.5
G1 Y375.
X111.
Y381.5
G2 X115.5 Y386. I4.5 J0.
G1 X340.5
G2 X345. Y381.5 I0. J-4.5
G1 Y375.
X361.
Y381.5
G2 X365.5 Y386. I4.5 J0.
G1 X590.5
G2 X595. Y381.5 I0. J-4.5
G1 Y375.
X611.
Y381.5
G2 X615.5 Y386. I4.5 J0.
G1 X703.
G2 X706. Y383. I0. J-3.
G1 Y216.633
G2 X703. Y213.633 I-3. J0.
G1 X685.7
Y112.367
X703.
G2 X706. Y109.367 I0. J-3.
G1 Y3.
G2 X703. Y0. I-3. J0.
G3 X702.4 Y-0.6 I0. J-0.6
G1 Y-1.2
G19 G2 Y-1.8 Z-19.4 J0. K0.6
G0 Z5.
X703.6
G1 Z-19. F800.
Z-20.9
G3 Y-1.2 Z-21.5 J0.6 K0. F3698.
G1 Y-0.6
G17 G3 X703. Y0. I-0.6 J0.
G1 X652.508
Z-20.
X616.508
Z-21.5 F800.
X488.536 F3698.
Z-20.
X452.536
Z-21.5 F800.
X324.564 F3698.
Z-20.
X288.564
Z-21.5 F800.
X160.592 F3698.
Z-20.
X124.592
Z-21.5 F800.
X3. F3698.
G2 X0. Y3. I0. J3.
G1 Y9.38
Z-20.
Y45.381
Z-21.5 F800.
Y109.367 F3698.
G2 X3. Y112.367 I3. J0.
G1 X20.3
Y153.053
Z-20.
Y189.053
Z-21.5 F800.
Y213.633 F3698.
X3.
G2 X0. Y216.633 I0. J3.
G1 Y296.725
Z-20.
Y332.725
Z-21.5 F800.
Y383. F3698.
G2 X3. Y386. I3. J0.
G1 X89.
Z-20.
X90.5
G2 X95. Y381.5 I0. J-4.5
G1 Y375.
X98.6
Z-21.5 F800.
X111. F3698.
Y381.5
G2 X115.5 Y386. I4.5 J0.
G1 X226.532
Z-20.
X262.532
Z-21.5 F800.
X340.5 F3698.
G2 X345. Y381.5 I0. J-4.5
G1 Y375.
X361.
Y381.5
G2 X365.5 Y386. I4.5 J0.
G1 X372.367
Z-20.
X408.367
Z-21.5 F800.
X536.34 F3698.
Z-20.
X572.34
Z-21.5 F800.
X590.5 F3698.
G2 X595. Y381.5 I0. J-4.5
G1 Y375.
X611.
Y381.5
G2 X615.5 Y386. I4.5 J0.
G1 X682.175
Z-20.
X703.
G2 X706. Y383. I0. J-3.
G1 Y380.
Z-21.5 F800.
Y239.853 F3698.
Z-20.
Y216.633
G2 X703. Y213.633 I-3. J0.
G1 X700.
Z-21.5 F800.
X685.7 F3698.
Y112.367
X700.
Z-20.
X703.
G2 X706. Y109.367 I0. J-3.
G1 Y80.481
Z-21.5 F800.
Y3. F3698.
G2 X703. Y0. I-3. J0.
G3 X702.4 Y-0.6 I0. J-0.6
G1 Y-1.2
G19 G2 Y-1.8 Z-20.9 J0. K0.6
G0 Z15.
G17

(DRILL2)
G0 X682.7 Y109.367
Z15.
Z5.
G98 G83 X682.7 Y109.367 Z-21.5 R5. Q2. F800.
Y216.633
X23.3
Y109.367
G80
Z15.

(2D POCKET4)
G0 X186.952 Y81.326
Z15.
Z5.
G1 Z3.1 F800.
X186.959 Y81.299 Z2.918 F3698.
X186.98 Y81.22 Z2.754
X187.018 Y81.098 Z2.622
X187.073 Y80.947 Z2.534
X187.145 Y80.781 Z2.5
G3 X192.298 Y83.219 Z2.187 I2.576 J1.219
X187.145 Y80.781 Z1.875 I-2.576 J-1.219
X192.298 Y83.219 Z1.562 I2.576 J1.219
X187.145 Y80.781 Z1.249 I-2.576 J-1.219
X192.298 Y83.219 Z0.937 I2.576 J1.219
X187.145 Y80.781 Z0.624 I-2.576 J-1.219
X192.298 Y83.219 Z0.311 I2.576 J1.219
X187.145 Y80.781 Z-0.001 I-2.576 J-1.219
X192.298 Y83.219 Z-0.314 I2.576 J1.219
X187.145 Y80.781 Z-0.627 I-2.576 J-1.219
X192.298 Y83.219 Z-0.939 I2.576 J1.219
X187.145 Y80.781 Z-1.252 I-2.576 J-1.219
X192.298 Y83.219 Z-1.565 I2.576 J1.219
X186.872 Y82. Z-1.833 I-2.576 J-1.219
X187.066 Y81.806 I0.194 J0.
G1 X520.217
X520.262 Y81.812
X520.304 Y81.83
X520.341 Y81.857
X520.368 Y81.894
X520.379 Y81.912
X520.397 Y81.955
X520.403 Y82.
X520.397 Y82.045
X520.379 Y82.088
X520.368 Y82.106
X520.341 Y82.143
X520.304 Y82.17
X520.262 Y82.188
X520.217 Y82.194
X187.066
G3 X186.872 Y82. I0. J-0.194
G2 X185.863 Y80.605 I-1.469 J0.
G3 X186.136 Y78.906 I0.273 J-0.828
G1 X521.918
G3 X522.352 Y79.227 I0. J0.454
G2 X523.947 Y81.796 I5.648 J-1.727
G3 Y82.204 I-0.192 J0.204
G2 X522.352 Y84.773 I4.053 J4.296
G3 X521.918 Y85.094 I-0.434 J-0.133
G1 X184.219
G3 X183.906 Y84.781 I0. J-0.313
G1 Y79.219
G3 X184.219 Y78.906 I0.313 J0.
G1 X186.136
G2 X188.316 Y77.453 I0. J-2.361
G3 X190.495 Y76. I2.179 J0.908
G1 X525.
Y77.5
G2 X528. Y80.5 I3. J0.
G1 X616.098
G3 X642.098 Y106.5 I0. J26.
G1 Y345.041
G3 X639.098 I-1.5 J0.
G1 Y106.5
G2 X616.098 Y83.5 I-23. J0.
G1 X528.
G2 X525. Y86.5 I0. J3.
G1 Y88.
X181.
Y76.
X190.495
G3 X190.745 Y76.466 I0. J0.3
G1 X187.652 Y81.107
G3 X187.129 Y80.816 I-0.25 J-0.166
X192.314 Y83.184 Z-2.146 I2.592 J1.184
X187.129 Y80.816 Z-2.459 I-2.592 J-1.184
X192.314 Y83.184 Z-2.771 I2.592 J1.184
X187.129 Y80.816 Z-3.084 I-2.592 J-1.184
X192.314 Y83.184 Z-3.397 I2.592 J1.184
X186.872 Y82. Z-3.667 I-2.592 J-1.184
X187.066 Y81.806 I0.194 J0.
G1 X520.217
X520.262 Y81.812
X520.304 Y81.83
X520.341 Y81.857
X520.368 Y81.894
X520.379 Y81.912
X520.397 Y81.955
X520.403 Y82.
X520.397 Y82.045
X520.379 Y82.088
X520.368 Y82.106
X520.341 Y82.143
X520.304 Y82.17
X520.262 Y82.188
X520.217 Y82.194
X187.066
G3 X186.872 Y82. I0. J-0.194
G2 X185.863 Y80.605 I-1.469 J0.
G3 X186.136 Y78.906 I0.273 J-0.828
G1 X521.918
G3 X522.352 Y79.227 I0. J0.454
G2 X523.947 Y81.796 I5.648 J-1.727
G3 Y82.204 I-0.192 J0.204
G2 X522.352 Y84.773 I4.053 J4.296
G3 X521.918 Y85.094 I-0.434 J-0.133
G1 X184.219
G3 X183.906 Y84.781 I0. J-0.313
G1 Y79.219
G3 X184.219 Y78.906 I0.313 J0.
G1 X186.136
G2 X188.316 Y77.453 I0. J-2.361
G3 X190.495 Y76. I2.179 J0.908
G1 X525.
Y77.5
G2 X528. Y80.5 I3. J0.
G1 X616.098
G3 X642.098 Y106.5 I0. J26.
G1 Y345.041
G3 X639.098 I-1.5 J0.
G1 Y106.5
G2 X616.098 Y83.5 I-23. J0.
G1 X528.
G2 X525. Y86.5 I0. J3.
G1 Y88.
X181.
Y76.
X190.495
G3 X190.745 Y76.466 I0. J0.3
G1 X187.652 Y81.107
G3 X187.129 Y80.816 I-0.25 J-0.166
X192.314 Y83.184 Z-3.979 I2.592 J1.184
X187.129 Y80.816 Z-4.292 I-2.592 J-1.184
X192.314 Y83.184 Z-4.605 I2.592 J1.184
X187.129 Y80.816 Z-4.917 I-2.592 J-1.184
X192.314 Y83.184 Z-5.23 I2.592 J1.184
X186.872 Y82. Z-5.5 I-2.592 J-1.184
X187.066 Y81.806 I0.194 J0.
G1 X520.217
X520.262 Y81.812
X520.304 Y81.83
X520.341 Y81.857
X520.368 Y81.894
X520.379 Y81.912
X520.397 Y81.955
X520.403 Y82.
X520.397 Y82.045
X520.379 Y82.088
X520.368 Y82.106
X520.341 Y82.143
X520.304 Y82.17
X520.262 Y82.188
X520.217 Y82.194
X187.066
G3 X186.872 Y82. I0. J-0.194
G2 X185.863 Y80.605 I-1.469 J0.
G3 X186.136 Y78.906 I0.273 J-0.828
G1 X521.918
G3 X522.352 Y79.227 I0. J0.454
G2 X523.947 Y81.796 I5.648 J-1.727
G3 Y82.204 I-0.192 J0.204
G2 X522.352 Y84.773 I4.053 J4.296
G3 X521.918 Y85.094 I-0.434 J-0.133
G1 X184.219
G3 X183.906 Y84.781 I0. J-0.313
G1 Y79.219
G3 X184.219 Y78.906 I0.313 J0.
G1 X186.136
G2 X188.316 Y77.453 I0. J-2.361
G3 X190.495 Y76. I2.179 J0.908
G1 X525.
Y77.5
G2 X528. Y80.5 I3. J0.
G1 X616.098
G3 X642.098 Y106.5 I0. J26.
G1 Y345.041
G3 X639.098 I-1.5 J0.
G1 Y106.5
G2 X616.098 Y83.5 I-23. J0.
G1 X528.
G2 X525. Y86.5 I0. J3.
G1 Y88.
X181.
Y76.
X190.495
X190.587 Y76.007 Z-5.485
X190.678 Y76.028 Z-5.471
X190.755 Y76.059 Z-5.428
X190.828 Y76.101 Z-5.385
X190.881 Y76.14 Z-5.319
X190.929 Y76.186 Z-5.253
X190.983 Y76.252 Z-5.085
X191. Y76.276 Z-4.9
G0 Z15.

M9
M5
G28 G91 Z0.
G90
G28 G91 X0. Y0.
G90
M30
